; generated by PrusaSlicer 2.3.1+x64 on 2021-08-16 at 14:06:27 UTC

; 

; external perimeters extrusion width = 0.45mm
; perimeters extrusion width = 0.45mm
; infill extrusion width = 0.45mm
; solid infill extrusion width = 0.45mm
; top infill extrusion width = 0.40mm
; first layer extrusion width = 0.42mm

M73 P0 R57
M73 Q0 S57
M201 X1000 Y1000 Z200 E5000 ; sets maximum accelerations, mm/sec^2
M203 X200 Y200 Z12 E120 ; sets maximum feedrates, mm/sec
M204 P1250 R1250 T1250 ; sets acceleration (P, T) and retract acceleration (R), mm/sec^2
M205 X8.00 Y8.00 Z0.40 E4.50 ; sets the jerk limits, mm/sec
M205 S0 T0 ; sets the minimum extruding and travel feed rate, mm/sec
M107
;TYPE:Custom
M862.3 P "MK3S" ; printer model check
M862.1 P0.4 ; nozzle diameter check
M115 U3.10.0 ; tell printer latest fw version
G90 ; use absolute coordinates
M83 ; extruder relative mode
M104 S260 ; set extruder temp
M140 S50 ; set bed temp
M190 S50 ; wait for bed temp
M109 S260 ; wait for extruder temp
G28 W ; home all without mesh bed level
G80 ; mesh bed leveling
G1 Y-3.0 F1000.0 ; go outside print area
G92 E0.0
G1 X60.0 E9.0 F1000.0 ; intro line
G1 X100.0 E12.5 F1000.0 ; intro line
G92 E0.0
M221 S95

; Don't change E values below. Excessive value can damage the printer.
M907 E430 ; set extruder motor current
G21 ; set units to millimeters
G90 ; use absolute coordinates
M83 ; use relative distances for extrusion
M900 K0
;LAYER_CHANGE
;Z:0.2
;HEIGHT:0.2
;BEFORE_LAYER_CHANGE
G92 E0.0
;0.2


G1 Z0.200 F10800.000
;AFTER_LAYER_CHANGE
;0.2
G1 X54.809 Y40.678
M204 S1000
;TYPE:Skirt
;WIDTH:0.42
G1 F900.000
G1 X54.996 Y40.426 E0.01131
G1 X56.588 Y38.607 E0.08718
G1 X58.143 Y37.022 E0.08004
G1 X60.995 Y34.538 E0.13636
G1 X64.055 Y32.355 E0.13554
G1 X67.331 Y30.465 E0.13637
G1 X69.515 Y29.429 E0.08718
G1 X71.572 Y28.595 E0.08004
G1 X75.177 Y27.451 E0.13636
G1 X78.872 Y26.662 E0.13623
G1 X81.674 Y26.308 E0.10185
G1 X85.369 Y26.152 E0.13334
G1 X165.059 Y26.152 E2.87343
G1 X167.912 Y26.273 E0.10298
G1 X171.607 Y26.743 E0.13430
G1 X174.391 Y27.340 E0.10267
G1 X177.955 Y28.424 E0.13430
G1 X180.600 Y29.479 E0.10267
G1 X183.934 Y31.146 E0.13444
G1 X186.808 Y32.931 E0.12198
G1 X189.366 Y34.829 E0.11485
G1 X191.513 Y36.699 E0.10267
G1 X194.106 Y39.373 E0.13430
G1 X195.909 Y41.577 E0.10267
G1 X198.017 Y44.648 E0.13430
G1 X199.425 Y47.123 E0.10267
G1 X200.988 Y50.504 E0.13430
G1 X201.961 Y53.180 E0.10267
G1 X202.932 Y56.764 E0.13389
G1 X203.568 Y60.507 E0.13691
G1 X203.800 Y63.257 E0.09951
G1 X203.847 Y65.142 E0.06800
G1 X203.801 Y146.728 E2.94177
G1 X203.565 Y149.519 E0.10102
M73 P0 R56
G1 X203.131 Y152.276 E0.10061
G1 X202.715 Y154.166 E0.06978
G1 X201.943 Y156.875 E0.10157
G1 X200.988 Y159.496 E0.10060
G1 X199.836 Y162.067 E0.10157
G1 X198.503 Y164.544 E0.10143
G1 X197.004 Y166.906 E0.10088
G1 X194.701 Y169.935 E0.13719
G1 X192.852 Y171.984 E0.09951
G1 X191.491 Y173.322 E0.06882
G1 X190.069 Y174.589 E0.06868
G1 X187.902 Y176.298 E0.09951
G1 X184.721 Y178.400 E0.13746
G1 X182.299 Y179.721 E0.09951
G1 X180.572 Y180.534 E0.06882
G1 X178.811 Y181.259 E0.06868
G1 X176.201 Y182.156 E0.09951
G1 X172.504 Y183.087 E0.13746
G1 X169.781 Y183.534 E0.09951
G1 X167.878 Y183.730 E0.06896
G1 X165.055 Y183.848 E0.10188
G1 X85.379 Y183.848 E2.87292
M73 Q0 S56
G1 X82.591 Y183.764 E0.10057
G1 X79.808 Y183.480 E0.10088
G1 X77.898 Y183.166 E0.06978
G1 X75.177 Y182.549 E0.10060
G1 X72.485 Y181.732 E0.10143
G1 X69.881 Y180.731 E0.10061
M73 P1 R56
M73 Q1 S56
G1 X68.120 Y179.929 E0.06978
G1 X65.655 Y178.621 E0.10060
G1 X63.274 Y177.130 E0.10129
G1 X61.718 Y176.018 E0.06896
G1 X59.572 Y174.283 E0.09951
G1 X56.820 Y171.645 E0.13746
G1 X54.996 Y169.574 E0.09951
G1 X53.822 Y168.069 E0.06882
G1 X52.726 Y166.511 E0.06868
G1 X51.275 Y164.164 E0.09951
G1 X49.550 Y160.764 E0.13746
G1 X48.513 Y158.207 E0.09951
G1 X47.904 Y156.402 E0.06868
G1 X47.383 Y154.566 E0.06882
G1 X46.790 Y151.870 E0.09951
G1 X46.288 Y148.107 E0.13691
G1 X46.153 Y145.282 E0.10198
G1 X46.153 Y64.718 E2.90491
G1 X46.221 Y62.815 E0.06868
G1 X46.488 Y60.041 E0.10047
G1 X46.790 Y58.130 E0.06978
G1 X47.391 Y55.405 E0.10060
G1 X48.192 Y52.708 E0.10143
G1 X49.187 Y50.073 E0.10157
G1 X50.358 Y47.540 E0.10061
G1 X51.275 Y45.836 E0.06978
G1 X52.747 Y43.457 E0.10088
G1 X54.773 Y40.726 E0.12262
; printing object Project Case _Flood Dog v21 v8_Gasket_.stl id:2 copy 0
G1 X138.998 Y120.508 F10800.000
;TYPE:External perimeter
G1 F900.000
G1 X139.658 Y119.811 E0.03461
G1 X140.891 Y118.628 E0.06162
G1 X142.181 Y117.506 E0.06162
G1 X143.522 Y116.448 E0.06162
G1 X144.913 Y115.455 E0.06162
G1 X146.350 Y114.530 E0.06162
G1 X147.830 Y113.676 E0.06162
G1 X149.350 Y112.893 E0.06162
G1 X150.905 Y112.185 E0.06162
G1 X152.493 Y111.552 E0.06162
G1 X154.109 Y110.997 E0.06162
G1 X155.750 Y110.520 E0.06162
G1 X157.412 Y110.123 E0.06162
G1 X159.092 Y109.806 E0.06162
G1 X160.784 Y109.570 E0.06162
G1 X162.485 Y109.416 E0.06158
G1 X163.340 Y109.369 E0.03089
G1 X164.554 Y109.342 E0.04376
G1 X165.902 Y109.354 E0.04861
G1 X166.758 Y109.390 E0.03089
G1 X168.460 Y109.524 E0.06158
G1 X170.156 Y109.739 E0.06162
G1 X171.839 Y110.036 E0.06162
G1 X173.506 Y110.413 E0.06162
G1 X175.152 Y110.870 E0.06162
G1 X176.775 Y111.406 E0.06162
G1 X178.370 Y112.020 E0.06162
G1 X179.934 Y112.709 E0.06162
G1 X181.463 Y113.473 E0.06162
G1 X182.953 Y114.310 E0.06162
G1 X184.401 Y115.217 E0.06162
G1 X185.804 Y116.193 E0.06162
G1 X187.158 Y117.236 E0.06162
G1 X188.461 Y118.342 E0.06162
G1 X189.709 Y119.510 E0.06162
G1 X190.899 Y120.736 E0.06162
G1 X192.029 Y122.019 E0.06162
G1 X193.095 Y123.354 E0.06162
G1 X194.097 Y124.739 E0.06162
G1 X195.030 Y126.170 E0.06162
G1 X195.893 Y127.645 E0.06162
G1 X196.684 Y129.159 E0.06158
G1 X197.053 Y129.932 E0.03089
G1 X197.542 Y131.043 E0.04376
G1 X198.044 Y132.294 E0.04861
G1 X198.337 Y133.099 E0.03089
G1 X198.863 Y134.724 E0.06158
G1 X199.310 Y136.373 E0.06162
G1 X199.678 Y138.042 E0.06162
G1 X199.964 Y139.727 E0.06162
G1 X200.169 Y141.424 E0.06162
G1 X200.293 Y143.128 E0.06162
G1 X200.334 Y144.837 E0.06162
G1 X200.293 Y146.545 E0.06162
G1 X200.169 Y148.250 E0.06162
G1 X199.964 Y149.947 E0.06162
G1 X199.678 Y151.631 E0.06162
G1 X199.310 Y153.300 E0.06162
G1 X198.863 Y154.950 E0.06162
G1 X198.337 Y156.576 E0.06162
G1 X197.733 Y158.175 E0.06162
G1 X197.053 Y159.743 E0.06162
G1 X196.298 Y161.276 E0.06162
G1 X195.470 Y162.771 E0.06162
G1 X194.572 Y164.225 E0.06162
G1 X193.604 Y165.633 E0.06162
G1 X192.570 Y166.994 E0.06162
G1 X191.471 Y168.303 E0.06162
G1 X190.311 Y169.558 E0.06162
G1 X189.092 Y170.755 E0.06162
G1 X187.816 Y171.893 E0.06162
G1 X186.488 Y172.968 E0.06162
G1 X185.109 Y173.977 E0.06162
G1 X183.683 Y174.919 E0.06162
G1 X182.213 Y175.791 E0.06162
G1 X180.703 Y176.592 E0.06162
G1 X179.157 Y177.319 E0.06161
G1 X177.973 Y177.812 E0.04623
G1 X176.775 Y178.268 E0.04623
G1 X175.152 Y178.803 E0.06161
G1 X173.506 Y179.261 E0.06162
G1 X171.839 Y179.638 E0.06162
G1 X170.156 Y179.935 E0.06162
G1 X168.460 Y180.150 E0.06162
G1 X166.757 Y180.284 E0.06162
G1 X165.048 Y180.335 E0.06162
G1 X163.340 Y180.304 E0.06162
G1 X161.634 Y180.191 E0.06162
G1 X159.937 Y179.996 E0.06162
G1 X158.250 Y179.720 E0.06162
G1 X156.579 Y179.363 E0.06162
G1 X154.927 Y178.925 E0.06162
G1 X153.299 Y178.409 E0.06158
G1 X152.492 Y178.121 E0.03089
G1 X151.300 Y177.652 E0.04619
G1 X150.124 Y177.144 E0.04619
G1 X149.349 Y176.780 E0.03089
G1 X147.830 Y175.998 E0.06158
G1 X146.350 Y175.144 E0.06162
G1 X144.913 Y174.219 E0.06162
G1 X143.522 Y173.226 E0.06162
G1 X142.181 Y172.168 E0.06162
G1 X140.891 Y171.046 E0.06162
G1 X139.658 Y169.863 E0.06162
G1 X138.483 Y168.622 E0.06162
G1 X137.368 Y167.326 E0.06162
G1 X136.318 Y165.978 E0.06162
G1 X135.333 Y164.581 E0.06162
G1 X134.417 Y163.139 E0.06162
G1 X133.572 Y161.653 E0.06162
G1 X132.799 Y160.129 E0.06162
G1 X132.100 Y158.570 E0.06162
G1 X131.477 Y156.978 E0.06162
G1 X130.931 Y155.359 E0.06162
G1 X130.464 Y153.715 E0.06162
G1 X130.076 Y152.050 E0.06162
G1 X129.770 Y150.369 E0.06162
G1 X129.544 Y148.675 E0.06162
G1 X129.400 Y146.972 E0.06162
G1 X129.338 Y145.264 E0.06162
G1 X129.359 Y143.557 E0.06158
G1 X129.400 Y142.701 E0.03089
G1 X129.496 Y141.491 E0.04376
G1 X129.646 Y140.151 E0.04861
G1 X129.770 Y139.303 E0.03089
G1 X130.076 Y137.623 E0.06158
G1 X130.464 Y135.959 E0.06162
G1 X130.931 Y134.315 E0.06162
G1 X131.477 Y132.696 E0.06162
G1 X132.100 Y131.104 E0.06162
G1 X132.799 Y129.545 E0.06162
G1 X133.572 Y128.020 E0.06162
G1 X134.417 Y126.535 E0.06162
G1 X135.333 Y125.093 E0.06162
G1 X136.318 Y123.696 E0.06162
G1 X137.368 Y122.348 E0.06162
G1 X138.483 Y121.052 E0.06162
G1 X138.957 Y120.551 E0.02485
G1 X138.880 Y120.126 F10800.000
G1 X138.672 Y120.295
G1 F900.000
G1 X140.007 Y118.940 E0.06856
G1 X141.282 Y117.775 E0.06228
G1 X142.612 Y116.673 E0.06228
G1 X143.993 Y115.636 E0.06228
G1 X145.422 Y114.667 E0.06228
G1 X146.897 Y113.767 E0.06228
G1 X148.413 Y112.940 E0.06228
G1 X149.967 Y112.187 E0.06228
G1 X151.556 Y111.509 E0.06228
G1 X153.175 Y110.908 E0.06228
G1 X154.822 Y110.387 E0.06228
G1 X156.491 Y109.945 E0.06228
G1 X158.180 Y109.583 E0.06228
G1 X159.885 Y109.304 E0.06228
G1 X161.600 Y109.107 E0.06228
G1 X163.325 Y108.993 E0.06232
G1 X164.187 Y108.967 E0.03107
G1 X165.301 Y108.966 E0.04017
G1 X166.778 Y109.014 E0.05330
G1 X167.638 Y109.071 E0.03106
G1 X169.357 Y109.247 E0.06232
G1 X171.065 Y109.506 E0.06228
G1 X172.758 Y109.847 E0.06228
G1 X174.433 Y110.269 E0.06228
G1 X176.085 Y110.771 E0.06228
G1 X177.712 Y111.352 E0.06228
G1 X179.308 Y112.010 E0.06228
G1 X180.872 Y112.745 E0.06228
G1 X182.398 Y113.554 E0.06228
G1 X183.883 Y114.435 E0.06228
G1 X185.324 Y115.387 E0.06228
G1 X186.718 Y116.407 E0.06228
G1 X188.060 Y117.494 E0.06228
G1 X189.350 Y118.643 E0.06228
G1 X190.582 Y119.853 E0.06228
G1 X191.754 Y121.121 E0.06228
G1 X192.865 Y122.444 E0.06228
G1 X193.910 Y123.819 E0.06228
G1 X194.888 Y125.243 E0.06228
G1 X195.796 Y126.712 E0.06228
G1 X196.632 Y128.223 E0.06228
G1 X197.396 Y129.774 E0.06232
G1 X197.748 Y130.560 E0.03106
G1 X198.265 Y131.825 E0.04928
G1 X198.693 Y132.974 E0.04419
G1 X198.968 Y133.790 E0.03107
G1 X199.460 Y135.447 E0.06232
G1 X199.872 Y137.125 E0.06228
G1 X200.203 Y138.820 E0.06228
G1 X200.451 Y140.529 E0.06228
G1 X200.617 Y142.248 E0.06228
G1 X200.700 Y143.973 E0.06228
G1 X200.700 Y145.700 E0.06228
G1 X200.617 Y147.426 E0.06228
G1 X200.451 Y149.145 E0.06228
G1 X200.203 Y150.854 E0.06228
G1 X199.872 Y152.549 E0.06228
G1 X199.460 Y154.227 E0.06228
G1 X198.968 Y155.882 E0.06228
G1 X198.397 Y157.512 E0.06228
G1 X197.748 Y159.113 E0.06228
G1 X197.023 Y160.680 E0.06228
G1 X196.223 Y162.211 E0.06228
G1 X195.351 Y163.702 E0.06228
G1 X194.407 Y165.148 E0.06228
G1 X193.395 Y166.548 E0.06228
G1 X192.317 Y167.898 E0.06228
G1 X191.175 Y169.194 E0.06232
G1 X190.582 Y169.820 E0.03106
G1 X189.610 Y170.781 E0.04928
G1 X188.711 Y171.614 E0.04419
G1 X188.061 Y172.179 E0.03107
G1 X186.718 Y173.266 E0.06232
G1 X185.324 Y174.287 E0.06228
G1 X183.883 Y175.239 E0.06228
G1 X182.398 Y176.120 E0.06228
M73 Q2 S56
G1 X180.872 Y176.929 E0.06228
M73 P2 R56
G1 X179.308 Y177.664 E0.06228
G1 X177.712 Y178.322 E0.06228
G1 X176.085 Y178.903 E0.06228
G1 X174.433 Y179.405 E0.06228
G1 X172.758 Y179.827 E0.06228
G1 X171.065 Y180.168 E0.06228
G1 X169.357 Y180.427 E0.06228
G1 X167.639 Y180.603 E0.06228
G1 X165.914 Y180.697 E0.06228
G1 X164.187 Y180.707 E0.06228
G1 X162.461 Y180.634 E0.06228
G1 X160.741 Y180.479 E0.06228
G1 X159.031 Y180.240 E0.06228
G1 X157.334 Y179.920 E0.06228
G1 X155.654 Y179.518 E0.06228
G1 X153.995 Y179.036 E0.06228
G1 X152.362 Y178.475 E0.06228
G1 X150.757 Y177.836 E0.06228
G1 X149.185 Y177.120 E0.06228
G1 X147.650 Y176.329 E0.06228
G1 X146.154 Y175.466 E0.06228
G1 X144.702 Y174.531 E0.06228
G1 X143.296 Y173.528 E0.06228
G1 X141.940 Y172.458 E0.06228
G1 X140.636 Y171.323 E0.06232
G1 X140.007 Y170.734 E0.03106
G1 X139.090 Y169.819 E0.04674
G1 X138.202 Y168.874 E0.04674
G1 X137.633 Y168.228 E0.03106
G1 X136.538 Y166.890 E0.06232
G1 X135.509 Y165.503 E0.06228
G1 X134.548 Y164.067 E0.06228
G1 X133.658 Y162.588 E0.06228
G1 X132.840 Y161.067 E0.06228
G1 X132.096 Y159.508 E0.06228
G1 X131.428 Y157.915 E0.06228
G1 X130.837 Y156.292 E0.06228
G1 X130.325 Y154.643 E0.06228
G1 X129.893 Y152.970 E0.06228
G1 X129.542 Y151.279 E0.06228
G1 X129.273 Y149.573 E0.06228
G1 X129.086 Y147.856 E0.06228
G1 X128.982 Y146.132 E0.06228
G1 X128.961 Y144.405 E0.06228
G1 X129.024 Y142.679 E0.06228
G1 X129.169 Y140.958 E0.06228
G1 X129.397 Y139.246 E0.06228
G1 X129.707 Y137.547 E0.06228
G1 X130.099 Y135.865 E0.06228
G1 X130.571 Y134.203 E0.06228
G1 X131.123 Y132.565 E0.06232
G1 X131.427 Y131.759 E0.03106
G1 X131.924 Y130.562 E0.04674
G1 X132.459 Y129.381 E0.04674
G1 X132.839 Y128.608 E0.03106
G1 X133.658 Y127.086 E0.06232
G1 X134.548 Y125.606 E0.06228
G1 X135.509 Y124.171 E0.06228
G1 X136.538 Y122.783 E0.06228
G1 X137.632 Y121.447 E0.06228
G1 X138.632 Y120.339 E0.05382
G1 X139.061 Y120.386 F10800.000
; stop printing object Project Case _Flood Dog v21 v8_Gasket_.stl id:2 copy 0
; printing object Project Case _Flood Dog v21 v8_Gasket_.stl id:3 copy 0
G1 X117.381 Y129.932
G1 F900.000
G1 X117.869 Y131.043 E0.04376
G1 X118.372 Y132.294 E0.04861
G1 X118.665 Y133.099 E0.03089
G1 X119.191 Y134.724 E0.06158
G1 X119.638 Y136.373 E0.06162
G1 X120.005 Y138.042 E0.06162
G1 X120.292 Y139.727 E0.06162
G1 X120.497 Y141.424 E0.06162
G1 X120.620 Y143.128 E0.06162
G1 X120.661 Y144.837 E0.06162
G1 X120.620 Y146.545 E0.06162
G1 X120.497 Y148.250 E0.06162
G1 X120.292 Y149.947 E0.06162
G1 X120.005 Y151.631 E0.06162
G1 X119.638 Y153.300 E0.06162
G1 X119.191 Y154.950 E0.06162
G1 X118.664 Y156.576 E0.06162
G1 X118.061 Y158.175 E0.06162
G1 X117.381 Y159.743 E0.06162
G1 X116.626 Y161.276 E0.06162
G1 X115.798 Y162.771 E0.06162
G1 X114.900 Y164.225 E0.06162
G1 X113.932 Y165.633 E0.06162
G1 X112.898 Y166.994 E0.06162
G1 X111.799 Y168.303 E0.06162
G1 X110.639 Y169.558 E0.06162
G1 X109.420 Y170.755 E0.06162
G1 X108.144 Y171.893 E0.06162
G1 X106.815 Y172.968 E0.06162
G1 X105.436 Y173.977 E0.06162
G1 X104.010 Y174.919 E0.06162
G1 X102.541 Y175.791 E0.06162
G1 X101.031 Y176.592 E0.06162
G1 X99.484 Y177.319 E0.06161
G1 X98.301 Y177.812 E0.04623
G1 X97.102 Y178.268 E0.04623
G1 X95.480 Y178.803 E0.06161
G1 X93.833 Y179.261 E0.06162
G1 X92.167 Y179.638 E0.06162
G1 X90.484 Y179.935 E0.06162
G1 X88.788 Y180.150 E0.06162
G1 X87.084 Y180.284 E0.06162
G1 X85.376 Y180.335 E0.06162
G1 X83.667 Y180.304 E0.06162
G1 X81.962 Y180.191 E0.06162
G1 X80.264 Y179.996 E0.06162
G1 X78.578 Y179.720 E0.06162
G1 X76.907 Y179.363 E0.06162
G1 X75.254 Y178.925 E0.06162
G1 X73.627 Y178.409 E0.06158
G1 X72.820 Y178.121 E0.03089
G1 X71.628 Y177.652 E0.04619
G1 X70.452 Y177.144 E0.04619
G1 X69.676 Y176.780 E0.03089
G1 X68.158 Y175.998 E0.06158
G1 X66.678 Y175.144 E0.06162
G1 X65.241 Y174.219 E0.06162
G1 X63.850 Y173.226 E0.06162
G1 X62.508 Y172.168 E0.06162
G1 X61.219 Y171.046 E0.06162
G1 X59.985 Y169.863 E0.06162
G1 X58.810 Y168.622 E0.06162
G1 X57.696 Y167.326 E0.06162
G1 X56.645 Y165.978 E0.06162
G1 X55.661 Y164.581 E0.06162
G1 X54.745 Y163.139 E0.06162
G1 X53.899 Y161.653 E0.06162
G1 X53.126 Y160.129 E0.06162
G1 X52.427 Y158.570 E0.06162
G1 X51.804 Y156.978 E0.06162
G1 X51.259 Y155.359 E0.06162
G1 X50.792 Y153.715 E0.06162
G1 X50.404 Y152.050 E0.06162
G1 X50.097 Y150.369 E0.06162
G1 X49.872 Y148.675 E0.06162
G1 X49.728 Y146.972 E0.06162
G1 X49.666 Y145.264 E0.06162
G1 X49.687 Y143.557 E0.06158
M73 P2 R55
G1 X49.728 Y142.701 E0.03089
G1 X49.824 Y141.491 E0.04376
G1 X49.974 Y140.151 E0.04861
G1 X50.097 Y139.303 E0.03089
G1 X50.404 Y137.623 E0.06158
G1 X50.792 Y135.959 E0.06162
G1 X51.259 Y134.315 E0.06162
G1 X51.804 Y132.696 E0.06162
G1 X52.427 Y131.104 E0.06162
G1 X53.126 Y129.545 E0.06162
G1 X53.899 Y128.020 E0.06162
G1 X54.745 Y126.535 E0.06162
G1 X55.661 Y125.093 E0.06162
G1 X56.645 Y123.696 E0.06162
G1 X57.696 Y122.348 E0.06162
G1 X58.810 Y121.052 E0.06162
G1 X59.985 Y119.811 E0.06162
G1 X61.219 Y118.628 E0.06162
G1 X62.508 Y117.506 E0.06162
G1 X63.850 Y116.448 E0.06162
G1 X65.241 Y115.455 E0.06162
G1 X66.678 Y114.530 E0.06162
G1 X68.158 Y113.676 E0.06162
G1 X69.678 Y112.893 E0.06162
