; generated by PrusaSlicer 2.3.1+x64 on 2021-12-16 at 13:48:20 UTC

; 

; external perimeters extrusion width = 0.45mm
; perimeters extrusion width = 0.45mm
; infill extrusion width = 0.45mm
; solid infill extrusion width = 0.45mm
; top infill extrusion width = 0.40mm
; first layer extrusion width = 0.42mm

M73 P0 R246
M73 Q0 S248
M201 X1000 Y1000 Z200 E5000 ; sets maximum accelerations, mm/sec^2
M203 X200 Y200 Z12 E120 ; sets maximum feedrates, mm/sec
M204 P1250 R1250 T1250 ; sets acceleration (P, T) and retract acceleration (R), mm/sec^2
M205 X8.00 Y8.00 Z0.40 E4.50 ; sets the jerk limits, mm/sec
M205 S0 T0 ; sets the minimum extruding and travel feed rate, mm/sec
M107
;TYPE:Custom
M862.3 P "MK3S" ; printer model check
M862.1 P0.4 ; nozzle diameter check
M115 U3.10.0 ; tell printer latest fw version
G90 ; use absolute coordinates
M83 ; extruder relative mode
M104 S260 ; set extruder temp
M140 S105 ; set bed temp
M190 S105 ; wait for bed temp
M109 S260 ; wait for extruder temp
G28 W ; home all without mesh bed level
G80 ; mesh bed leveling
G1 Y-3.0 F1000.0 ; go outside print area
G92 E0.0
G1 X60.0 E9.0 F1000.0 ; intro line
G1 X100.0 E12.5 F1000.0 ; intro line
G92 E0.0
M221 S95

; Don't change E values below. Excessive value can damage the printer.
M907 E430 ; set extruder motor current
G21 ; set units to millimeters
G90 ; use absolute coordinates
M83 ; use relative distances for extrusion
M900 K0.04 ; Filament gcode LA 1.5
M900 K20 ; Filament gcode LA 1.0
;LAYER_CHANGE
;Z:0.2
;HEIGHT:0.2
;BEFORE_LAYER_CHANGE
G92 E0.0
;0.2


G1 E-0.80000 F2100.000
G1 Z0.400 F10800.000
;AFTER_LAYER_CHANGE
;0.2
G1 X189.684 Y178.437
G1 Z0.200
G1 E0.80000 F2100.000
M204 S1000
;TYPE:Skirt
;WIDTH:0.42
G1 F1200.000
G1 X189.327 Y179.020 E0.02142
G1 X188.820 Y179.477 E0.02142
G1 X188.203 Y179.771 E0.02142
G1 X187.524 Y179.877 E0.02154
G1 X62.496 Y179.877 E3.92016
G1 X61.563 Y179.684 E0.02989
G1 X60.983 Y179.330 E0.02130
G1 X60.527 Y178.826 E0.02130
G1 X60.231 Y178.210 E0.02142
G1 X60.123 Y177.539 E0.02130
G1 X60.125 Y94.901 E2.59106
M73 P0 R245
G1 X61.259 Y85.973 E0.28217
G1 X61.824 Y82.666 E0.10520
G1 X62.540 Y79.407 E0.10463
G1 X63.142 Y77.169 E0.07264
G1 X64.165 Y73.966 E0.10544
G1 X65.336 Y70.823 E0.10517
G1 X66.215 Y68.758 E0.07037
G1 X68.215 Y64.672 E0.14263
G1 X70.478 Y60.769 E0.14144
G1 X73.009 Y57.035 E0.14144
G1 X75.808 Y53.473 E0.14204
G1 X78.820 Y50.147 E0.14072
G1 X82.092 Y47.008 E0.14215
G1 X85.558 Y44.121 E0.14144
G1 X87.365 Y42.770 E0.07073
G1 X90.146 Y40.881 E0.10543
G1 X93.011 Y39.134 E0.10519
G1 X94.991 Y38.046 E0.07085
G1 X99.053 Y36.084 E0.14144
G1 X103.260 Y34.405 E0.14204
G1 X107.535 Y33.038 E0.14072
G1 X111.940 Y31.962 E0.14215
G1 X116.382 Y31.203 E0.14132
G1 X120.871 Y30.756 E0.14144
G1 X125.372 Y30.625 E0.14120
G1 X129.116 Y30.756 E0.11744
G1 X131.363 Y30.939 E0.07070
G1 X135.832 Y31.542 E0.14137
G1 X140.277 Y32.462 E0.14233
G1 X144.591 Y33.677 E0.14054
G1 X148.860 Y35.209 E0.14221
G1 X152.987 Y37.025 E0.14137
G1 X156.977 Y39.126 E0.14138
G1 X160.787 Y41.487 E0.14054
G1 X164.469 Y44.142 E0.14233
G1 X167.932 Y47.029 E0.14138
G1 X171.185 Y50.152 E0.14138
G1 X174.211 Y53.495 E0.14138
G1 X176.995 Y57.041 E0.14138
G1 X179.527 Y60.777 E0.14150
G1 X181.789 Y64.678 E0.14138
G1 X183.781 Y68.748 E0.14209
G1 X184.664 Y70.823 E0.07070
G1 X185.836 Y73.969 E0.10527
G1 X186.859 Y77.170 E0.10536
G1 X187.460 Y79.410 E0.07270
G1 X188.176 Y82.668 E0.10460
G1 X188.741 Y85.972 E0.10511
G1 X189.874 Y94.873 E0.28132
G1 X189.877 Y177.504 E2.59084
G1 X189.697 Y178.379 E0.02801
; printing object Sensor Bracket id:0 copy 0
;WIPE_START
G1 F8640.000
G1 X189.327 Y179.020 E-0.17086
G1 X188.820 Y179.477 E-0.15776
G1 X188.203 Y179.771 E-0.15776
G1 X187.524 Y179.877 E-0.15863
G1 X187.026 Y179.877 E-0.11498
;WIPE_END
G1 E-0.04000 F2100.000
G1 Z0.600 F10800.000
G1 X182.287 Y154.287
G1 Z0.200
G1 E0.80000 F2100.000
;TYPE:Perimeter
G1 F1200.000
G1 X146.565 Y154.287 E1.12004
G1 X146.306 Y152.928 E0.04337
G1 X148.729 Y151.968 E0.08173
G1 X150.706 Y151.104 E0.06766
G1 X152.652 Y150.171 E0.06766
G1 X154.564 Y149.170 E0.06766
G1 X156.440 Y148.104 E0.06766
G1 X158.277 Y146.972 E0.06766
G1 X160.074 Y145.777 E0.06766
G1 X161.828 Y144.519 E0.06766
G1 X163.537 Y143.202 E0.06766
G1 X165.198 Y141.825 E0.06766
G1 X166.811 Y140.391 E0.06766
G1 X168.372 Y138.901 E0.06766
G1 X169.881 Y137.358 E0.06766
G1 X171.334 Y135.763 E0.06766
G1 X172.731 Y134.118 E0.06766
G1 X174.070 Y132.425 E0.06766
G1 X175.348 Y130.687 E0.06766
G1 X176.565 Y128.905 E0.06766
G1 X177.719 Y127.081 E0.06766
G1 X178.808 Y125.218 E0.06766
G1 X179.832 Y123.319 E0.06766
G1 X180.996 Y120.965 E0.08231
G1 X182.287 Y121.267 E0.04159
G1 X182.287 Y154.227 E1.03343
G1 X181.910 Y153.910 F10800.000
;TYPE:External perimeter
G1 F1200.000
G1 X146.877 Y153.910 E1.09843
G1 X146.735 Y153.164 E0.02381
G1 X148.874 Y152.317 E0.07215
G1 X150.863 Y151.447 E0.06807
G1 X152.821 Y150.508 E0.06807
G1 X154.745 Y149.501 E0.06807
G1 X156.632 Y148.428 E0.06807
G1 X158.481 Y147.290 E0.06807
G1 X160.289 Y146.087 E0.06807
G1 X162.053 Y144.822 E0.06807
G1 X163.772 Y143.496 E0.06807
G1 X165.444 Y142.111 E0.06807
G1 X167.067 Y140.668 E0.06807
G1 X168.637 Y139.169 E0.06807
G1 X170.155 Y137.617 E0.06807
G1 X171.617 Y136.012 E0.06807
G1 X173.023 Y134.357 E0.06807
G1 X174.369 Y132.654 E0.06807
G1 X175.656 Y130.905 E0.06807
G1 X176.880 Y129.112 E0.06807
G1 X178.041 Y127.277 E0.06807
G1 X179.137 Y125.403 E0.06807
G1 X180.167 Y123.492 E0.06807
G1 X181.201 Y121.401 E0.07314
G1 X181.910 Y121.566 E0.02283
G1 X181.910 Y153.850 E1.01223
G1 X181.913 Y154.310 F10800.000
;WIPE_START
G1 F8640.000
G1 X178.619 Y153.856 E-0.76000
;WIPE_END
G1 E-0.04000 F2100.000
G1 Z0.600 F10800.000
G1 X103.694 Y152.928
G1 Z0.200
G1 E0.80000 F2100.000
;TYPE:Perimeter
G1 F1200.000
G1 X103.435 Y154.287 E0.04337
G1 X67.713 Y154.287 E1.12004
M73 Q0 S247
G1 X67.713 Y121.267 E1.03531
G1 X69.004 Y120.965 E0.04159
G1 X70.168 Y123.319 E0.08231
G1 X71.192 Y125.218 E0.06766
G1 X72.281 Y127.081 E0.06766
G1 X73.435 Y128.905 E0.06766
G1 X74.652 Y130.687 E0.06766
G1 X75.930 Y132.425 E0.06766
G1 X77.269 Y134.118 E0.06766
G1 X78.666 Y135.763 E0.06766
G1 X80.119 Y137.358 E0.06766
G1 X81.628 Y138.901 E0.06766
G1 X83.189 Y140.391 E0.06766
G1 X84.802 Y141.825 E0.06766
G1 X86.463 Y143.202 E0.06766
G1 X88.089 Y144.455 E0.06436
G1 X89.926 Y145.777 E0.07098
G1 X91.723 Y146.972 E0.06765
G1 X93.560 Y148.104 E0.06766
G1 X95.344 Y149.118 E0.06436
G1 X97.348 Y150.171 E0.07098
G1 X99.294 Y151.104 E0.06765
G1 X101.271 Y151.968 E0.06766
G1 X103.638 Y152.906 E0.07985
G1 X103.265 Y153.164 F10800.000
;TYPE:External perimeter
G1 F1200.000
G1 X103.123 Y153.910 E0.02381
G1 X68.090 Y153.910 E1.09843
G1 X68.090 Y121.566 E1.01411
G1 X68.799 Y121.401 E0.02283
G1 X69.833 Y123.492 E0.07314
G1 X70.863 Y125.403 E0.06807
G1 X71.959 Y127.277 E0.06807
G1 X73.120 Y129.112 E0.06807
G1 X74.344 Y130.905 E0.06807
G1 X75.631 Y132.654 E0.06807
G1 X76.977 Y134.357 E0.06807
G1 X78.383 Y136.012 E0.06807
G1 X79.845 Y137.617 E0.06807
G1 X81.363 Y139.169 E0.06807
G1 X82.933 Y140.668 E0.06807
G1 X84.556 Y142.111 E0.06807
G1 X86.228 Y143.496 E0.06807
G1 X87.863 Y144.758 E0.06476
G1 X89.712 Y146.087 E0.07139
G1 X91.519 Y147.290 E0.06807
G1 X93.368 Y148.428 E0.06807
G1 X95.163 Y149.449 E0.06476
G1 X97.179 Y150.508 E0.07139
G1 X99.137 Y151.447 E0.06807
G1 X101.126 Y152.317 E0.06807
G1 X103.210 Y153.142 E0.07027
G1 X103.652 Y153.266 F10800.000
;WIPE_START
G1 F8640.000
G1 X103.123 Y153.910 E-0.17845
G1 X100.604 Y153.910 E-0.58155
;WIPE_END
G1 E-0.04000 F2100.000
G1 Z0.600 F10800.000
G1 X185.827 Y95.787
G1 Z0.200
G1 E0.80000 F2100.000
;TYPE:Perimeter
G1 F1200.000
G1 X186.713 Y95.787 E0.02779
G1 X186.713 Y176.713 E2.53737
G1 X63.287 Y176.713 E3.86993
G1 X63.287 Y95.787 E2.53737
G1 X64.173 Y95.787 E0.02779
G1 X64.225 Y92.863 E0.09169
G1 X64.337 Y90.729 E0.06701
G1 X64.525 Y88.600 E0.06701
G1 X64.787 Y86.479 E0.06701
G1 X65.124 Y84.369 E0.06701
G1 X65.534 Y82.271 E0.06701
G1 X66.018 Y80.190 E0.06701
G1 X66.575 Y78.127 E0.06698
G1 X67.274 Y75.882 E0.07373
G1 X67.904 Y74.065 E0.06031
G1 X68.675 Y72.071 E0.06701
G1 X69.516 Y70.106 E0.06701
G1 X70.425 Y68.172 E0.06701
M73 P0 R244
G1 X71.401 Y66.271 E0.06701
G1 X72.444 Y64.405 E0.06701
G1 X73.551 Y62.578 E0.06701
G1 X74.722 Y60.790 E0.06701
G1 X75.955 Y59.044 E0.06701
G1 X77.249 Y57.343 E0.06701
G1 X78.602 Y55.688 E0.06701
G1 X80.012 Y54.082 E0.06701
G1 X81.477 Y52.527 E0.06701
G1 X82.997 Y51.024 E0.06701
G1 X84.568 Y49.575 E0.06701
G1 X86.189 Y48.182 E0.06701
G1 X87.858 Y46.848 E0.06701
G1 X89.572 Y45.573 E0.06699
G1 X91.511 Y44.242 E0.07373
G1 X93.132 Y43.206 E0.06030
G1 X94.971 Y42.118 E0.06702
G1 X96.848 Y41.096 E0.06701
G1 X98.760 Y40.140 E0.06701
G1 X100.703 Y39.252 E0.06701
G1 X102.677 Y38.433 E0.06701
G1 X104.679 Y37.683 E0.06701
G1 X106.705 Y37.005 E0.06701
G1 X108.754 Y36.398 E0.06701
G1 X110.824 Y35.863 E0.06701
G1 X112.910 Y35.401 E0.06701
G1 X115.011 Y35.013 E0.06699
G1 X117.338 Y34.673 E0.07373
G1 X119.249 Y34.460 E0.06030
G1 X121.381 Y34.295 E0.06702
G1 X123.518 Y34.206 E0.06709
G1 X124.650 Y34.188 E0.03549
G1 X124.271 Y35.225 E0.03460
G1 X122.655 Y35.259 E0.05068
G1 X120.489 Y35.383 E0.06800
G1 X118.330 Y35.586 E0.06800
G1 X116.179 Y35.867 E0.06800
G1 X114.041 Y36.226 E0.06800
G1 X111.916 Y36.662 E0.06800
G1 X109.809 Y37.175 E0.06800
G1 X107.721 Y37.764 E0.06800
G1 X105.657 Y38.428 E0.06800
G1 X103.618 Y39.167 E0.06800
G1 X101.607 Y39.979 E0.06800
G1 X99.626 Y40.864 E0.06800
G1 X97.680 Y41.820 E0.06800
G1 X95.769 Y42.846 E0.06800
G1 X93.896 Y43.940 E0.06800
G1 X92.065 Y45.102 E0.06800
G1 X90.277 Y46.330 E0.06800
G1 X88.534 Y47.621 E0.06800
G1 X86.840 Y48.975 E0.06800
G1 X85.196 Y50.389 E0.06800
G1 X83.604 Y51.862 E0.06800
G1 X82.066 Y53.392 E0.06800
G1 X80.586 Y54.977 E0.06800
G1 X79.163 Y56.614 E0.06800
G1 X77.801 Y58.302 E0.06800
G1 X76.501 Y60.038 E0.06800
G1 X75.265 Y61.820 E0.06800
G1 X74.094 Y63.645 E0.06800
G1 X72.990 Y65.512 E0.06800
G1 X71.955 Y67.418 E0.06800
G1 X70.990 Y69.360 E0.06800
G1 X70.095 Y71.336 E0.06800
G1 X69.273 Y73.343 E0.06800
G1 X68.524 Y75.379 E0.06800
G1 X67.850 Y77.440 E0.06800
G1 X67.250 Y79.524 E0.06800
G1 X66.727 Y81.629 E0.06800
G1 X66.281 Y83.751 E0.06800
G1 X65.911 Y85.889 E0.06800
G1 X65.620 Y88.038 E0.06800
G1 X65.428 Y89.978 E0.06115
G1 X65.271 Y92.360 E0.07482
G1 X65.215 Y94.529 E0.06803
G1 X65.237 Y96.697 E0.06800
G1 X65.338 Y98.864 E0.06800
G1 X65.517 Y101.025 E0.06800
G1 X65.775 Y103.179 E0.06800
G1 X66.110 Y105.322 E0.06800
G1 X66.524 Y107.451 E0.06800
G1 X67.014 Y109.563 E0.06800
G1 X67.580 Y111.657 E0.06800
G1 X68.222 Y113.729 E0.06800
G1 X68.939 Y115.776 E0.06800
G1 X69.729 Y117.795 E0.06800
G1 X70.592 Y119.785 E0.06800
G1 X71.527 Y121.742 E0.06800
G1 X72.532 Y123.664 E0.06800
G1 X73.606 Y125.548 E0.06800
G1 X74.748 Y127.392 E0.06800
G1 X75.956 Y129.193 E0.06800
G1 X77.228 Y130.950 E0.06800
G1 X78.564 Y132.659 E0.06800
G1 X79.960 Y134.318 E0.06800
G1 X81.416 Y135.926 E0.06800
G1 X82.929 Y137.480 E0.06800
G1 X84.497 Y138.978 E0.06800
G1 X86.119 Y140.418 E0.06800
G1 X87.792 Y141.798 E0.06800
G1 X89.514 Y143.117 E0.06800
G1 X91.282 Y144.372 E0.06800
G1 X93.095 Y145.563 E0.06800
G1 X94.950 Y146.687 E0.06800
G1 X96.845 Y147.743 E0.06800
G1 X98.776 Y148.729 E0.06800
G1 X100.742 Y149.645 E0.06800
G1 X102.740 Y150.489 E0.06800
G1 X104.767 Y151.260 E0.06800
G1 X106.821 Y151.956 E0.06800
G1 X108.899 Y152.578 E0.06800
G1 X110.998 Y153.124 E0.06800
G1 X113.115 Y153.594 E0.06800
G1 X115.248 Y153.987 E0.06800
G1 X117.394 Y154.301 E0.06800
G1 X119.550 Y154.538 E0.06800
G1 X121.713 Y154.697 E0.06800
G1 X123.662 Y154.769 E0.06115
G1 X126.048 Y154.778 E0.07482
G1 X128.217 Y154.701 E0.06803
G1 X130.380 Y154.545 E0.06800
G1 X132.536 Y154.310 E0.06800
G1 X134.682 Y153.998 E0.06800
G1 X136.816 Y153.608 E0.06800
G1 X138.934 Y153.141 E0.06800
G1 X141.033 Y152.597 E0.06800
G1 X143.112 Y151.978 E0.06800
G1 X145.167 Y151.283 E0.06800
G1 X147.195 Y150.515 E0.06800
G1 X149.194 Y149.673 E0.06800
G1 X151.161 Y148.760 E0.06800
G1 X153.093 Y147.776 E0.06800
G1 X154.989 Y146.722 E0.06800
G1 X156.845 Y145.600 E0.06800
G1 X158.660 Y144.412 E0.06800
G1 X160.430 Y143.159 E0.06800
G1 X162.153 Y141.842 E0.06800
G1 X163.828 Y140.464 E0.06800
G1 X165.451 Y139.025 E0.06800
G1 X167.021 Y137.529 E0.06800
G1 X168.536 Y135.977 E0.06800
G1 X169.994 Y134.371 E0.06800
G1 X171.392 Y132.713 E0.06800
G1 X172.729 Y131.006 E0.06800
G1 X174.004 Y129.251 E0.06800
G1 X175.214 Y127.451 E0.06800
G1 X176.358 Y125.608 E0.06800
G1 X177.434 Y123.726 E0.06800
G1 X178.442 Y121.805 E0.06800
G1 X179.379 Y119.849 E0.06800
G1 X180.244 Y117.860 E0.06800
G1 X181.037 Y115.842 E0.06800
G1 X181.756 Y113.795 E0.06800
G1 X182.400 Y111.724 E0.06800
G1 X182.969 Y109.632 E0.06800
G1 X183.462 Y107.519 E0.06800
G1 X183.877 Y105.391 E0.06800
G1 X184.215 Y103.248 E0.06800
G1 X184.476 Y101.095 E0.06800
G1 X184.658 Y98.934 E0.06800
G1 X184.761 Y96.768 E0.06800
G1 X184.786 Y94.599 E0.06800
G1 X184.732 Y92.431 E0.06800
G1 X184.599 Y90.266 E0.06800
G1 X184.389 Y88.107 E0.06800
G1 X184.100 Y85.958 E0.06800
G1 X183.733 Y83.820 E0.06800
G1 X183.289 Y81.697 E0.06800
G1 X182.768 Y79.592 E0.06800
G1 X182.171 Y77.507 E0.06800
G1 X181.499 Y75.445 E0.06800
G1 X180.752 Y73.409 E0.06800
G1 X179.933 Y71.401 E0.06800
G1 X179.040 Y69.424 E0.06800
G1 X178.077 Y67.481 E0.06800
G1 X177.044 Y65.574 E0.06800
G1 X175.943 Y63.705 E0.06800
G1 X174.774 Y61.878 E0.06800
G1 X173.540 Y60.095 E0.06800
G1 X172.242 Y58.357 E0.06800
G1 X170.882 Y56.668 E0.06800
G1 X169.461 Y55.029 E0.06800
G1 X167.982 Y53.442 E0.06800
G1 X166.447 Y51.911 E0.06800
G1 X164.857 Y50.436 E0.06800
G1 X163.214 Y49.020 E0.06800
G1 X161.521 Y47.664 E0.06800
G1 X159.780 Y46.370 E0.06800
G1 X157.994 Y45.141 E0.06800
G1 X156.164 Y43.977 E0.06800
G1 X154.292 Y42.880 E0.06800
G1 X152.383 Y41.852 E0.06800
G1 X150.437 Y40.894 E0.06800
G1 X148.458 Y40.007 E0.06800
G1 X146.448 Y39.192 E0.06800
G1 X144.410 Y38.451 E0.06800
G1 X142.346 Y37.784 E0.06800
G1 X140.259 Y37.193 E0.06800
G1 X138.153 Y36.677 E0.06800
G1 X136.029 Y36.239 E0.06800
G1 X133.890 Y35.877 E0.06800
G1 X131.740 Y35.594 E0.06800
G1 X129.581 Y35.389 E0.06800
G1 X127.946 Y35.293 E0.05135
G1 X127.561 Y34.242 E0.03509
G1 X128.646 Y34.297 E0.03406
G1 X130.779 Y34.463 E0.06706
G1 X132.902 Y34.703 E0.06700
G1 X134.804 Y34.984 E0.06028
G1 X137.116 Y35.407 E0.07371
G1 X139.202 Y35.869 E0.06698
G1 X141.063 Y36.349 E0.06028
G1 X143.319 Y37.012 E0.07371
G1 X145.344 Y37.691 E0.06697
G1 X147.344 Y38.441 E0.06699
G1 X149.317 Y39.261 E0.06700
G1 X151.066 Y40.059 E0.06028
G1 X153.171 Y41.106 E0.07371
G1 X155.046 Y42.129 E0.06697
G1 X156.702 Y43.106 E0.06028
G1 X158.685 Y44.369 E0.07371
G1 X160.442 Y45.583 E0.06697
G1 X161.985 Y46.730 E0.06028
G1 X163.825 Y48.194 E0.07371
G1 X165.444 Y49.586 E0.06697
G1 X166.858 Y50.889 E0.06028
G1 X168.534 Y52.538 E0.07371
G1 X169.998 Y54.093 E0.06697
G1 X171.267 Y55.538 E0.06028
G1 X172.759 Y57.354 E0.07371
G1 X174.052 Y59.054 E0.06697
G1 X175.162 Y60.624 E0.06028
G1 X176.455 Y62.587 E0.07371
G1 X177.561 Y64.414 E0.06697
G1 X178.500 Y66.092 E0.06028
G1 X179.579 Y68.181 E0.07371
G1 X180.488 Y70.114 E0.06696
G1 X181.244 Y71.881 E0.06029
G1 X182.098 Y74.072 E0.07371
G1 X182.798 Y76.090 E0.06696
G1 X183.364 Y77.927 E0.06029
G1 X183.983 Y80.195 E0.07371
G1 X184.467 Y82.275 E0.06696
G1 X184.877 Y84.372 E0.06699
G1 X185.213 Y86.482 E0.06699
G1 X185.475 Y88.602 E0.06699
G1 X185.663 Y90.730 E0.06699
G1 X185.775 Y92.864 E0.06699
G1 X185.826 Y95.727 E0.08979
G1 X186.197 Y95.410 F10800.000
;TYPE:External perimeter
G1 F1200.000
G1 X187.090 Y95.410 E0.02799
G1 X187.090 Y177.090 E2.56102
G1 X62.910 Y177.090 E3.89358
M73 Q0 S246
G1 X62.910 Y95.410 E2.56102
G1 X63.803 Y95.410 E0.02799
G1 X63.848 Y92.850 E0.08028
G1 X63.961 Y90.702 E0.06743
G1 X64.150 Y88.560 E0.06742
G1 X64.414 Y86.426 E0.06743
G1 X64.752 Y84.303 E0.06742
G1 X65.165 Y82.192 E0.06742
G1 X65.652 Y80.098 E0.06742
G1 X66.213 Y78.022 E0.06742
G1 X66.915 Y75.764 E0.07415
G1 X67.550 Y73.935 E0.06070
G1 X68.326 Y71.929 E0.06743
G1 X69.172 Y69.952 E0.06742
G1 X70.086 Y68.006 E0.06742
G1 X71.069 Y66.093 E0.06742
G1 X72.118 Y64.216 E0.06742
