; generated by PrusaSlicer 2.3.1+x64 on 2021-12-16 at 13:50:55 UTC

; 

; external perimeters extrusion width = 0.45mm
; perimeters extrusion width = 0.45mm
; infill extrusion width = 0.45mm
; solid infill extrusion width = 0.45mm
; top infill extrusion width = 0.40mm
; first layer extrusion width = 0.42mm

M73 P0 R33
M73 Q0 S33
M201 X1000 Y1000 Z200 E5000 ; sets maximum accelerations, mm/sec^2
M203 X200 Y200 Z12 E120 ; sets maximum feedrates, mm/sec
M204 P1250 R1250 T1250 ; sets acceleration (P, T) and retract acceleration (R), mm/sec^2
M205 X8.00 Y8.00 Z0.40 E4.50 ; sets the jerk limits, mm/sec
M205 S0 T0 ; sets the minimum extruding and travel feed rate, mm/sec
M107
;TYPE:Custom
M862.3 P "MK3S" ; printer model check
M862.1 P0.4 ; nozzle diameter check
M115 U3.10.0 ; tell printer latest fw version
G90 ; use absolute coordinates
M83 ; extruder relative mode
M104 S260 ; set extruder temp
M140 S105 ; set bed temp
M190 S105 ; wait for bed temp
M109 S260 ; wait for extruder temp
G28 W ; home all without mesh bed level
G80 ; mesh bed leveling
G1 Y-3.0 F1000.0 ; go outside print area
G92 E0.0
G1 X60.0 E9.0 F1000.0 ; intro line
G1 X100.0 E12.5 F1000.0 ; intro line
G92 E0.0
M221 S95

; Don't change E values below. Excessive value can damage the printer.
M907 E430 ; set extruder motor current
G21 ; set units to millimeters
G90 ; use absolute coordinates
M83 ; use relative distances for extrusion
M900 K0.04 ; Filament gcode LA 1.5
M900 K20 ; Filament gcode LA 1.0
;LAYER_CHANGE
;Z:0.2
;HEIGHT:0.2
;BEFORE_LAYER_CHANGE
G92 E0.0
;0.2


M73 P0 R32
G1 E-0.80000 F2100.000
G1 Z0.400 F10800.000
;AFTER_LAYER_CHANGE
;0.2
G1 X74.922 Y63.802
G1 Z0.200
G1 E0.80000 F2100.000
M204 S1000
;TYPE:Skirt
;WIDTH:0.42
G1 F1200.000
G1 X77.033 Y61.322 E0.10210
G1 X78.583 Y59.678 E0.07085
G1 X81.672 Y56.717 E0.13417
G1 X83.350 Y55.261 E0.06966
G1 X86.750 Y52.601 E0.13536
G1 X88.567 Y51.322 E0.06966
G1 X92.217 Y49.018 E0.13536
M73 Q0 S32
G1 X94.153 Y47.928 E0.06966
G1 X98.017 Y46.003 E0.13536
G1 X100.053 Y45.113 E0.06966
G1 X104.091 Y43.586 E0.13536
G1 X106.206 Y42.906 E0.06966
G1 X110.377 Y41.794 E0.13536
G1 X112.550 Y41.330 E0.06966
G1 X114.733 Y40.941 E0.06954
G1 X119.016 Y40.400 E0.13536
G1 X121.232 Y40.233 E0.06965
G1 X125.532 Y40.125 E0.13488
G1 X127.768 Y40.182 E0.07013
G1 X132.073 Y40.509 E0.13536
G1 X134.277 Y40.789 E0.06965
G1 X138.527 Y41.548 E0.13536
G1 X140.691 Y42.048 E0.06965
G1 X144.843 Y43.231 E0.13536
G1 X146.946 Y43.946 E0.06965
G1 X150.923 Y45.526 E0.13417
G1 X152.979 Y46.464 E0.07085
G1 X156.780 Y48.438 E0.13429
G1 X160.744 Y50.859 E0.14563
G1 X164.073 Y53.205 E0.12770
G1 X165.823 Y54.573 E0.06966
G1 X169.083 Y57.397 E0.13524
G1 X170.714 Y58.961 E0.07085
G1 X173.650 Y62.074 E0.13417
G1 X175.091 Y63.765 E0.06966
G1 X177.723 Y67.188 E0.13536
G1 X178.987 Y69.015 E0.06966
G1 X180.185 Y70.881 E0.06954
G1 X182.332 Y74.626 E0.13536
G1 X183.338 Y76.607 E0.06965
G1 X185.098 Y80.549 E0.13536
G1 X185.899 Y82.621 E0.06965
G1 X187.253 Y86.720 E0.13536
G1 X187.842 Y88.862 E0.06965
G1 X188.776 Y93.077 E0.13536
G1 X189.147 Y95.267 E0.06965
G1 X189.653 Y99.555 E0.13536
G1 X189.801 Y101.771 E0.06965
G1 X189.873 Y106.050 E0.13417
G1 X189.797 Y108.308 E0.07085
G1 X189.434 Y112.610 E0.13536
G1 X189.135 Y114.811 E0.06965
G1 X188.349 Y119.018 E0.13417
G1 X187.822 Y121.215 E0.07085
G1 X186.617 Y125.321 E0.13417
G1 X185.083 Y129.486 E0.13917
G1 X183.338 Y133.393 E0.13417
G1 X182.332 Y135.374 E0.06966
G1 X180.185 Y139.119 E0.13536
G1 X178.984 Y140.989 E0.06966
G1 X176.471 Y144.499 E0.13536
G1 X175.091 Y146.235 E0.06954
G1 X173.650 Y147.926 E0.06965
G1 X170.688 Y151.066 E0.13536
G1 X169.083 Y152.603 E0.06965
G1 X165.820 Y155.429 E0.13536
G1 X164.070 Y156.797 E0.06965
G1 X160.538 Y159.281 E0.13536
G1 X158.659 Y160.465 E0.06965
G1 X154.896 Y162.581 E0.13536
G1 X152.907 Y163.570 E0.06965
G1 X148.985 Y165.282 E0.13417
G1 X146.896 Y166.072 E0.07002
G1 X144.204 Y166.963 E0.08892
G1 X140.680 Y167.955 E0.11478
G1 X138.490 Y168.460 E0.07049
G1 X134.277 Y169.211 E0.13417
M73 P1 R32
M73 Q1 S32
G1 X132.073 Y169.491 E0.06966
G1 X127.768 Y169.818 E0.13536
G1 X125.528 Y169.875 E0.07026
G1 X121.232 Y169.767 E0.13476
G1 X119.020 Y169.600 E0.06954
G1 X116.812 Y169.357 E0.06965
G1 X112.550 Y168.670 E0.13536
G1 X110.377 Y168.206 E0.06965
G1 X106.206 Y167.094 E0.13536
G1 X104.091 Y166.414 E0.06965
G1 X100.053 Y164.887 E0.13536
G1 X98.017 Y163.997 E0.06965
G1 X94.153 Y162.072 E0.13536
G1 X92.217 Y160.982 E0.06965
G1 X88.567 Y158.678 E0.13536
G1 X86.750 Y157.399 E0.06965
G1 X83.350 Y154.739 E0.13536
G1 X81.672 Y153.283 E0.06965
G1 X78.583 Y150.322 E0.13417
G1 X77.033 Y148.678 E0.07085
G1 X74.234 Y145.391 E0.13536
G1 X72.881 Y143.629 E0.06965
G1 X70.448 Y140.109 E0.13417
G1 X69.272 Y138.210 E0.07002
G1 X67.880 Y135.739 E0.08892
G1 X66.231 Y132.471 E0.11478
G1 X65.314 Y130.418 E0.07049
G1 X63.769 Y126.428 E0.13417
G1 X63.071 Y124.319 E0.06966
G1 X61.923 Y120.158 E0.13536
G1 X61.441 Y117.989 E0.06966
G1 X60.718 Y113.733 E0.13536
G1 X60.457 Y111.530 E0.06954
G1 X60.271 Y109.317 E0.06965
G1 X60.127 Y105.002 E0.13536
G1 X60.271 Y100.683 E0.13548
G1 X60.457 Y98.470 E0.06966
G1 X61.034 Y94.191 E0.13536
G1 X61.441 Y92.011 E0.06954
G1 X61.923 Y89.842 E0.06965
G1 X63.071 Y85.681 E0.13536
G1 X63.769 Y83.572 E0.06965
G1 X65.314 Y79.582 E0.13417
G1 X66.236 Y77.518 E0.07085
G1 X68.177 Y73.701 E0.13429
G1 X70.565 Y69.717 E0.14563
G1 X72.883 Y66.368 E0.12770
G1 X74.237 Y64.606 E0.06966
G1 X74.883 Y63.847 E0.03125
; printing object Sensor Plate Template id:0 copy 0
;WIPE_START
G1 F8640.000
G1 X77.017 Y61.341 E-0.76000
;WIPE_END
G1 E-0.04000 F2100.000
G1 Z0.600 F10800.000
G1 X88.902 Y75.253
G1 Z0.200
G1 E0.80000 F2100.000
;TYPE:Perimeter
G1 F1200.000
G1 X89.294 Y74.771 E0.01948
G1 X90.501 Y73.400 E0.05725
G1 X91.760 Y72.078 E0.05725
G1 X93.070 Y70.806 E0.05725
G1 X94.428 Y69.586 E0.05725
G1 X95.833 Y68.420 E0.05725
G1 X97.282 Y67.310 E0.05725
G1 X98.774 Y66.257 E0.05725
G1 X100.306 Y65.263 E0.05725
G1 X101.476 Y64.567 E0.04269
G1 X101.875 Y64.330 E0.01455
G1 X103.479 Y63.458 E0.05725
G1 X105.116 Y62.650 E0.05725
G1 X106.784 Y61.906 E0.05725
G1 X108.479 Y61.228 E0.05725
G1 X110.199 Y60.617 E0.05725
G1 X111.942 Y60.073 E0.05725
G1 X113.706 Y59.597 E0.05728
G1 X115.667 Y59.157 E0.06299
G1 X117.280 Y58.855 E0.05146
G1 X119.086 Y58.589 E0.05725
G1 X120.901 Y58.393 E0.05725
G1 X122.723 Y58.268 E0.05725
G1 X124.548 Y58.215 E0.05725
G1 X126.374 Y58.233 E0.05725
G1 X128.197 Y58.322 E0.05725
G1 X130.016 Y58.482 E0.05725
G1 X131.827 Y58.713 E0.05725
G1 X133.628 Y59.014 E0.05725
G1 X135.416 Y59.386 E0.05725
G1 X137.187 Y59.827 E0.05725
G1 X138.941 Y60.336 E0.05725
G1 X140.672 Y60.914 E0.05725
G1 X142.381 Y61.559 E0.05725
G1 X144.062 Y62.270 E0.05725
G1 X145.715 Y63.046 E0.05725
G1 X147.336 Y63.886 E0.05725
G1 X148.923 Y64.789 E0.05725
G1 X150.474 Y65.753 E0.05725
G1 X151.986 Y66.776 E0.05725
G1 X153.456 Y67.858 E0.05725
G1 X154.884 Y68.996 E0.05725
G1 X156.266 Y70.190 E0.05725
G1 X157.601 Y71.437 E0.05728
G1 X159.010 Y72.869 E0.06299
G1 X160.118 Y74.080 E0.05146
G1 X161.298 Y75.473 E0.05725
G1 X162.422 Y76.912 E0.05725
G1 X163.490 Y78.393 E0.05725
G1 X164.498 Y79.915 E0.05725
G1 X165.447 Y81.475 E0.05725
G1 X166.334 Y83.071 E0.05725
G1 X167.158 Y84.700 E0.05725
G1 X167.918 Y86.360 E0.05725
G1 X168.613 Y88.048 E0.05725
G1 X169.241 Y89.763 E0.05725
G1 X169.802 Y91.500 E0.05725
G1 X170.294 Y93.258 E0.05725
G1 X170.718 Y95.034 E0.05725
G1 X171.072 Y96.826 E0.05725
G1 X171.356 Y98.629 E0.05725
G1 X171.569 Y100.442 E0.05725
G1 X171.711 Y102.263 E0.05725
G1 X171.783 Y104.087 E0.05725
G1 X171.783 Y105.913 E0.05725
G1 X171.711 Y107.737 E0.05725
G1 X171.569 Y109.558 E0.05725
G1 X171.356 Y111.371 E0.05725
G1 X171.072 Y113.174 E0.05725
G1 X170.718 Y114.966 E0.05725
G1 X170.294 Y116.742 E0.05725
G1 X169.802 Y118.500 E0.05725
G1 X169.241 Y120.237 E0.05725
G1 X168.613 Y121.952 E0.05725
G1 X167.918 Y123.640 E0.05725
G1 X167.158 Y125.300 E0.05725
G1 X166.334 Y126.929 E0.05725
G1 X165.447 Y128.525 E0.05725
G1 X164.498 Y130.085 E0.05725
G1 X163.490 Y131.607 E0.05725
G1 X162.422 Y133.088 E0.05725
G1 X161.298 Y134.527 E0.05725
G1 X160.118 Y135.920 E0.05725
G1 X158.885 Y137.267 E0.05725
G1 X157.600 Y138.564 E0.05725
G1 X156.266 Y139.810 E0.05725
G1 X154.884 Y141.004 E0.05725
G1 X153.456 Y142.142 E0.05725
G1 X151.986 Y143.224 E0.05725
G1 X150.473 Y144.248 E0.05728
G1 X148.763 Y145.302 E0.06299
G1 X147.336 Y146.114 E0.05146
G1 X145.715 Y146.954 E0.05725
G1 X144.062 Y147.730 E0.05725
G1 X142.381 Y148.441 E0.05725
G1 X140.672 Y149.086 E0.05725
G1 X138.941 Y149.664 E0.05725
G1 X137.187 Y150.173 E0.05725
G1 X135.416 Y150.614 E0.05725
G1 X133.628 Y150.986 E0.05725
G1 X131.827 Y151.287 E0.05725
G1 X130.016 Y151.518 E0.05725
G1 X128.197 Y151.678 E0.05725
G1 X126.374 Y151.767 E0.05725
G1 X124.547 Y151.785 E0.05728
G1 X122.539 Y151.719 E0.06299
G1 X120.901 Y151.607 E0.05146
G1 X119.086 Y151.411 E0.05725
G1 X117.280 Y151.145 E0.05725
G1 X115.484 Y150.808 E0.05728
G1 X113.527 Y150.354 E0.06299
G1 X111.942 Y149.927 E0.05146
G1 X110.199 Y149.383 E0.05725
G1 X108.479 Y148.772 E0.05725
G1 X106.784 Y148.094 E0.05725
G1 X105.116 Y147.350 E0.05725
G1 X103.479 Y146.542 E0.05725
G1 X101.875 Y145.670 E0.05725
G1 X100.306 Y144.737 E0.05725
G1 X98.774 Y143.743 E0.05725
G1 X97.282 Y142.690 E0.05725
G1 X95.833 Y141.580 E0.05725
G1 X94.428 Y140.414 E0.05725
M73 Q2 S32
G1 X93.070 Y139.194 E0.05725
G1 X91.760 Y137.922 E0.05725
M73 P2 R32
G1 X90.501 Y136.600 E0.05725
G1 X89.294 Y135.229 E0.05725
G1 X88.142 Y133.813 E0.05725
G1 X87.046 Y132.353 E0.05725
G1 X86.007 Y130.851 E0.05725
G1 X85.028 Y129.310 E0.05725
G1 X84.110 Y127.732 E0.05725
G1 X83.255 Y126.119 E0.05725
G1 X82.463 Y124.474 E0.05725
G1 X81.735 Y122.799 E0.05725
G1 X81.074 Y121.097 E0.05725
G1 X80.479 Y119.371 E0.05725
G1 X79.952 Y117.623 E0.05725
G1 X79.494 Y115.855 E0.05728
G1 X79.073 Y113.890 E0.06299
G1 X78.786 Y112.274 E0.05146
G1 X78.537 Y110.465 E0.05725
G1 X78.360 Y108.648 E0.05725
G1 X78.253 Y106.825 E0.05725
G1 X78.217 Y105.000 E0.05725
G1 X78.253 Y103.175 E0.05725
G1 X78.360 Y101.352 E0.05725
G1 X78.537 Y99.535 E0.05725
G1 X78.786 Y97.726 E0.05725
G1 X79.105 Y95.928 E0.05725
G1 X79.494 Y94.144 E0.05725
G1 X79.952 Y92.377 E0.05725
G1 X80.479 Y90.629 E0.05725
G1 X81.074 Y88.903 E0.05725
G1 X81.735 Y87.201 E0.05725
G1 X82.463 Y85.526 E0.05725
G1 X83.255 Y83.881 E0.05725
G1 X84.110 Y82.268 E0.05725
G1 X85.028 Y80.690 E0.05725
G1 X86.007 Y79.149 E0.05725
G1 X87.046 Y77.647 E0.05725
G1 X88.142 Y76.187 E0.05725
G1 X88.864 Y75.299 E0.03588
G1 X89.157 Y75.537 F10800.000
;TYPE:External perimeter
G1 F1200.000
G1 X89.582 Y75.014 E0.02113
G1 X90.779 Y73.655 E0.05679
G1 X92.028 Y72.344 E0.05679
G1 X93.327 Y71.082 E0.05679
G1 X94.675 Y69.872 E0.05679
G1 X96.068 Y68.715 E0.05679
G1 X97.506 Y67.614 E0.05679
G1 X98.986 Y66.569 E0.05679
G1 X100.505 Y65.583 E0.05679
G1 X101.669 Y64.891 E0.04246
G1 X102.061 Y64.658 E0.01432
G1 X103.653 Y63.793 E0.05679
G1 X105.277 Y62.991 E0.05679
G1 X106.931 Y62.254 E0.05679
G1 X108.612 Y61.581 E0.05679
G1 X110.319 Y60.975 E0.05679
G1 X112.048 Y60.435 E0.05679
G1 X113.797 Y59.964 E0.05680
G1 X115.743 Y59.527 E0.06253
G1 X117.342 Y59.227 E0.05102
G1 X119.134 Y58.963 E0.05679
G1 X120.934 Y58.769 E0.05679
G1 X122.741 Y58.645 E0.05679
G1 X124.552 Y58.592 E0.05679
G1 X126.363 Y58.610 E0.05679
G1 X128.172 Y58.698 E0.05679
G1 X129.976 Y58.857 E0.05679
G1 X131.772 Y59.086 E0.05679
G1 X133.558 Y59.385 E0.05679
G1 X135.332 Y59.754 E0.05679
G1 X137.089 Y60.191 E0.05679
G1 X138.828 Y60.697 E0.05679
G1 X140.546 Y61.270 E0.05679
G1 X142.241 Y61.909 E0.05679
G1 X143.909 Y62.615 E0.05679
G1 X145.548 Y63.384 E0.05679
G1 X147.156 Y64.218 E0.05679
G1 X148.730 Y65.113 E0.05679
G1 X150.268 Y66.069 E0.05679
G1 X151.768 Y67.084 E0.05679
G1 X153.227 Y68.157 E0.05679
G1 X154.643 Y69.287 E0.05679
G1 X156.014 Y70.470 E0.05679
G1 X157.338 Y71.707 E0.05680
G1 X158.736 Y73.129 E0.06253
G1 X159.835 Y74.329 E0.05102
G1 X161.005 Y75.711 E0.05679
G1 X162.121 Y77.138 E0.05679
G1 X163.179 Y78.607 E0.05679
G1 X164.180 Y80.117 E0.05679
G1 X165.121 Y81.664 E0.05679
G1 X166.001 Y83.247 E0.05679
G1 X166.818 Y84.863 E0.05679
G1 X167.572 Y86.510 E0.05679
G1 X168.261 Y88.185 E0.05679
G1 X168.884 Y89.886 E0.05679
G1 X169.441 Y91.609 E0.05679
G1 X169.929 Y93.353 E0.05679
G1 X170.349 Y95.115 E0.05679
G1 X170.701 Y96.891 E0.05679
G1 X170.982 Y98.680 E0.05679
G1 X171.194 Y100.479 E0.05679
G1 X171.335 Y102.285 E0.05679
G1 X171.406 Y104.094 E0.05679
G1 X171.406 Y105.906 E0.05679
G1 X171.335 Y107.715 E0.05679
G1 X171.194 Y109.521 E0.05679
G1 X170.982 Y111.320 E0.05679
G1 X170.701 Y113.109 E0.05679
G1 X170.349 Y114.885 E0.05679
G1 X169.929 Y116.647 E0.05679
G1 X169.441 Y118.391 E0.05679
G1 X168.884 Y120.114 E0.05679
G1 X168.261 Y121.815 E0.05679
G1 X167.572 Y123.490 E0.05679
G1 X166.818 Y125.137 E0.05679
G1 X166.001 Y126.753 E0.05679
G1 X165.121 Y128.336 E0.05679
G1 X164.180 Y129.883 E0.05679
G1 X163.179 Y131.393 E0.05679
G1 X162.121 Y132.862 E0.05679
G1 X161.005 Y134.289 E0.05679
G1 X159.835 Y135.671 E0.05679
G1 X158.612 Y137.007 E0.05679
G1 X157.338 Y138.294 E0.05679
G1 X156.014 Y139.530 E0.05679
G1 X154.643 Y140.713 E0.05679
G1 X153.227 Y141.843 E0.05679
G1 X151.768 Y142.916 E0.05679
G1 X150.268 Y143.931 E0.05680
G1 X148.571 Y144.978 E0.06253
G1 X147.156 Y145.782 E0.05102
G1 X145.548 Y146.616 E0.05679
G1 X143.909 Y147.385 E0.05679
G1 X142.241 Y148.091 E0.05679
G1 X140.546 Y148.730 E0.05679
G1 X138.828 Y149.303 E0.05679
G1 X137.089 Y149.809 E0.05679
G1 X135.332 Y150.246 E0.05679
G1 X133.558 Y150.615 E0.05679
G1 X131.772 Y150.914 E0.05679
G1 X129.976 Y151.143 E0.05679
G1 X128.172 Y151.302 E0.05679
G1 X126.363 Y151.390 E0.05679
G1 X124.551 Y151.408 E0.05680
G1 X122.558 Y151.342 E0.06253
G1 X120.934 Y151.231 E0.05102
G1 X119.134 Y151.037 E0.05679
G1 X117.342 Y150.773 E0.05679
G1 X115.562 Y150.439 E0.05680
G1 X113.619 Y149.989 E0.06253
G1 X112.048 Y149.565 E0.05102
G1 X110.319 Y149.025 E0.05679
G1 X108.612 Y148.419 E0.05679
G1 X106.931 Y147.746 E0.05679
G1 X105.277 Y147.009 E0.05679
G1 X103.653 Y146.207 E0.05679
G1 X102.061 Y145.342 E0.05679
G1 X100.505 Y144.417 E0.05679
G1 X98.986 Y143.431 E0.05679
G1 X97.506 Y142.386 E0.05679
G1 X96.068 Y141.285 E0.05679
G1 X94.675 Y140.128 E0.05679
G1 X93.327 Y138.918 E0.05679
G1 X92.028 Y137.656 E0.05679
G1 X90.779 Y136.345 E0.05679
G1 X89.582 Y134.986 E0.05679
G1 X88.439 Y133.581 E0.05679
G1 X87.352 Y132.132 E0.05679
G1 X86.322 Y130.643 E0.05679
G1 X85.351 Y129.114 E0.05679
G1 X84.440 Y127.548 E0.05679
G1 X83.591 Y125.949 E0.05679
G1 X82.805 Y124.317 E0.05679
G1 X82.084 Y122.656 E0.05679
G1 X81.428 Y120.968 E0.05679
G1 X80.838 Y119.255 E0.05679
G1 X80.315 Y117.521 E0.05679
G1 X79.861 Y115.768 E0.05680
G1 X79.443 Y113.818 E0.06253
G1 X79.159 Y112.215 E0.05102
G1 X78.912 Y110.421 E0.05679
G1 X78.736 Y108.619 E0.05679
G1 X78.630 Y106.811 E0.05679
G1 X78.594 Y105.000 E0.05679
G1 X78.630 Y103.189 E0.05679
G1 X78.736 Y101.381 E0.05679
G1 X78.912 Y99.579 E0.05679
G1 X79.159 Y97.785 E0.05679
G1 X79.475 Y96.001 E0.05679
G1 X79.861 Y94.232 E0.05679
G1 X80.315 Y92.479 E0.05679
G1 X80.838 Y90.745 E0.05679
G1 X81.428 Y89.032 E0.05679
G1 X82.084 Y87.344 E0.05679
G1 X82.805 Y85.683 E0.05679
G1 X83.591 Y84.051 E0.05679
G1 X84.440 Y82.452 E0.05679
G1 X85.351 Y80.886 E0.05679
G1 X86.322 Y79.357 E0.05679
G1 X87.352 Y77.868 E0.05679
G1 X88.439 Y76.419 E0.05679
G1 X89.119 Y75.584 E0.03377
G1 X89.011 Y75.165 F10800.000
;WIPE_START
G1 F8640.000
G1 X89.582 Y75.014 E-0.16949
G1 X90.779 Y73.655 E-0.41819
G1 X91.293 Y73.115 E-0.17232
;WIPE_END
G1 E-0.04000 F2100.000
G1 Z0.600 F10800.000
G1 X77.305 Y65.857
G1 Z0.200
G1 E0.80000 F2100.000
;TYPE:Perimeter
G1 F1200.000
G1 X78.027 Y64.980 E0.03563
G1 X79.398 Y63.424 E0.06501
G1 X80.821 Y61.916 E0.06501
G1 X82.293 Y60.456 E0.06501
G1 X83.813 Y59.046 E0.06501
G1 X85.380 Y57.688 E0.06501
G1 X86.992 Y56.384 E0.06501
G1 X88.647 Y55.134 E0.06501
M73 Q3 S32
G1 X90.342 Y53.941 E0.06501
M73 P3 R32
G1 X92.077 Y52.805 E0.06501
G1 X93.849 Y51.729 E0.06501
G1 X95.656 Y50.712 E0.06501
G1 X97.496 Y49.757 E0.06498
G1 X99.557 Y48.782 E0.07149
