; generated by PrusaSlicer 2.3.1+x64 on 2021-12-16 at 13:50:15 UTC

; 

; external perimeters extrusion width = 0.45mm
; perimeters extrusion width = 0.45mm
; infill extrusion width = 0.45mm
; solid infill extrusion width = 0.45mm
; top infill extrusion width = 0.40mm
; first layer extrusion width = 0.42mm

M73 P0 R127
M73 Q0 S128
M201 X1000 Y1000 Z200 E5000 ; sets maximum accelerations, mm/sec^2
M203 X200 Y200 Z12 E120 ; sets maximum feedrates, mm/sec
M204 P1250 R1250 T1250 ; sets acceleration (P, T) and retract acceleration (R), mm/sec^2
M205 X8.00 Y8.00 Z0.40 E4.50 ; sets the jerk limits, mm/sec
M205 S0 T0 ; sets the minimum extruding and travel feed rate, mm/sec
M107
;TYPE:Custom
M862.3 P "MK3S" ; printer model check
M862.1 P0.4 ; nozzle diameter check
M115 U3.10.0 ; tell printer latest fw version
G90 ; use absolute coordinates
M83 ; extruder relative mode
M104 S260 ; set extruder temp
M140 S105 ; set bed temp
M190 S105 ; wait for bed temp
M109 S260 ; wait for extruder temp
G28 W ; home all without mesh bed level
G80 ; mesh bed leveling
G1 Y-3.0 F1000.0 ; go outside print area
G92 E0.0
G1 X60.0 E9.0 F1000.0 ; intro line
G1 X100.0 E12.5 F1000.0 ; intro line
G92 E0.0
M221 S95

; Don't change E values below. Excessive value can damage the printer.
M907 E430 ; set extruder motor current
G21 ; set units to millimeters
G90 ; use absolute coordinates
M83 ; use relative distances for extrusion
M900 K0.04 ; Filament gcode LA 1.5
M900 K20 ; Filament gcode LA 1.0
;LAYER_CHANGE
;Z:0.2
;HEIGHT:0.2
;BEFORE_LAYER_CHANGE
G92 E0.0
;0.2


G1 E-0.80000 F2100.000
G1 Z0.400 F10800.000
;AFTER_LAYER_CHANGE
;0.2
G1 X75.558 Y63.772
G1 Z0.200
G1 E0.80000 F2100.000
M204 S1000
;TYPE:Skirt
;WIDTH:0.42
G1 F1200.000
G1 X77.710 Y61.323 E0.10224
G1 X79.987 Y58.978 E0.10249
G1 X82.366 Y56.768 E0.10181
G1 X84.858 Y54.673 E0.10208
G1 X87.461 Y52.704 E0.10234
G1 X90.135 Y50.883 E0.10143
G1 X92.938 Y49.178 E0.10287
G1 X95.781 Y47.638 E0.10137
G1 X97.771 Y46.667 E0.06942
G1 X100.755 Y45.365 E0.10209
G1 X103.787 Y44.221 E0.10158
G1 X106.895 Y43.223 E0.10236
G1 X110.039 Y42.388 E0.10201
G1 X113.223 Y41.711 E0.10205
G1 X116.442 Y41.197 E0.10219
G1 X119.683 Y40.844 E0.10223
G1 X122.931 Y40.659 E0.10202
G1 X125.920 Y40.630 E0.09372
G1 X130.943 Y40.898 E0.15772
G1 X135.185 Y41.434 E0.13404
G1 X137.391 Y41.827 E0.07026
G1 X140.546 Y42.537 E0.10141
G1 X143.688 Y43.395 E0.10211
G1 X146.781 Y44.428 E0.10225
G1 X149.841 Y45.609 E0.10283
G1 X152.793 Y46.940 E0.10153
G1 X155.694 Y48.411 E0.10199
G1 X158.517 Y50.044 E0.10225
G1 X161.257 Y51.804 E0.10211
G1 X163.899 Y53.712 E0.10218
G1 X166.446 Y55.739 E0.10206
G1 X168.886 Y57.908 E0.10235
G1 X171.205 Y60.173 E0.10165
G1 X173.420 Y62.584 E0.10265
G1 X175.505 Y65.080 E0.10196
G1 X177.459 Y67.694 E0.10234
G1 X179.271 Y70.374 E0.10143
G1 X180.961 Y73.186 E0.10287
G1 X182.493 Y76.037 E0.10149
G1 X183.454 Y78.029 E0.06932
G1 X184.735 Y81.009 E0.10171
G1 X185.867 Y84.036 E0.10135
G1 X186.552 Y86.142 E0.06944
G1 X187.420 Y89.265 E0.10162
G1 X188.142 Y92.457 E0.10263
G1 X188.691 Y95.657 E0.10179
G1 X189.085 Y98.886 E0.10198
G1 X189.310 Y102.141 E0.10232
G1 X189.375 Y105.403 E0.10228
G1 X189.270 Y108.655 E0.10202
G1 X189.005 Y111.897 E0.10199
G1 X188.572 Y115.131 E0.10231
G1 X187.980 Y118.332 E0.10206
G1 X187.222 Y121.507 E0.10236
G1 X186.309 Y124.630 E0.10201
G1 X185.235 Y127.711 E0.10229
G1 X184.020 Y130.706 E0.10136
G1 X182.632 Y133.682 E0.10294
G1 X181.119 Y136.541 E0.10143
G1 X179.449 Y139.343 E0.10228
G1 X178.236 Y141.195 E0.06941
G1 X176.351 Y143.822 E0.10140
G1 X174.318 Y146.375 E0.10231
G1 X172.163 Y148.814 E0.10206
G1 X169.898 Y151.134 E0.10164
G1 X167.495 Y153.355 E0.10260
G1 X164.992 Y155.447 E0.10229
G1 X162.389 Y157.403 E0.10207
G1 X159.705 Y159.220 E0.10163
G1 X156.900 Y160.914 E0.10274
G1 X154.045 Y162.451 E0.10168
G1 X152.055 Y163.415 E0.06930
G1 X149.087 Y164.697 E0.10139
G1 X146.050 Y165.837 E0.10171
G1 X143.945 Y166.525 E0.06942
G1 X140.832 Y167.395 E0.10136
G1 X137.631 Y168.125 E0.10294
G1 X134.443 Y168.676 E0.10143
G1 X131.206 Y169.077 E0.10227
G1 X127.958 Y169.304 E0.10209
G1 X124.688 Y169.376 E0.10256
G1 X121.446 Y169.273 E0.10168
G1 X118.191 Y169.016 E0.10238
M73 Q0 S127
G1 X114.967 Y168.585 E0.10199
G1 X111.757 Y168.000 E0.10231
G1 X108.591 Y167.244 E0.10205
G1 X105.458 Y166.339 E0.10224
G1 X102.387 Y165.268 E0.10200
G1 X99.377 Y164.058 E0.10170
G1 X96.410 Y162.673 E0.10267
G1 X93.523 Y161.157 E0.10223
G1 X90.727 Y159.487 E0.10214
G1 X88.022 Y157.697 E0.10168
G1 X85.398 Y155.745 E0.10256
G1 X82.886 Y153.691 E0.10174
G1 X81.237 Y152.214 E0.06942
G1 X78.928 Y149.952 E0.10134
G1 X76.720 Y147.584 E0.10153
G1 X75.284 Y145.898 E0.06943
G1 X73.292 Y143.335 E0.10177
G1 X71.404 Y140.663 E0.10259
G1 X69.683 Y137.915 E0.10165
G1 X68.082 Y135.079 E0.10211
G1 X66.638 Y132.154 E0.10230
G1 X65.326 Y129.154 E0.10266
G1 X64.192 Y126.117 E0.10164
G1 X63.196 Y123.020 E0.10201
G1 X62.369 Y119.864 E0.10229
G1 X61.691 Y116.680 E0.10208
G1 X61.187 Y113.455 E0.10234
G1 X60.835 Y110.220 E0.10203
G1 X60.659 Y106.963 E0.10227
G1 X60.636 Y103.734 E0.10126
G1 X60.789 Y100.451 E0.10304
G1 X61.096 Y97.211 E0.10204
G1 X61.577 Y93.985 E0.10226
G1 X62.207 Y90.810 E0.10151
G1 X63.016 Y87.629 E0.10291
G1 X63.963 Y84.535 E0.10146
G1 X64.702 Y82.451 E0.06932
G1 X65.917 Y79.446 E0.10163
G1 X67.272 Y76.508 E0.10143
G1 X68.284 Y74.543 E0.06932
G1 X69.894 Y71.724 E0.10178
G1 X71.654 Y68.966 E0.10259
G1 X73.539 Y66.326 E0.10171
G1 X75.521 Y63.819 E0.10018
; printing object Sensor Plate id:0 copy 0
;WIPE_START
G1 F8640.000
G1 X77.691 Y61.345 E-0.76000
;WIPE_END
G1 E-0.04000 F2100.000
G1 Z0.600 F10800.000
G1 X124.650 Y44.188
G1 Z0.200
G1 E0.80000 F2100.000
;TYPE:Perimeter
G1 F1200.000
G1 X124.271 Y45.224 E0.03461
G1 X122.751 Y45.255 E0.04767
G1 X120.682 Y45.369 E0.06498
G1 X118.617 Y45.554 E0.06498
G1 X116.561 Y45.811 E0.06498
G1 X114.515 Y46.139 E0.06498
G1 X112.481 Y46.538 E0.06498
G1 X110.462 Y47.007 E0.06498
G1 X108.461 Y47.546 E0.06498
G1 X106.480 Y48.154 E0.06498
G1 X104.521 Y48.830 E0.06498
G1 X102.586 Y49.573 E0.06498
G1 X100.679 Y50.383 E0.06498
G1 X98.800 Y51.259 E0.06498
G1 X96.953 Y52.199 E0.06498
G1 X95.140 Y53.203 E0.06498
G1 X93.363 Y54.269 E0.06498
G1 X91.624 Y55.396 E0.06498
G1 X89.925 Y56.583 E0.06498
G1 X88.268 Y57.828 E0.06498
G1 X86.655 Y59.129 E0.06498
G1 X85.088 Y60.486 E0.06498
G1 X83.569 Y61.896 E0.06498
G1 X82.100 Y63.357 E0.06498
G1 X80.683 Y64.869 E0.06498
G1 X79.318 Y66.429 E0.06498
G1 X78.009 Y68.036 E0.06498
G1 X76.756 Y69.687 E0.06498
G1 X75.561 Y71.380 E0.06498
G1 X74.426 Y73.114 E0.06498
G1 X73.351 Y74.886 E0.06498
G1 X72.338 Y76.694 E0.06498
G1 X71.389 Y78.536 E0.06498
G1 X70.504 Y80.410 E0.06498
G1 X69.684 Y82.314 E0.06498
G1 X68.931 Y84.244 E0.06498
G1 X68.245 Y86.200 E0.06498
G1 X67.628 Y88.178 E0.06498
G1 X67.079 Y90.177 E0.06498
G1 X66.601 Y92.193 E0.06498
G1 X66.192 Y94.225 E0.06498
G1 X65.854 Y96.270 E0.06498
G1 X65.587 Y98.325 E0.06498
G1 X65.391 Y100.388 E0.06498
G1 X65.267 Y102.457 E0.06498
G1 X65.215 Y104.529 E0.06498
G1 X65.234 Y106.601 E0.06498
G1 X65.326 Y108.672 E0.06498
G1 X65.489 Y110.738 E0.06498
G1 X65.723 Y112.797 E0.06498
G1 X66.029 Y114.846 E0.06498
G1 X66.406 Y116.884 E0.06498
G1 X66.853 Y118.908 E0.06498
G1 X67.370 Y120.915 E0.06498
G1 X67.956 Y122.903 E0.06498
G1 X68.611 Y124.869 E0.06498
G1 X69.333 Y126.812 E0.06498
G1 X70.123 Y128.728 E0.06498
G1 X70.978 Y130.615 E0.06498
G1 X71.898 Y132.472 E0.06498
G1 X72.883 Y134.296 E0.06498
G1 X73.929 Y136.085 E0.06498
G1 X75.037 Y137.836 E0.06498
G1 X76.205 Y139.548 E0.06498
G1 X77.432 Y141.219 E0.06498
G1 X78.716 Y142.846 E0.06498
G1 X80.055 Y144.427 E0.06498
G1 X81.449 Y145.961 E0.06498
G1 X82.895 Y147.446 E0.06498
G1 X84.391 Y148.880 E0.06498
G1 X85.936 Y150.261 E0.06498
G1 X87.528 Y151.587 E0.06498
G1 X89.166 Y152.858 E0.06498
G1 X90.846 Y154.071 E0.06498
G1 X92.567 Y155.226 E0.06498
G1 X94.327 Y156.320 E0.06498
G1 X96.124 Y157.352 E0.06498
G1 X97.956 Y158.321 E0.06498
G1 X99.821 Y159.226 E0.06498
G1 X101.717 Y160.067 E0.06503
G1 X104.027 Y160.982 E0.07791
G1 X105.586 Y161.547 E0.05199
G1 X107.557 Y162.186 E0.06498
G1 X109.550 Y162.756 E0.06498
G1 X111.561 Y163.257 E0.06498
G1 X113.588 Y163.688 E0.06498
G1 X115.629 Y164.048 E0.06498
G1 X117.681 Y164.338 E0.06498
G1 X119.742 Y164.556 E0.06498
G1 X121.809 Y164.702 E0.06498
G1 X123.880 Y164.777 E0.06498
G1 X125.953 Y164.780 E0.06498
G1 X128.024 Y164.711 E0.06498
G1 X129.883 Y164.584 E0.05843
G1 X132.153 Y164.358 E0.07150
G1 X134.206 Y164.074 E0.06501
G1 X136.248 Y163.720 E0.06498
G1 X138.277 Y163.294 E0.06498
G1 X140.289 Y162.799 E0.06498
G1 X142.283 Y162.235 E0.06498
G1 X144.256 Y161.601 E0.06498
G1 X146.207 Y160.900 E0.06498
G1 X148.131 Y160.131 E0.06498
G1 X150.028 Y159.296 E0.06498
G1 X151.895 Y158.396 E0.06498
G1 X153.545 Y157.529 E0.05843
G1 X155.529 Y156.405 E0.07150
G1 X157.293 Y155.316 E0.06501
G1 X159.017 Y154.166 E0.06498
G1 X160.701 Y152.958 E0.06498
G1 X162.342 Y151.692 E0.06498
G1 X163.937 Y150.369 E0.06498
G1 X165.486 Y148.993 E0.06498
G1 X166.987 Y147.563 E0.06498
G1 X168.437 Y146.082 E0.06498
G1 X169.835 Y144.552 E0.06498
G1 X171.178 Y142.974 E0.06498
G1 X172.467 Y141.351 E0.06498
G1 X173.698 Y139.684 E0.06498
G1 X174.871 Y137.976 E0.06498
G1 X175.984 Y136.227 E0.06498
G1 X177.036 Y134.441 E0.06498
G1 X178.025 Y132.620 E0.06498
G1 X178.950 Y130.766 E0.06498
M73 P0 R126
G1 X179.811 Y128.881 E0.06498
G1 X180.606 Y126.967 E0.06498
G1 X181.333 Y125.026 E0.06498
G1 X181.994 Y123.062 E0.06498
G1 X182.585 Y121.076 E0.06498
G1 X183.108 Y119.070 E0.06498
G1 X183.561 Y117.048 E0.06498
G1 X183.943 Y115.011 E0.06498
G1 X184.255 Y112.962 E0.06498
G1 X184.495 Y110.903 E0.06498
G1 X184.664 Y108.838 E0.06498
G1 X184.761 Y106.768 E0.06498
G1 X184.786 Y104.695 E0.06498
G1 X184.740 Y102.623 E0.06498
G1 X184.622 Y100.554 E0.06498
G1 X184.432 Y98.491 E0.06498
G1 X184.170 Y96.435 E0.06498
G1 X183.838 Y94.389 E0.06498
G1 X183.435 Y92.356 E0.06498
G1 X182.962 Y90.338 E0.06498
G1 X182.419 Y88.338 E0.06498
G1 X181.807 Y86.358 E0.06498
G1 X181.126 Y84.401 E0.06498
G1 X180.379 Y82.468 E0.06498
G1 X179.565 Y80.562 E0.06498
G1 X178.685 Y78.686 E0.06498
G1 X177.741 Y76.841 E0.06498
G1 X176.834 Y75.212 E0.05843
G1 X175.664 Y73.256 E0.07150
G1 X174.532 Y71.518 E0.06501
G1 X173.342 Y69.821 E0.06498
G1 X172.094 Y68.167 E0.06498
G1 X170.789 Y66.557 E0.06498
G1 X169.429 Y64.993 E0.06498
G1 X168.016 Y63.477 E0.06498
G1 X166.551 Y62.011 E0.06498
G1 X165.036 Y60.597 E0.06498
G1 X163.473 Y59.236 E0.06498
G1 X161.864 Y57.930 E0.06498
G1 X160.210 Y56.681 E0.06498
G1 X158.514 Y55.489 E0.06498
G1 X156.778 Y54.358 E0.06498
G1 X155.004 Y53.287 E0.06498
G1 X153.194 Y52.278 E0.06498
G1 X151.349 Y51.332 E0.06498
G1 X149.474 Y50.451 E0.06498
G1 X147.568 Y49.636 E0.06498
G1 X145.636 Y48.887 E0.06498
G1 X143.679 Y48.205 E0.06498
G1 X141.699 Y47.592 E0.06498
G1 X139.699 Y47.048 E0.06498
G1 X137.682 Y46.573 E0.06498
G1 X135.649 Y46.169 E0.06498
G1 X133.604 Y45.835 E0.06498
G1 X131.548 Y45.572 E0.06498
G1 X129.485 Y45.381 E0.06498
G1 X127.946 Y45.292 E0.04831
G1 X127.567 Y44.250 E0.03478
G1 X128.513 Y44.289 E0.02968
G1 X130.567 Y44.442 E0.06458
G1 X132.614 Y44.666 E0.06458
G1 X134.653 Y44.958 E0.06458
G1 X136.478 Y45.283 E0.05813
G1 X138.695 Y45.749 E0.07102
G1 X140.891 Y46.303 E0.07102
G1 X142.674 Y46.812 E0.05813
G1 X144.633 Y47.444 E0.06455
G1 X146.763 Y48.218 E0.07105
G1 X148.485 Y48.905 E0.05813
G1 X150.370 Y49.732 E0.06455
G1 X152.410 Y50.718 E0.07105
G1 X154.053 Y51.576 E0.05812
G1 X155.846 Y52.591 E0.06458
G1 X157.602 Y53.665 E0.06455
G1 X159.491 Y54.917 E0.07105
G1 X161.003 Y55.990 E0.05812
G1 X162.642 Y57.237 E0.06458
G1 X164.237 Y58.539 E0.06455
G1 X165.939 Y60.034 E0.07105
G1 X167.292 Y61.301 E0.05812
G1 X168.747 Y62.758 E0.06456
G1 X170.289 Y64.419 E0.07105
G1 X171.506 Y65.817 E0.05812
G1 X172.806 Y67.414 E0.06456
G1 X174.172 Y69.222 E0.07105
G1 X175.241 Y70.736 E0.05812
G1 X176.372 Y72.457 E0.06456
G1 X177.547 Y74.394 E0.07105
G1 X178.457 Y76.009 E0.05812
G1 X179.409 Y77.836 E0.06458
G1 X180.297 Y79.693 E0.06455
G1 X181.200 Y81.771 E0.07104
G1 X181.883 Y83.495 E0.05812
G1 X182.579 Y85.433 E0.06458
G1 X183.208 Y87.394 E0.06456
G1 X183.822 Y89.575 E0.07104
G1 X184.266 Y91.374 E0.05812
G1 X184.694 Y93.389 E0.06457
G1 X185.084 Y95.621 E0.07104
G1 X185.343 Y97.456 E0.05812
G1 X185.564 Y99.504 E0.06457
G1 X185.725 Y101.764 E0.07104
G1 X185.797 Y103.616 E0.05812
G1 X185.809 Y105.675 E0.06457
G1 X185.741 Y107.940 E0.07104
G1 X185.623 Y109.790 E0.05812
G1 X185.426 Y111.840 E0.06457
G1 X185.129 Y114.086 E0.07104
G1 X184.825 Y115.914 E0.05812
G1 X184.421 Y117.933 E0.06457
G1 X183.898 Y120.138 E0.07104
G1 X183.409 Y121.926 E0.05812
G1 X182.803 Y123.894 E0.06457
G1 X182.058 Y126.034 E0.07104
G1 X181.391 Y127.763 E0.05812
G1 X180.588 Y129.660 E0.06457
G1 X179.631 Y131.713 E0.07104
G1 X178.791 Y133.366 E0.05811
G1 X177.800 Y135.171 E0.06458
G1 X176.640 Y137.116 E0.07102
G1 X175.523 Y138.846 E0.06456
G1 X174.347 Y140.538 E0.06459
G1 X173.241 Y142.025 E0.05812
G1 X171.829 Y143.797 E0.07104
G1 X170.488 Y145.360 E0.06457
G1 X169.237 Y146.727 E0.05812
G1 X167.652 Y148.347 E0.07104
G1 X166.160 Y149.766 E0.06457
G1 X164.776 Y150.999 E0.05812
G1 X163.035 Y152.449 E0.07104
G1 X161.407 Y153.710 E0.06457
G1 X159.905 Y154.796 E0.05812
G1 X158.026 Y156.063 E0.07104
G1 X156.278 Y157.152 E0.06457
G1 X154.674 Y158.080 E0.05812
G1 X152.677 Y159.149 E0.07104
G1 X150.828 Y160.055 E0.06456
G1 X148.948 Y160.899 E0.06459
G1 X147.233 Y161.601 E0.05812
G1 X145.109 Y162.391 E0.07104
G1 X143.155 Y163.039 E0.06456
G1 X141.179 Y163.621 E0.06459
G1 X139.385 Y164.085 E0.05812
G1 X137.174 Y164.582 E0.07104
G1 X135.150 Y164.960 E0.06456
G1 X133.317 Y165.240 E0.05812
G1 X131.067 Y165.509 E0.07104
G1 X129.015 Y165.680 E0.06456
G1 X127.164 Y165.772 E0.05812
G1 X124.898 Y165.813 E0.07104
G1 X122.840 Y165.774 E0.06456
G1 X120.988 Y165.678 E0.05812
G1 X118.731 Y165.489 E0.07105
G1 X116.686 Y165.242 E0.06456
G1 X114.854 Y164.958 E0.05812
G1 X112.627 Y164.541 E0.07105
G1 X110.619 Y164.088 E0.06456
G1 X108.825 Y163.620 E0.05812
G1 X106.652 Y162.979 E0.07105
G1 X104.700 Y162.324 E0.06455
G1 X102.770 Y161.604 E0.06458
G1 X101.056 Y160.898 E0.05812
G1 X98.989 Y159.969 E0.07105
G1 X97.143 Y159.057 E0.06455
G1 X95.329 Y158.083 E0.06458
G1 X93.726 Y157.152 E0.05812
G1 X91.803 Y155.953 E0.07105
G1 X90.097 Y154.800 E0.06455
G1 X88.597 Y153.710 E0.05813
G1 X86.806 Y152.322 E0.07105
G1 X85.226 Y151.003 E0.06455
G1 X83.844 Y149.767 E0.05813
G1 X82.203 Y148.204 E0.07105
G1 X80.765 Y146.731 E0.06455
G1 X79.516 Y145.361 E0.05813
G1 X78.042 Y143.641 E0.07102
G1 X76.638 Y141.864 E0.07102
G1 X75.534 Y140.374 E0.05813
G1 X74.365 Y138.679 E0.06455
G1 X73.148 Y136.768 E0.07105
G1 X72.201 Y135.174 E0.05813
G1 X71.210 Y133.370 E0.06455
G1 X70.193 Y131.345 E0.07105
G1 X69.413 Y129.663 E0.05813
G1 X68.610 Y127.767 E0.06455
G1 X67.803 Y125.650 E0.07105
G1 X67.198 Y123.898 E0.05812
G1 X66.591 Y121.930 E0.06455
G1 X66.003 Y119.742 E0.07105
G1 X65.579 Y117.937 E0.05812
G1 X65.175 Y115.918 E0.06456
G1 X64.812 Y113.681 E0.07105
G1 X64.574 Y111.843 E0.05812
G1 X64.376 Y109.793 E0.06458
G1 X64.249 Y107.738 E0.06455
G1 X64.191 Y105.473 E0.07105
G1 X64.203 Y103.619 E0.05812
G1 X64.285 Y101.561 E0.06458
G1 X64.436 Y99.508 E0.06455
G1 X64.684 Y97.255 E0.07105
G1 X64.947 Y95.420 E0.05812
G1 X65.305 Y93.393 E0.06456
G1 X65.781 Y91.177 E0.07104
G1 X66.228 Y89.379 E0.05812
G1 X66.791 Y87.398 E0.06456
G1 X67.488 Y85.242 E0.07104
G1 X68.116 Y83.498 E0.05812
G1 X68.876 Y81.584 E0.06456
G1 X69.789 Y79.510 E0.07104
G1 X70.590 Y77.839 E0.05812
G1 X71.541 Y76.012 E0.06457
G1 X72.659 Y74.041 E0.07104
G1 X73.626 Y72.460 E0.05812
G1 X74.757 Y70.739 E0.06457
G1 X76.069 Y68.892 E0.07104
G1 X77.191 Y67.417 E0.05812
G1 X78.492 Y65.819 E0.06459
G1 X79.845 Y64.267 E0.06456
G1 X81.394 Y62.614 E0.07104
G1 X82.706 Y61.304 E0.05812
G1 X84.210 Y59.897 E0.06459
G1 X85.760 Y58.542 E0.06456
G1 X87.518 Y57.113 E0.07104
G1 X88.995 Y55.992 E0.05812
G1 X90.675 Y54.801 E0.06457
G1 X92.569 Y53.558 E0.07104
G1 X94.152 Y52.593 E0.05812
G1 X95.944 Y51.579 E0.06457
G1 X97.954 Y50.533 E0.07104
