; generated by PrusaSlicer 2.3.1+x64 on 2021-12-10 at 11:49:21 UTC

; 

; external perimeters extrusion width = 0.45mm
; perimeters extrusion width = 0.45mm
; infill extrusion width = 0.45mm
; solid infill extrusion width = 0.45mm
; top infill extrusion width = 0.40mm
; first layer extrusion width = 0.42mm

M73 P0 R32
M73 Q0 S32
M201 X1000 Y1000 Z200 E5000 ; sets maximum accelerations, mm/sec^2
M203 X200 Y200 Z12 E120 ; sets maximum feedrates, mm/sec
M204 P1250 R1250 T1250 ; sets acceleration (P, T) and retract acceleration (R), mm/sec^2
M205 X8.00 Y8.00 Z0.40 E4.50 ; sets the jerk limits, mm/sec
M205 S0 T0 ; sets the minimum extruding and travel feed rate, mm/sec
M107
;TYPE:Custom
M862.3 P "MK3S" ; printer model check
M862.1 P0.4 ; nozzle diameter check
M115 U3.10.0 ; tell printer latest fw version
G90 ; use absolute coordinates
M83 ; extruder relative mode
M104 S215 ; set extruder temp
M140 S60 ; set bed temp
M190 S60 ; wait for bed temp
M109 S215 ; wait for extruder temp
G28 W ; home all without mesh bed level
G80 ; mesh bed leveling
G1 Y-3.0 F1000.0 ; go outside print area
G92 E0.0
G1 X60.0 E9.0 F1000.0 ; intro line
G1 X100.0 E12.5 F1000.0 ; intro line
G92 E0.0
M221 S95

; Don't change E values below. Excessive value can damage the printer.
M907 E430 ; set extruder motor current
G21 ; set units to millimeters
G90 ; use absolute coordinates
M83 ; use relative distances for extrusion
M900 K0.05 ; Filament gcode LA 1.5
M900 K30 ; Filament gcode LA 1.0
;LAYER_CHANGE
;Z:0.2
;HEIGHT:0.2
;BEFORE_LAYER_CHANGE
G92 E0.0
;0.2


G1 E-0.80000 F2100.000
G1 Z0.400 F10800.000
;AFTER_LAYER_CHANGE
;0.2
G1 X100.310 Y98.779
G1 Z0.200
G1 E0.80000 F2100.000
M204 S1000
;TYPE:Skirt
;WIDTH:0.42
G1 F1200.000
G1 X101.212 Y97.995 E0.03746
G1 X113.339 Y89.443 E0.46529
G1 X114.599 Y88.913 E0.04285
G1 X115.915 Y88.724 E0.04170
G1 X134.004 Y88.723 E0.56715
G1 X135.407 Y88.914 E0.04440
G1 X136.154 Y89.183 E0.02491
G1 X136.743 Y89.493 E0.02086
G1 X149.205 Y98.330 E0.47899
G1 X150.339 Y99.500 E0.05110
G1 X150.916 Y100.305 E0.03104
G1 X151.367 Y101.111 E0.02898
G1 X151.968 Y102.690 E0.05297
G1 X152.246 Y104.260 E0.04999
G1 X152.274 Y105.225 E0.03027
G1 X152.192 Y106.212 E0.03103
G1 X151.814 Y107.813 E0.05158
G1 X151.430 Y108.762 E0.03211
G1 X150.953 Y109.635 E0.03120
G1 X149.932 Y110.971 E0.05273
G1 X148.758 Y112.027 E0.04951
G1 X136.661 Y120.557 E0.46410
G1 X135.398 Y121.088 E0.04297
G1 X134.058 Y121.276 E0.04241
G1 X115.977 Y121.277 E0.56691
G1 X114.575 Y121.081 E0.04440
G1 X113.783 Y120.788 E0.02645
G1 X113.009 Y120.348 E0.02792
G1 X101.225 Y112.014 E0.45254
G1 X100.034 Y110.935 E0.05039
G1 X99.050 Y109.640 E0.05098
G1 X98.411 Y108.402 E0.04370
G1 X98.026 Y107.288 E0.03696
G1 X97.768 Y105.878 E0.04495
G1 X97.728 Y104.703 E0.03685
G1 X97.895 Y103.276 E0.04505
G1 X98.182 Y102.198 E0.03497
G1 X98.632 Y101.114 E0.03680
G1 X99.364 Y99.891 E0.04470
G1 X100.271 Y98.825 E0.04389
; printing object Case id:0 copy 0
;WIPE_START
G1 F8640.000
G1 X101.212 Y97.995 E-0.28956
G1 X102.877 Y96.821 E-0.47044
;WIPE_END
G1 E-0.04000 F2100.000
G1 Z0.600 F10800.000
G1 X138.326 Y104.615
G1 Z0.200
G1 E0.80000 F2100.000
;TYPE:Perimeter
G1 F1200.000
G1 X138.428 Y103.908 E0.02237
G1 X138.526 Y103.527 E0.01236
G1 X138.776 Y102.857 E0.02242
G1 X138.952 Y102.504 E0.01236
G1 X139.343 Y101.895 E0.02269
G1 X139.834 Y101.329 E0.02350
G1 X140.381 Y100.854 E0.02272
G1 X140.706 Y100.629 E0.01238
G1 X141.357 Y100.275 E0.02325
G1 X142.016 Y100.029 E0.02203
G1 X142.390 Y99.933 E0.01212
G1 X142.771 Y99.864 E0.01213
G1 X143.491 Y99.812 E0.02264
G1 X144.239 Y99.864 E0.02351
G1 X144.946 Y100.018 E0.02270
G1 X145.313 Y100.139 E0.01210
G1 X145.669 Y100.287 E0.01208
G1 X146.295 Y100.629 E0.02238
G1 X146.619 Y100.854 E0.01236
G1 X147.166 Y101.329 E0.02272
G1 X147.657 Y101.895 E0.02350
G1 X148.048 Y102.504 E0.02269
G1 X148.224 Y102.857 E0.01236
G1 X148.474 Y103.527 E0.02242
G1 X148.572 Y103.908 E0.01236
G1 X148.674 Y104.615 E0.02237
G1 X148.688 Y105.000 E0.01209
G1 X148.674 Y105.385 E0.01209
G1 X148.572 Y106.092 E0.02237
G1 X148.474 Y106.473 E0.01236
G1 X148.224 Y107.143 E0.02242
G1 X148.048 Y107.496 E0.01236
G1 X147.657 Y108.105 E0.02269
G1 X147.166 Y108.671 E0.02350
G1 X146.619 Y109.146 E0.02272
G1 X146.294 Y109.371 E0.01238
G1 X145.643 Y109.725 E0.02325
G1 X144.984 Y109.971 E0.02203
G1 X144.610 Y110.067 E0.01212
G1 X144.229 Y110.136 E0.01213
G1 X143.509 Y110.188 E0.02264
G1 X142.761 Y110.136 E0.02351
G1 X142.054 Y109.982 E0.02270
G1 X141.687 Y109.861 E0.01210
G1 X141.331 Y109.713 E0.01208
G1 X140.705 Y109.371 E0.02238
G1 X140.381 Y109.146 E0.01236
G1 X139.834 Y108.671 E0.02272
G1 X139.343 Y108.105 E0.02350
G1 X138.952 Y107.496 E0.02269
G1 X138.776 Y107.143 E0.01236
G1 X138.526 Y106.473 E0.02242
G1 X138.428 Y106.092 E0.01236
G1 X138.326 Y105.385 E0.02237
G1 X138.312 Y105.000 E0.01209
G1 X138.324 Y104.675 E0.01021
G1 X138.701 Y104.688 F10800.000
;TYPE:External perimeter
G1 F1200.000
G1 X138.799 Y103.982 E0.02235
G1 X138.886 Y103.639 E0.01109
G1 X139.122 Y103.007 E0.02115
G1 X139.280 Y102.691 E0.01109
G1 X139.646 Y102.122 E0.02121
G1 X140.101 Y101.596 E0.02180
G1 X140.613 Y101.152 E0.02124
G1 X140.904 Y100.950 E0.01110
G1 X141.514 Y100.619 E0.02177
G1 X142.129 Y100.390 E0.02059
G1 X142.471 Y100.301 E0.01107
G1 X142.818 Y100.238 E0.01106
G1 X143.491 Y100.190 E0.02116
G1 X144.185 Y100.238 E0.02182
G1 X144.847 Y100.382 E0.02122
G1 X145.181 Y100.493 E0.01104
G1 X145.505 Y100.628 E0.01102
G1 X146.096 Y100.950 E0.02111
G1 X146.387 Y101.152 E0.01109
G1 X146.899 Y101.596 E0.02124
G1 X147.354 Y102.122 E0.02180
G1 X147.720 Y102.691 E0.02121
G1 X147.878 Y103.007 E0.01109
G1 X148.114 Y103.639 E0.02115
G1 X148.201 Y103.982 E0.01109
G1 X148.297 Y104.649 E0.02111
G1 X148.310 Y105.000 E0.01103
G1 X148.297 Y105.351 E0.01103
G1 X148.201 Y106.018 E0.02111
G1 X148.114 Y106.361 E0.01109
G1 X147.878 Y106.993 E0.02115
G1 X147.720 Y107.309 E0.01109
G1 X147.354 Y107.878 E0.02121
G1 X146.899 Y108.404 E0.02180
G1 X146.387 Y108.848 E0.02124
G1 X146.096 Y109.050 E0.01110
G1 X145.486 Y109.381 E0.02177
G1 X144.871 Y109.610 E0.02058
G1 X144.529 Y109.699 E0.01107
G1 X144.182 Y109.762 E0.01106
G1 X143.509 Y109.810 E0.02116
G1 X142.815 Y109.762 E0.02182
G1 X142.153 Y109.618 E0.02122
G1 X141.819 Y109.507 E0.01103
G1 X141.495 Y109.372 E0.01102
G1 X140.904 Y109.050 E0.02111
G1 X140.613 Y108.848 E0.01109
G1 X140.101 Y108.404 E0.02124
G1 X139.646 Y107.878 E0.02180
G1 X139.280 Y107.309 E0.02121
G1 X139.122 Y106.993 E0.01109
G1 X138.886 Y106.361 E0.02115
G1 X138.799 Y106.018 E0.01109
G1 X138.703 Y105.351 E0.02111
G1 X138.699 Y104.748 E0.01891
G1 X138.369 Y104.466 F10800.000
;WIPE_START
G1 F8640.000
G1 X138.799 Y103.982 E-0.17839
G1 X138.886 Y103.639 E-0.08171
G1 X139.122 Y103.007 E-0.15578
G1 X139.280 Y102.691 E-0.08170
G1 X139.646 Y102.122 E-0.15621
G1 X139.947 Y101.774 E-0.10621
;WIPE_END
G1 E-0.04000 F2100.000
G1 Z0.600 F10800.000
G1 X111.688 Y105.000
G1 Z0.200
G1 E0.80000 F2100.000
;TYPE:Perimeter
G1 F1200.000
G1 X111.674 Y105.385 E0.01209
G1 X111.572 Y106.092 E0.02237
G1 X111.474 Y106.473 E0.01236
G1 X111.224 Y107.143 E0.02242
G1 X111.048 Y107.496 E0.01236
G1 X110.657 Y108.105 E0.02269
G1 X110.166 Y108.671 E0.02350
G1 X109.619 Y109.146 E0.02272
M73 Q1 S32
G1 X109.294 Y109.371 E0.01238
G1 X108.643 Y109.725 E0.02325
G1 X107.984 Y109.971 E0.02203
G1 X107.610 Y110.067 E0.01212
G1 X107.229 Y110.136 E0.01213
G1 X106.509 Y110.188 E0.02264
G1 X105.761 Y110.136 E0.02351
G1 X105.054 Y109.982 E0.02270
G1 X104.687 Y109.861 E0.01210
G1 X104.331 Y109.713 E0.01208
G1 X103.705 Y109.371 E0.02238
G1 X103.381 Y109.146 E0.01236
G1 X102.834 Y108.671 E0.02272
M73 P1 R32
G1 X102.343 Y108.105 E0.02350
G1 X101.952 Y107.496 E0.02269
G1 X101.776 Y107.143 E0.01236
G1 X101.526 Y106.473 E0.02242
G1 X101.428 Y106.092 E0.01236
G1 X101.326 Y105.385 E0.02237
G1 X101.312 Y105.000 E0.01209
G1 X101.326 Y104.615 E0.01209
G1 X101.428 Y103.908 E0.02237
G1 X101.526 Y103.527 E0.01236
G1 X101.776 Y102.857 E0.02242
G1 X101.952 Y102.504 E0.01236
G1 X102.343 Y101.895 E0.02269
G1 X102.834 Y101.329 E0.02350
G1 X103.381 Y100.854 E0.02272
G1 X103.706 Y100.629 E0.01238
G1 X104.357 Y100.275 E0.02325
G1 X105.016 Y100.029 E0.02203
G1 X105.390 Y99.933 E0.01212
G1 X105.771 Y99.864 E0.01213
G1 X106.491 Y99.812 E0.02264
G1 X107.239 Y99.864 E0.02351
G1 X107.946 Y100.018 E0.02270
G1 X108.313 Y100.139 E0.01210
G1 X108.669 Y100.287 E0.01208
G1 X109.295 Y100.629 E0.02238
G1 X109.619 Y100.854 E0.01236
G1 X110.166 Y101.329 E0.02272
G1 X110.657 Y101.895 E0.02350
G1 X111.048 Y102.504 E0.02269
G1 X111.224 Y102.857 E0.01236
G1 X111.474 Y103.527 E0.02242
G1 X111.572 Y103.908 E0.01236
G1 X111.674 Y104.615 E0.02237
G1 X111.685 Y104.940 E0.01021
G1 X111.309 Y104.954 F10800.000
;TYPE:External perimeter
G1 F1200.000
G1 X111.297 Y105.351 E0.01247
G1 X111.201 Y106.018 E0.02111
G1 X111.114 Y106.361 E0.01109
G1 X110.878 Y106.993 E0.02115
G1 X110.720 Y107.309 E0.01109
G1 X110.354 Y107.878 E0.02121
G1 X109.899 Y108.404 E0.02180
G1 X109.387 Y108.848 E0.02124
G1 X109.096 Y109.050 E0.01110
G1 X108.486 Y109.381 E0.02177
G1 X107.871 Y109.610 E0.02058
G1 X107.529 Y109.699 E0.01107
G1 X107.182 Y109.762 E0.01106
G1 X106.509 Y109.810 E0.02116
G1 X105.815 Y109.762 E0.02182
G1 X105.153 Y109.618 E0.02122
G1 X104.819 Y109.507 E0.01103
G1 X104.495 Y109.372 E0.01102
G1 X103.904 Y109.050 E0.02111
G1 X103.613 Y108.848 E0.01109
G1 X103.101 Y108.404 E0.02124
G1 X102.646 Y107.878 E0.02180
G1 X102.280 Y107.309 E0.02121
G1 X102.122 Y106.993 E0.01109
G1 X101.886 Y106.361 E0.02115
G1 X101.799 Y106.018 E0.01109
G1 X101.703 Y105.351 E0.02111
G1 X101.690 Y105.000 E0.01103
G1 X101.703 Y104.649 E0.01103
G1 X101.799 Y103.982 E0.02111
G1 X101.886 Y103.639 E0.01109
G1 X102.122 Y103.007 E0.02115
G1 X102.280 Y102.691 E0.01109
G1 X102.646 Y102.122 E0.02121
G1 X103.101 Y101.596 E0.02180
G1 X103.613 Y101.152 E0.02124
G1 X103.904 Y100.950 E0.01110
G1 X104.514 Y100.619 E0.02177
G1 X105.129 Y100.390 E0.02059
G1 X105.471 Y100.301 E0.01107
G1 X105.818 Y100.238 E0.01106
G1 X106.491 Y100.190 E0.02116
G1 X107.185 Y100.238 E0.02182
G1 X107.847 Y100.382 E0.02122
G1 X108.181 Y100.493 E0.01104
G1 X108.505 Y100.628 E0.01102
G1 X109.096 Y100.950 E0.02111
G1 X109.387 Y101.152 E0.01109
G1 X109.899 Y101.596 E0.02124
G1 X110.354 Y102.122 E0.02180
G1 X110.720 Y102.691 E0.02121
G1 X110.878 Y103.007 E0.01109
G1 X111.114 Y103.639 E0.02115
G1 X111.201 Y103.982 E0.01109
G1 X111.297 Y104.649 E0.02111
G1 X111.306 Y104.894 E0.00770
G1 X111.657 Y105.147 F10800.000
;WIPE_START
G1 F8640.000
G1 X111.297 Y105.351 E-0.10569
G1 X111.201 Y106.018 E-0.15543
G1 X111.114 Y106.361 E-0.08171
G1 X110.878 Y106.993 E-0.15578
G1 X110.720 Y107.309 E-0.08170
G1 X110.354 Y107.878 E-0.15621
G1 X110.288 Y107.955 E-0.02347
;WIPE_END
G1 E-0.04000 F2100.000
G1 Z0.600 F10800.000
G1 X113.940 Y98.719
G1 Z0.200
G1 E0.80000 F2100.000
;TYPE:Perimeter
G1 F1200.000
G1 X114.167 Y98.244 E0.01650
G1 X114.276 Y97.764 E0.01544
G1 X114.287 Y94.023 E0.11730
G1 X114.299 Y93.820 E0.00635
G1 X114.360 Y93.516 E0.00973
G1 X114.498 Y93.184 E0.01128
G1 X114.680 Y92.913 E0.01024
G1 X114.911 Y92.682 E0.01026
G1 X115.222 Y92.476 E0.01168
G1 X115.346 Y92.419 E0.00427
G1 X115.658 Y92.324 E0.01023
G1 X116.018 Y92.287 E0.01137
G1 X134.005 Y92.289 E0.56394
G1 X134.340 Y92.323 E0.01058
G1 X134.655 Y92.419 E0.01033
G1 X134.956 Y92.582 E0.01073
G1 X135.199 Y92.780 E0.00980
G1 X135.314 Y92.904 E0.00532
G1 X135.510 Y93.196 E0.01101
G1 X135.581 Y93.346 E0.00521
G1 X135.678 Y93.672 E0.01068
G1 X135.713 Y94.033 E0.01137
G1 X135.724 Y97.764 E0.11696
G1 X135.831 Y98.232 E0.01505
G1 X135.962 Y98.540 E0.01052
G1 X136.217 Y98.937 E0.01478
G1 X136.552 Y99.273 E0.01486
G1 X136.792 Y99.445 E0.00928
G1 X137.202 Y99.645 E0.01430
G1 X137.475 Y99.727 E0.00893
G1 X137.790 Y99.778 E0.01002
G1 X143.478 Y99.787 E0.17834
G1 X144.156 Y99.829 E0.02130
G1 X144.828 Y99.961 E0.02146
G1 X145.409 Y100.150 E0.01915
G1 X145.988 Y100.420 E0.02003
G1 X146.306 Y100.608 E0.01161
G1 X146.836 Y100.996 E0.02057
G1 X147.314 Y101.447 E0.02061
G1 X147.516 Y101.678 E0.00962
G1 X147.876 Y102.171 E0.01916
G1 X148.211 Y102.769 E0.02147
G1 X148.453 Y103.380 E0.02061
G1 X148.618 Y104.016 E0.02061
G1 X148.669 Y104.325 E0.00983
G1 X148.703 Y104.694 E0.01161
G1 X148.700 Y105.359 E0.02086
G1 X148.670 Y105.665 E0.00963
G1 X148.556 Y106.265 E0.01914
G1 X148.347 Y106.917 E0.02147
G1 X148.063 Y107.520 E0.02090
G1 X147.692 Y108.096 E0.02147
G1 X147.302 Y108.566 E0.01915
G1 X147.085 Y108.783 E0.00962
G1 X146.573 Y109.210 E0.02090
G1 X146.314 Y109.387 E0.00984
G1 X145.995 Y109.576 E0.01165
G1 X145.444 Y109.836 E0.01910
G1 X145.102 Y109.960 E0.01140
G1 X144.512 Y110.112 E0.01909
G1 X144.154 Y110.171 E0.01137
G1 X143.478 Y110.213 E0.02124
G1 X137.737 Y110.224 E0.18002
G1 X137.273 Y110.330 E0.01490
G1 X137.013 Y110.436 E0.00882
G1 X136.768 Y110.571 E0.00877
G1 X136.405 Y110.858 E0.01449
G1 X136.183 Y111.109 E0.01051
G1 X135.941 Y111.499 E0.01438
G1 X135.830 Y111.773 E0.00930
G1 X135.724 Y112.236 E0.01489
G1 X135.713 Y115.977 E0.11730
G1 X135.701 Y116.180 E0.00635
G1 X135.640 Y116.484 E0.00973
G1 X135.502 Y116.816 E0.01128
G1 X135.320 Y117.087 E0.01024
G1 X135.089 Y117.318 E0.01026
G1 X134.778 Y117.524 E0.01168
G1 X134.654 Y117.581 E0.00427
G1 X134.342 Y117.676 E0.01023
G1 X133.981 Y117.713 E0.01137
G1 X116.022 Y117.713 E0.56312
G1 X115.820 Y117.701 E0.00632
G1 X115.516 Y117.640 E0.00973
G1 X115.182 Y117.502 E0.01133
G1 X114.924 Y117.330 E0.00973
G1 X114.787 Y117.208 E0.00574
G1 X114.573 Y116.943 E0.01069
G1 X114.419 Y116.655 E0.01023
G1 X114.367 Y116.514 E0.00473
G1 X114.323 Y116.339 E0.00565
G1 X114.287 Y115.967 E0.01174
G1 X114.276 Y112.236 E0.11696
G1 X114.169 Y111.768 E0.01505
G1 X114.038 Y111.460 E0.01052
G1 X113.783 Y111.063 E0.01478
G1 X113.436 Y110.715 E0.01541
G1 X113.004 Y110.442 E0.01603
G1 X112.727 Y110.330 E0.00937
G1 X112.264 Y110.224 E0.01489
G1 X106.177 Y110.202 E0.19086
G1 X105.533 Y110.121 E0.02036
G1 X104.897 Y109.960 E0.02056
G1 X104.556 Y109.836 E0.01137
G1 X104.005 Y109.576 E0.01909
G1 X103.694 Y109.392 E0.01136
G1 X103.164 Y109.004 E0.02057
G1 X102.692 Y108.559 E0.02035
G1 X102.308 Y108.096 E0.01887
G1 X102.102 Y107.797 E0.01138
G1 X101.782 Y107.215 E0.02084
G1 X101.657 Y106.927 E0.00982
G1 X101.533 Y106.577 E0.01166
G1 X101.382 Y105.985 E0.01915
G1 X101.333 Y105.682 E0.00963
G1 X101.288 Y105.018 E0.02086
G1 X101.331 Y104.327 E0.02172
G1 X101.382 Y104.015 E0.00992
G1 X101.533 Y103.423 E0.01915
G1 X101.785 Y102.777 E0.02175
G1 X102.124 Y102.171 E0.02176
G1 X102.484 Y101.678 E0.01916
G1 X102.691 Y101.442 E0.00985
G1 X102.955 Y101.180 E0.01166
G1 X103.426 Y100.791 E0.01914
G1 X104.012 Y100.420 E0.02176
G1 X104.293 Y100.278 E0.00988
G1 X104.861 Y100.053 E0.01914
G1 X105.218 Y99.948 E0.01166
G1 X105.524 Y99.880 E0.00985
G1 X106.130 Y99.802 E0.01916
G1 X106.515 Y99.787 E0.01207
G1 X112.210 Y99.778 E0.17855
G1 X112.525 Y99.727 E0.01002
G1 X112.786 Y99.648 E0.00854
G1 X113.040 Y99.537 E0.00869
G1 X113.392 Y99.316 E0.01305
G1 X113.642 Y99.095 E0.01045
G1 X113.903 Y98.766 E0.01316
G1 X113.607 Y98.531 F10800.000
;TYPE:External perimeter
G1 F1200.000
G1 X113.808 Y98.119 E0.01437
G1 X113.899 Y97.721 E0.01281
G1 X113.910 Y94.011 E0.11632
G1 X113.924 Y93.772 E0.00751
G1 X113.998 Y93.406 E0.01170
G1 X114.164 Y93.005 E0.01362
G1 X114.388 Y92.672 E0.01257
G1 X114.672 Y92.388 E0.01260
G1 X115.038 Y92.146 E0.01376
M73 P1 R31
G1 X115.211 Y92.066 E0.00599
G1 X115.573 Y91.955 E0.01188
G1 X116.009 Y91.910 E0.01375
G1 X134.024 Y91.912 E0.56483
G1 X134.405 Y91.950 E0.01201
G1 X134.810 Y92.074 E0.01328
G1 X135.167 Y92.268 E0.01274
G1 X135.457 Y92.504 E0.01173
G1 X135.610 Y92.669 E0.00706
G1 X135.839 Y93.009 E0.01284
G1 X135.934 Y93.211 E0.00700
G1 X136.050 Y93.600 E0.01273
G1 X136.090 Y94.015 E0.01307
G1 X136.101 Y97.721 E0.11620
G1 X136.191 Y98.115 E0.01268
G1 X136.297 Y98.363 E0.00847
G1 X136.512 Y98.700 E0.01252
G1 X136.796 Y98.984 E0.01261
G1 X136.986 Y99.120 E0.00731
G1 X137.340 Y99.292 E0.01235
G1 X137.560 Y99.359 E0.00720
G1 X137.821 Y99.401 E0.00829
G1 X143.490 Y99.410 E0.17776
G1 X144.197 Y99.454 E0.02221
G1 X144.537 Y99.507 E0.01078
