; generated by PrusaSlicer 2.3.1+x64 on 2021-12-10 at 11:37:59 UTC

; 

; external perimeters extrusion width = 0.45mm
; perimeters extrusion width = 0.45mm
; infill extrusion width = 0.45mm
; solid infill extrusion width = 0.45mm
; top infill extrusion width = 0.40mm
; first layer extrusion width = 0.42mm

M73 P0 R7
M73 Q0 S7
M201 X1000 Y1000 Z200 E5000 ; sets maximum accelerations, mm/sec^2
M203 X200 Y200 Z12 E120 ; sets maximum feedrates, mm/sec
M204 P1250 R1250 T1250 ; sets acceleration (P, T) and retract acceleration (R), mm/sec^2
M205 X8.00 Y8.00 Z0.40 E4.50 ; sets the jerk limits, mm/sec
M205 S0 T0 ; sets the minimum extruding and travel feed rate, mm/sec
M107
;TYPE:Custom
M862.3 P "MK3S" ; printer model check
M862.1 P0.4 ; nozzle diameter check
M115 U3.10.0 ; tell printer latest fw version
G90 ; use absolute coordinates
M83 ; extruder relative mode
M104 S260 ; set extruder temp
M140 S50 ; set bed temp
M190 S50 ; wait for bed temp
M109 S260 ; wait for extruder temp
G28 W ; home all without mesh bed level
G80 ; mesh bed leveling
G1 Y-3.0 F1000.0 ; go outside print area
G92 E0.0
G1 X60.0 E9.0 F1000.0 ; intro line
G1 X100.0 E12.5 F1000.0 ; intro line
G92 E0.0
M221 S95

; Don't change E values below. Excessive value can damage the printer.
M907 E430 ; set extruder motor current
G21 ; set units to millimeters
G90 ; use absolute coordinates
M83 ; use relative distances for extrusion
M900 K0
;LAYER_CHANGE
;Z:0.2
;HEIGHT:0.2
;BEFORE_LAYER_CHANGE
G92 E0.0
;0.2


M73 P1 R7
M73 Q1 S7
G1 Z0.200 F10800.000
;AFTER_LAYER_CHANGE
;0.2
G1 X117.570 Y99.646
M204 S1000
;TYPE:Skirt
;WIDTH:0.42
G1 F954.706
G1 X118.024 Y98.833 E0.03361
G1 X118.460 Y98.374 E0.02282
G1 X118.976 Y98.015 E0.02266
G1 X119.553 Y97.765 E0.02266
G1 X120.172 Y97.636 E0.02282
G1 X129.504 Y97.619 E0.33649
G1 X130.571 Y97.808 E0.03905
G1 X131.509 Y98.348 E0.03905
G1 X132.205 Y99.173 E0.03890
G1 X132.581 Y100.189 E0.03905
M73 Q2 S7
G1 X132.627 Y109.420 E0.33288
M73 P2 R7
G1 X132.435 Y110.341 E0.03392
G1 X131.976 Y111.167 E0.03408
G1 X131.506 Y111.654 E0.02439
G1 X130.939 Y112.031 E0.02454
G1 X130.304 Y112.276 E0.02454
G1 X129.632 Y112.378 E0.02454
G1 X120.316 Y112.376 E0.33588
G1 X119.400 Y112.182 E0.03376
G1 X118.583 Y111.726 E0.03376
G1 X118.096 Y111.256 E0.02439
G1 X117.719 Y110.689 E0.02454
G1 X117.474 Y110.054 E0.02454
G1 X117.372 Y109.386 E0.02439
G1 X117.375 Y100.558 E0.31832
G1 X117.557 Y99.705 E0.03144
G1 X117.924 Y99.784 F10800.000
G1 F954.706
G1 X118.349 Y99.030 E0.03119
G1 X118.735 Y98.635 E0.01992
G1 X119.193 Y98.326 E0.01992
G1 X119.703 Y98.114 E0.01992
G1 X120.245 Y98.008 E0.01992
G1 X129.504 Y97.996 E0.33384
G1 X130.452 Y98.165 E0.03471
G1 X131.283 Y98.651 E0.03471
G1 X131.896 Y99.393 E0.03471
G1 X132.217 Y100.300 E0.03471
G1 X132.250 Y109.398 E0.32802
G1 X132.073 Y110.232 E0.03077
G1 X131.651 Y110.970 E0.03063
G1 X131.233 Y111.391 E0.02139
G1 X130.734 Y111.712 E0.02139
M73 Q3 S7
G1 X130.178 Y111.919 E0.02139
G1 X129.591 Y112.003 E0.02139
G1 X120.348 Y112.000 E0.33326
M73 P3 R7
G1 X119.518 Y111.823 E0.03063
G1 X118.780 Y111.401 E0.03063
G1 X118.362 Y110.986 E0.02125
G1 X118.040 Y110.488 E0.02139
G1 X117.832 Y109.932 E0.02139
G1 X117.747 Y109.345 E0.02139
G1 X117.750 Y100.590 E0.31568
G1 X117.911 Y99.843 E0.02757
G1 X119.403 Y98.641 F10800.000
G1 F954.706
G1 X120.312 Y98.380 E0.03411
G1 X129.504 Y98.373 E0.33142
G1 X130.331 Y98.523 E0.03033
G1 X131.055 Y98.952 E0.03033
G1 X131.584 Y99.606 E0.03033
G1 X131.852 Y100.404 E0.03033
G1 X131.874 Y109.368 E0.32324
G1 X131.716 Y110.110 E0.02735
G1 X131.332 Y110.764 E0.02735
G1 X130.971 Y111.118 E0.01823
G1 X130.542 Y111.386 E0.01823
G1 X130.063 Y111.559 E0.01837
G1 X129.562 Y111.626 E0.01823
G1 X120.378 Y111.624 E0.33115
G1 X119.640 Y111.466 E0.02722
G1 X118.986 Y111.082 E0.02735
G1 X118.632 Y110.721 E0.01823
G1 X118.364 Y110.292 E0.01823
G1 X118.192 Y109.817 E0.01823
G1 X118.124 Y109.316 E0.01823
G1 X118.126 Y100.621 E0.31353
M73 P4 R7
M73 Q4 S7
G1 X118.287 Y99.883 E0.02722
G1 X118.668 Y99.236 E0.02708
G1 X119.357 Y98.679 E0.03194
; printing object Stress Relief id:0 copy 0
G1 X123.123 Y103.026 F10800.000
;TYPE:External perimeter
G1 F954.706
G1 X123.347 Y102.855 E0.01014
G1 X123.586 Y102.706 E0.01014
G1 X123.838 Y102.582 E0.01014
G1 X124.101 Y102.482 E0.01014
G1 X124.372 Y102.408 E0.01014
G1 X124.649 Y102.361 E0.01014
G1 X124.930 Y102.341 E0.01014
G1 X125.211 Y102.347 E0.01014
G1 X125.490 Y102.381 E0.01014
G1 X125.765 Y102.442 E0.01014
G1 X126.032 Y102.529 E0.01014
G1 X126.290 Y102.641 E0.01014
G1 X126.536 Y102.778 E0.01014
G1 X126.767 Y102.938 E0.01014
G1 X126.982 Y103.119 E0.01014
G1 X127.178 Y103.320 E0.01014
G1 X127.354 Y103.539 E0.01014
G1 X127.509 Y103.775 E0.01014
G1 X127.639 Y104.024 E0.01014
G1 X127.745 Y104.284 E0.01014
G1 X127.826 Y104.554 E0.01014
G1 X127.880 Y104.829 E0.01014
G1 X127.907 Y105.109 E0.01014
G1 X127.907 Y105.391 E0.01014
G1 X127.880 Y105.671 E0.01014
G1 X127.826 Y105.946 E0.01014
G1 X127.745 Y106.216 E0.01014
G1 X127.639 Y106.476 E0.01014
G1 X127.509 Y106.725 E0.01014
G1 X127.353 Y106.963 E0.01023
G1 X127.084 Y107.281 E0.01502
G1 X126.877 Y107.474 E0.01023
G1 X126.653 Y107.645 E0.01014
G1 X126.414 Y107.794 E0.01014
G1 X126.162 Y107.918 E0.01014
G1 X125.899 Y108.018 E0.01014
G1 X125.628 Y108.092 E0.01014
G1 X125.351 Y108.139 E0.01014
G1 X125.070 Y108.159 E0.01014
G1 X124.789 Y108.153 E0.01014
G1 X124.510 Y108.119 E0.01014
G1 X124.235 Y108.058 E0.01014
G1 X123.968 Y107.971 E0.01014
G1 X123.710 Y107.859 E0.01014
G1 X123.464 Y107.722 E0.01014
G1 X123.233 Y107.562 E0.01014
G1 X123.018 Y107.381 E0.01014
G1 X122.822 Y107.180 E0.01014
G1 X122.646 Y106.961 E0.01014
G1 X122.491 Y106.725 E0.01014
G1 X122.361 Y106.476 E0.01014
G1 X122.255 Y106.216 E0.01014
G1 X122.174 Y105.946 E0.01014
G1 X122.120 Y105.671 E0.01014
G1 X122.093 Y105.391 E0.01014
G1 X122.093 Y105.109 E0.01014
G1 X122.120 Y104.829 E0.01014
G1 X122.174 Y104.554 E0.01014
G1 X122.255 Y104.284 E0.01014
G1 X122.362 Y104.021 E0.01023
G1 X122.564 Y103.657 E0.01502
G1 X122.731 Y103.428 E0.01023
G1 X123.079 Y103.066 E0.01810
G1 X123.069 Y102.750 F10800.000
G1 X124.136 Y108.422
;TYPE:Perimeter
G1 F954.706
G1 X124.320 Y108.463 E0.00678
G1 X121.287 Y108.463 E0.10936
G1 X121.287 Y101.537 E0.24973
G1 X128.713 Y101.537 E0.26776
G1 X128.713 Y108.463 E0.24973
G1 X125.694 Y108.463 E0.10884
G1 X126.016 Y108.377 E0.01200
G1 X126.313 Y108.264 E0.01146
G1 X126.598 Y108.123 E0.01146
G1 X126.868 Y107.956 E0.01146
G1 X127.120 Y107.763 E0.01146
G1 X127.358 Y107.542 E0.01171
G1 X127.656 Y107.188 E0.01667
G1 X127.834 Y106.917 E0.01171
G1 X127.982 Y106.635 E0.01146
G1 X128.101 Y106.341 E0.01146
G1 X128.192 Y106.037 E0.01146
G1 X128.253 Y105.725 E0.01146
G1 X128.284 Y105.409 E0.01146
G1 X128.284 Y105.091 E0.01146
G1 X128.253 Y104.775 E0.01146
G1 X128.192 Y104.463 E0.01146
G1 X128.101 Y104.159 E0.01146
G1 X127.982 Y103.865 E0.01146
G1 X127.834 Y103.583 E0.01146
G1 X127.660 Y103.317 E0.01146
G1 X127.461 Y103.070 E0.01146
G1 X127.239 Y102.842 E0.01146
G1 X126.996 Y102.638 E0.01146
G1 X126.735 Y102.457 E0.01146
M73 Q5 S7
G1 X126.457 Y102.303 E0.01146
G1 X126.166 Y102.176 E0.01146
G1 X125.864 Y102.078 E0.01146
G1 X125.554 Y102.009 E0.01146
G1 X125.238 Y101.971 E0.01146
G1 X124.921 Y101.963 E0.01146
G1 X124.604 Y101.986 E0.01146
G1 X124.291 Y102.040 E0.01146
G1 X123.984 Y102.123 E0.01146
G1 X123.687 Y102.236 E0.01146
G1 X123.402 Y102.377 E0.01146
G1 X123.132 Y102.544 E0.01146
G1 X122.880 Y102.737 E0.01146
G1 X122.647 Y102.953 E0.01146
G1 X122.437 Y103.191 E0.01146
G1 X122.246 Y103.454 E0.01171
M73 P5 R7
G1 X122.021 Y103.858 E0.01666
G1 X121.899 Y104.159 E0.01171
G1 X121.808 Y104.463 E0.01146
G1 X121.747 Y104.775 E0.01146
G1 X121.716 Y105.091 E0.01146
G1 X121.716 Y105.409 E0.01146
G1 X121.747 Y105.725 E0.01146
G1 X121.808 Y106.037 E0.01146
G1 X121.899 Y106.341 E0.01146
G1 X122.018 Y106.635 E0.01146
G1 X122.166 Y106.917 E0.01146
G1 X122.340 Y107.183 E0.01146
G1 X122.539 Y107.430 E0.01146
G1 X122.761 Y107.658 E0.01146
G1 X123.004 Y107.862 E0.01146
G1 X123.265 Y108.043 E0.01146
G1 X123.543 Y108.197 E0.01146
G1 X123.834 Y108.324 E0.01146
G1 X124.079 Y108.404 E0.00929
G1 X120.910 Y108.840 F10800.000
;TYPE:External perimeter
G1 F954.706
G1 X120.910 Y101.160 E0.27692
G1 X129.090 Y101.160 E0.29495
G1 X129.090 Y108.840 E0.27692
G1 X120.970 Y108.840 E0.29279
G1 X121.018 Y108.455 F10800.000
G1 X121.400 Y106.969
;TYPE:Solid infill
;WIDTH:0.444211
G1 F897.105
G1 X122.612 Y108.180 E0.06573
G1 X122.044 Y108.180 E0.02178
G1 X121.400 Y107.536 E0.03494
G1 X121.628 Y106.580 F10800.000
;TYPE:Gap fill
;WIDTH:0.293022
G1 F1200.000
G1 X121.576 Y106.272 E0.00749
;WIDTH:0.193142
G1 X121.534 Y105.928 E0.00497
;WIDTH:0.0948991
G1 X121.502 Y105.420 E0.00253
G1 X121.502 Y105.080 E0.00169
;WIDTH:0.127995
G1 X121.518 Y104.739 E0.00277
;WIDTH:0.160568
G1 X121.534 Y104.572 E0.00190
;WIDTH:0.194915
G1 X121.552 Y104.396 E0.00256
;WIDTH:0.243969
G1 X121.576 Y104.228 E0.00326
;WIDTH:0.298453
G1 X121.628 Y103.920 E0.00765
G1 X122.745 Y101.650 F10800.000
;TYPE:Solid infill
;WIDTH:0.422394
G1 F948.682
G1 X123.239 Y102.145 E0.02539
G1 X122.913 Y102.356 E0.01408
G1 X122.378 Y101.820 E0.02749
G1 X121.841 Y101.820 E0.01947
G1 X122.617 Y102.596 E0.03981
G1 X122.349 Y102.864 E0.01377
G1 X121.570 Y102.085 E0.03996
G1 X121.570 Y102.622 E0.01947
G1 X122.109 Y103.161 E0.02766
G1 X121.902 Y103.491 E0.01412
G1 X121.400 Y102.989 E0.02574
G1 X123.672 Y101.877 F10800.000
;TYPE:Gap fill
;WIDTH:0.219858
G1 F1200.000
G1 X124.232 Y101.792 E0.00960
;WIDTH:0.116164
G1 X124.918 Y101.750 E0.00481
G1 X124.957 Y101.751 F10800.000
;WIDTH:0.100061
G1 F1200.000
G1 X125.255 Y101.754 E0.00163
;WIDTH:0.141505
G1 X125.596 Y101.775 E0.00322
;WIDTH:0.178182
G1 X125.764 Y101.793 E0.00219
;WIDTH:0.217097
G1 X125.940 Y101.813 E0.00295
;WIDTH:0.25802
G1 X126.133 Y101.843 E0.00401
;WIDTH:0.298943
G1 X126.325 Y101.874 E0.00477
G1 X128.600 Y102.446 F10800.000
;TYPE:Solid infill
;WIDTH:0.435598
G1 F916.782
G1 X127.974 Y101.820 E0.03322
M73 Q6 S7
G1 X127.419 Y101.820 E0.02085
G1 X128.430 Y102.831 E0.05370
G1 X128.430 Y103.387 E0.02085
G1 X126.694 Y101.650 E0.09220
M73 P6 R7
G1 X128.372 Y103.920 F10800.000
;TYPE:Gap fill
;WIDTH:0.293022
G1 F1200.000
G1 X128.424 Y104.228 E0.00749
;WIDTH:0.19314
G1 X128.466 Y104.572 E0.00497
;WIDTH:0.094899
G1 X128.498 Y105.080 E0.00253
G1 X128.498 Y105.420 E0.00169
;WIDTH:0.127993
G1 X128.482 Y105.760 E0.00277
;WIDTH:0.160566
G1 X128.466 Y105.928 E0.00190
;WIDTH:0.194913
G1 X128.448 Y106.104 E0.00256
;WIDTH:0.243968
G1 X128.424 Y106.272 E0.00326
;WIDTH:0.298453
G1 X128.372 Y106.580 E0.00765
G1 X128.600 Y107.598 F10800.000
;TYPE:Solid infill
;WIDTH:0.463609
G1 F855.739
G1 X128.072 Y107.070 E0.03005
G1 X127.829 Y107.422 E0.01721
G1 X128.430 Y108.024 E0.03421
G1 X128.430 Y108.180 E0.00629
G1 X127.992 Y108.180 E0.01764
G1 X127.556 Y107.744 E0.02481
G1 X127.242 Y108.026 E0.01695
G1 X127.566 Y108.350 E0.01845
G1 X125.507 Y108.484 F10800.000
;TYPE:Gap fill
;WIDTH:0.365466
G1 F1116.120
G1 X125.086 Y108.500 E0.01300
;WIDTH:0.346618
G1 F1185.388
G1 X124.508 Y108.481 E0.01680
; stop printing object Stress Relief id:0 copy 0
;LAYER_CHANGE
;Z:0.35
;HEIGHT:0.15
;BEFORE_LAYER_CHANGE
G92 E0.0
;0.35


G1 Z0.350 F10800.000
;AFTER_LAYER_CHANGE
;0.35
M104 S245 ; set temperature
G1 X132.581 Y100.189
;TYPE:Skirt
;WIDTH:0.42
G1 F1237.720
G1 X132.627 Y109.420 E0.25676
G1 X132.435 Y110.341 E0.02616
G1 X131.976 Y111.167 E0.02628
G1 X131.506 Y111.654 E0.01881
G1 X130.939 Y112.031 E0.01893
G1 X130.304 Y112.276 E0.01893
G1 X129.632 Y112.378 E0.01893
G1 X120.316 Y112.376 E0.25907
G1 X119.400 Y112.182 E0.02604
G1 X118.583 Y111.726 E0.02604
G1 X118.096 Y111.256 E0.01881
G1 X117.719 Y110.689 E0.01893
G1 X117.474 Y110.054 E0.01893
G1 X117.372 Y109.386 E0.01881
G1 X117.375 Y100.558 E0.24553
G1 X117.570 Y99.646 E0.02592
G1 X118.024 Y98.833 E0.02592
G1 X118.460 Y98.374 E0.01760
G1 X118.976 Y98.015 E0.01748
G1 X119.553 Y97.765 E0.01748
G1 X120.172 Y97.636 E0.01760
G1 X129.504 Y97.619 E0.25955
M73 P6 R6
G1 X130.571 Y97.808 E0.03012
G1 X131.509 Y98.348 E0.03012
G1 X132.205 Y99.173 E0.03000
G1 X132.560 Y100.132 E0.02845
G1 X132.202 Y100.259 F10800.000
G1 F1237.720
G1 X132.217 Y100.300 E0.00123
G1 X132.250 Y109.398 E0.25302
M73 Q7 S6
G1 X132.073 Y110.232 E0.02374
G1 X131.651 Y110.970 E0.02362
M73 P7 R6
G1 X131.233 Y111.391 E0.01650
G1 X130.734 Y111.712 E0.01650
G1 X130.178 Y111.919 E0.01650
G1 X129.591 Y112.003 E0.01650
G1 X120.348 Y112.000 E0.25706
G1 X119.518 Y111.823 E0.02362
G1 X118.780 Y111.401 E0.02362
G1 X118.362 Y110.986 E0.01639
G1 X118.040 Y110.488 E0.01650
G1 X117.832 Y109.932 E0.01650
G1 X117.747 Y109.345 E0.01650
G1 X117.750 Y100.590 E0.24349
G1 X117.928 Y99.764 E0.02351
G1 X118.349 Y99.030 E0.02351
G1 X118.735 Y98.635 E0.01537
G1 X119.193 Y98.326 E0.01537
G1 X119.703 Y98.114 E0.01537
G1 X120.245 Y98.008 E0.01537
G1 X129.504 Y97.996 E0.25751
G1 X130.452 Y98.165 E0.02677
G1 X131.283 Y98.651 E0.02677
G1 X131.896 Y99.393 E0.02677
G1 X132.182 Y100.202 E0.02388
G1 X131.584 Y99.606 F10800.000
G1 F1237.720
G1 X131.852 Y100.404 E0.02339
G1 X131.874 Y109.368 E0.24933
G1 X131.716 Y110.110 E0.02110
G1 X131.332 Y110.764 E0.02110
G1 X130.971 Y111.118 E0.01406
G1 X130.542 Y111.386 E0.01406
G1 X130.063 Y111.559 E0.01417
G1 X129.562 Y111.626 E0.01406
G1 X120.378 Y111.624 E0.25543
G1 X119.640 Y111.466 E0.02099
G1 X118.986 Y111.082 E0.02110
G1 X118.632 Y110.721 E0.01406
G1 X118.364 Y110.292 E0.01406
G1 X118.192 Y109.817 E0.01406
G1 X118.124 Y109.316 E0.01406
G1 X118.126 Y100.621 E0.24184
G1 X118.287 Y99.883 E0.02099
G1 X118.668 Y99.236 E0.02089
G1 X119.403 Y98.641 E0.02631
G1 X120.312 Y98.380 E0.02631
M73 Q8 S6
G1 X129.504 Y98.373 E0.25564
M73 P8 R6
G1 X130.331 Y98.523 E0.02339
G1 X131.055 Y98.952 E0.02339
G1 X131.546 Y99.560 E0.02173
; printing object Stress Relief id:0 copy 0
G1 X127.545 Y103.401 F10800.000
M204 S800
;TYPE:Perimeter
;WIDTH:0.45
G1 F1148.848
G1 X127.853 Y103.924 E0.01820
G1 X128.054 Y104.497 E0.01820
G1 X128.142 Y105.098 E0.01820
G1 X128.113 Y105.705 E0.01820
G1 X127.967 Y106.294 E0.01820
G1 X127.718 Y106.831 E0.01773
G1 X127.539 Y107.104 E0.00979
G1 X127.255 Y107.442 E0.01325
G1 X126.788 Y107.838 E0.01835
G1 X126.256 Y108.134 E0.01822
G1 X125.679 Y108.322 E0.01820
G1 X125.076 Y108.395 E0.01820
G1 X124.470 Y108.351 E0.01820
G1 X123.884 Y108.191 E0.01820
G1 X123.340 Y107.922 E0.01820
G1 X122.858 Y107.554 E0.01820
G1 X122.455 Y107.099 E0.01820
G1 X122.147 Y106.576 E0.01820
G1 X121.946 Y106.003 E0.01820
G1 X121.860 Y105.417 E0.01773
G1 X121.860 Y105.091 E0.00979
G1 X121.913 Y104.652 E0.01325
G1 X122.086 Y104.065 E0.01835
G1 X122.369 Y103.526 E0.01822
G1 X122.749 Y103.053 E0.01820
G1 X123.213 Y102.661 E0.01820
G1 X123.744 Y102.366 E0.01820
G1 X124.321 Y102.178 E0.01820
G1 X124.924 Y102.105 E0.01820
G1 X125.530 Y102.149 E0.01820
G1 X126.116 Y102.309 E0.01820
G1 X126.660 Y102.578 E0.01820
G1 X127.142 Y102.946 E0.01820
G1 X127.505 Y103.356 E0.01640
M204 S1000
G1 X127.193 Y103.633 F10800.000
M204 S800
;TYPE:External perimeter
G1 F1148.848
G1 X127.472 Y104.101 E0.01634
G1 X127.647 Y104.598 E0.01577
G1 X127.723 Y105.118 E0.01577
G1 X127.697 Y105.644 E0.01577
G1 X127.572 Y106.155 E0.01577
G1 X127.352 Y106.627 E0.01560
G1 X127.203 Y106.854 E0.00813
G1 X126.958 Y107.146 E0.01145
G1 X126.549 Y107.493 E0.01606
G1 X126.089 Y107.749 E0.01578
G1 X125.588 Y107.912 E0.01577
G1 X125.066 Y107.975 E0.01577
G1 X124.541 Y107.937 E0.01577
G1 X124.033 Y107.799 E0.01577
G1 X123.562 Y107.566 E0.01577
G1 X123.144 Y107.246 E0.01577
G1 X122.795 Y106.852 E0.01577
G1 X122.528 Y106.399 E0.01577
G1 X122.353 Y105.902 E0.01577
G1 X122.278 Y105.387 E0.01560
G1 X122.278 Y105.116 E0.00813
G1 X122.323 Y104.736 E0.01145
G1 X122.475 Y104.222 E0.01606
G1 X122.720 Y103.756 E0.01578
G1 X123.049 Y103.346 E0.01577
G1 X123.451 Y103.006 E0.01577
G1 X123.911 Y102.751 E0.01577
G1 X124.412 Y102.588 E0.01577
G1 X124.934 Y102.525 E0.01577
G1 X125.459 Y102.563 E0.01577
G1 X125.967 Y102.701 E0.01577
G1 X126.438 Y102.934 E0.01577
G1 X126.856 Y103.254 E0.01577
G1 X127.153 Y103.588 E0.01339
M204 S1000
G1 X127.590 Y103.589 F10800.000
G1 X128.857 Y101.393
M204 S800
