; generated by PrusaSlicer 2.3.1+x64 on 2021-08-02 at 12:37:13 UTC

; 

; external perimeters extrusion width = 0.45mm
; perimeters extrusion width = 0.45mm
; infill extrusion width = 0.45mm
; solid infill extrusion width = 0.45mm
; top infill extrusion width = 0.40mm
; first layer extrusion width = 0.42mm

M73 P0 R19
M73 Q0 S19
M201 X1000 Y1000 Z200 E5000 ; sets maximum accelerations, mm/sec^2
M203 X200 Y200 Z12 E120 ; sets maximum feedrates, mm/sec
M204 P1250 R1250 T1250 ; sets acceleration (P, T) and retract acceleration (R), mm/sec^2
M205 X8.00 Y8.00 Z0.40 E4.50 ; sets the jerk limits, mm/sec
M205 S0 T0 ; sets the minimum extruding and travel feed rate, mm/sec
M107
;TYPE:Custom
M862.3 P "MK3S" ; printer model check
M862.1 P0.4 ; nozzle diameter check
M115 U3.10.0 ; tell printer latest fw version
G90 ; use absolute coordinates
M83 ; extruder relative mode
M104 S260 ; set extruder temp
M140 S95 ; set bed temp
M190 S95 ; wait for bed temp
M109 S260 ; wait for extruder temp
G28 W ; home all without mesh bed level
G80 ; mesh bed leveling
G1 Y-3.0 F1000.0 ; go outside print area
G92 E0.0
G1 X60.0 E9.0 F1000.0 ; intro line
G1 X100.0 E12.5 F1000.0 ; intro line
G92 E0.0
M221 S95

; Don't change E values below. Excessive value can damage the printer.
M907 E430 ; set extruder motor current
G21 ; set units to millimeters
G90 ; use absolute coordinates
M83 ; use relative distances for extrusion
M900 K0.04 ; Filament gcode LA 1.5
M900 K20 ; Filament gcode LA 1.0
;LAYER_CHANGE
;Z:0.2
;HEIGHT:0.2
;BEFORE_LAYER_CHANGE
G92 E0.0
;0.2


G1 Z0.200 F10800.000
;AFTER_LAYER_CHANGE
;0.2
G1 E-2.00000 F2400.000
G1 X117.228 Y127.670 F10800.000
G1 E2.00000 F2400.000
M204 S1000
;TYPE:Skirt
;WIDTH:0.42
G1 F1200.000
G1 X118.180 Y127.502 E0.03031
G1 X118.710 Y127.554 E0.01669
G1 X119.223 Y127.708 E0.01681
G1 X119.697 Y127.959 E0.01681
G1 X120.114 Y128.297 E0.01681
G1 X141.053 Y149.879 E0.94284
G1 X141.575 Y150.649 E0.02917
G1 X141.791 Y151.378 E0.02383
G1 X141.799 Y152.142 E0.02396
G1 X141.596 Y152.879 E0.02396
G1 X141.202 Y153.529 E0.02383
G1 X134.630 Y159.928 E0.28760
G1 X133.906 Y160.488 E0.02870
G1 X133.303 Y160.812 E0.02146
G1 X132.050 Y161.173 E0.04090
G1 X131.432 Y161.220 E0.01940
G1 X130.595 Y161.157 E0.02634
G1 X129.371 Y160.781 E0.04013
G1 X128.312 Y160.107 E0.03938
G1 X109.837 Y141.100 E0.83108
M73 Q1 S19
G1 X109.388 Y140.554 E0.02215
G1 X108.923 Y139.740 E0.02941
G1 X108.574 Y138.571 E0.03823
G1 X108.538 Y137.324 E0.03912
G1 X108.639 Y136.726 E0.01902
G1 X108.898 Y135.936 E0.02608
G1 X109.514 Y134.889 E0.03809
M73 P1 R19
G1 X116.390 Y128.160 E0.30163
G1 X117.177 Y127.701 E0.02855
G1 X119.088 Y128.060 F10800.000
G1 F1200.000
G1 X119.854 Y128.570 E0.02884
G1 X140.781 Y150.141 E0.94233
G1 X141.227 Y150.796 E0.02484
G1 X141.418 Y151.436 E0.02095
G1 X141.423 Y152.104 E0.02095
G1 X141.242 Y152.747 E0.02095
G1 X140.892 Y153.312 E0.02083
G1 X134.377 Y159.649 E0.28496
G1 X133.700 Y160.172 E0.02682
G1 X133.158 Y160.464 E0.01931
G1 X132.003 Y160.799 E0.03770
G1 X131.434 Y160.843 E0.01788
G1 X130.647 Y160.783 E0.02476
G1 X129.523 Y160.436 E0.03687
G1 X128.549 Y159.813 E0.03628
G1 X110.112 Y140.841 E0.82946
G1 X109.702 Y140.345 E0.02018
G1 X109.271 Y139.594 E0.02714
G1 X108.948 Y138.518 E0.03522
G1 X108.912 Y137.369 E0.03604
G1 X109.249 Y136.075 E0.04193
G1 X109.818 Y135.112 E0.03509
G1 X116.624 Y128.457 E0.29844
G1 X117.351 Y128.027 E0.02649
G1 X118.183 Y127.879 E0.02649
G1 X119.029 Y128.048 E0.02707
G1 E-2.00000 F2400.000
G1 X120.318 Y125.995 F10800.000
G1 E2.00000 F2400.000
G1 F1200.000
G1 X118.732 Y125.547 E0.05166
G1 X117.156 Y125.590 E0.04945
G1 X116.215 Y125.909 E0.03116
G1 X115.378 Y126.425 E0.03080
G1 X108.540 Y133.039 E0.29828
G1 X107.981 Y133.669 E0.02643
G1 X107.494 Y134.379 E0.02700
G1 X107.106 Y135.136 E0.02666
G1 X106.891 Y135.704 E0.01903
G1 X106.724 Y136.301 E0.01947
G1 X106.593 Y137.075 E0.02459
G1 X106.555 Y137.955 E0.02763
G1 X106.630 Y138.821 E0.02723
G1 X106.824 Y139.694 E0.02803
G1 X107.123 Y140.513 E0.02736
G1 X107.432 Y141.128 E0.02156
G1 X107.803 Y141.709 E0.02162
G1 X108.391 Y142.424 E0.02903
G1 X126.639 Y161.230 E0.82162
G1 X127.079 Y161.631 E0.01865
G1 X127.800 Y162.153 E0.02792
G1 X128.570 Y162.569 E0.02744
G1 X129.415 Y162.890 E0.02836
G1 X130.282 Y163.093 E0.02792
G1 X131.064 Y163.175 E0.02463
G1 X131.684 Y163.174 E0.01947
G1 X132.294 Y163.119 E0.01920
G1 X133.200 Y162.927 E0.02904
G1 X134.090 Y162.606 E0.02964
G1 X134.709 Y162.293 E0.02175
G1 X135.272 Y161.932 E0.02098
G1 X135.989 Y161.341 E0.02914
G1 X142.973 Y154.500 E0.30653
G1 X143.507 Y153.549 E0.03419
G1 X143.722 Y152.842 E0.02318
G1 X143.826 Y152.107 E0.02327
G1 X143.626 Y150.512 E0.05041
G1 X143.341 Y149.671 E0.02784
G1 X142.670 Y148.656 E0.03814
G1 X141.778 Y147.881 E0.03706
G1 X139.187 Y146.670 E0.08966
G1 X138.358 Y146.252 E0.02912
G1 X137.152 Y145.588 E0.04315
G1 E-2.00000 F2400.000
G1 X134.373 Y143.806 F10800.000
G1 E2.00000 F2400.000
G1 F1200.000
G1 X133.639 Y143.267 E0.02857
G1 X132.903 Y142.695 E0.02921
G1 X132.198 Y142.113 E0.02867
G1 X131.482 Y141.489 E0.02978
G1 X130.797 Y140.858 E0.02918
G1 X130.130 Y140.208 E0.02921
G1 X129.482 Y139.539 E0.02921
G1 X128.852 Y138.853 E0.02921
G1 X128.241 Y138.149 E0.02921
G1 X127.651 Y137.429 E0.02921
G1 X127.080 Y136.692 E0.02921
G1 X126.530 Y135.940 E0.02921
G1 X126.014 Y135.190 E0.02854
G1 E-2.00000 F2400.000
G1 X124.317 Y132.359 F10800.000
G1 E2.00000 F2400.000
G1 F1200.000
G1 X123.689 Y131.133 E0.04319
G1 X123.296 Y130.289 E0.02920
G1 X122.038 Y127.455 E0.09722
M73 Q2 S19
G1 X121.483 Y126.813 E0.02659
G1 X120.922 Y126.352 E0.02276
G1 X120.318 Y125.995 E0.02201
G1 X118.659 Y125.918 F10800.000
G1 F1200.000
G1 X117.248 Y125.957 E0.04424
G1 X116.393 Y126.242 E0.02825
G1 X115.593 Y126.735 E0.02946
G1 X108.808 Y133.305 E0.29615
M73 P2 R19
G1 X108.285 Y133.893 E0.02468
G1 X107.824 Y134.563 E0.02550
G1 X107.455 Y135.280 E0.02529
G1 X107.247 Y135.829 E0.01842
G1 X107.090 Y136.393 E0.01835
G1 X106.967 Y137.125 E0.02329
G1 X106.932 Y137.958 E0.02614
G1 X107.004 Y138.775 E0.02570
G1 X107.189 Y139.599 E0.02648
G1 X107.473 Y140.373 E0.02585
G1 X107.764 Y140.949 E0.02023
G1 X108.114 Y141.496 E0.02037
G1 X108.667 Y142.166 E0.02725
G1 X126.905 Y160.963 E0.82120
G1 X127.325 Y161.345 E0.01777
G1 X127.991 Y161.828 E0.02579
G1 X128.716 Y162.221 E0.02589
G1 X129.514 Y162.526 E0.02678
G1 X130.334 Y162.720 E0.02641
G1 X131.074 Y162.798 E0.02332
G1 X131.659 Y162.798 E0.01835
G1 X132.249 Y162.744 E0.01857
G1 X133.109 Y162.561 E0.02758
G1 X133.950 Y162.256 E0.02805
G1 X134.529 Y161.961 E0.02038
G1 X135.059 Y161.621 E0.01974
G1 X135.731 Y161.066 E0.02734
G1 X142.658 Y154.290 E0.30382
G1 X143.152 Y153.419 E0.03140
G1 X143.357 Y152.747 E0.02204
G1 X143.449 Y152.081 E0.02106
G1 X143.255 Y150.580 E0.04747
G1 X142.993 Y149.817 E0.02528
G1 X142.372 Y148.888 E0.03505
G1 X141.552 Y148.185 E0.03385
G1 X139.023 Y147.010 E0.08744
G1 X138.053 Y146.516 E0.03414
G1 E-2.00000 F2400.000
G1 X135.648 Y145.120 F10800.000
G1 E2.00000 F2400.000
G1 F1200.000
G1 X134.170 Y144.126 E0.05585
G1 X133.411 Y143.568 E0.02954
G1 X132.668 Y142.989 E0.02954
G1 X131.954 Y142.401 E0.02899
G1 X131.230 Y141.770 E0.03011
G1 X130.538 Y141.132 E0.02951
G1 X129.863 Y140.474 E0.02954
G1 X129.207 Y139.798 E0.02954
G1 X128.570 Y139.104 E0.02954
G1 X127.953 Y138.392 E0.02954
G1 X127.356 Y137.664 E0.02954
G1 X126.779 Y136.919 E0.02954
G1 X126.223 Y136.158 E0.02954
G1 X125.688 Y135.382 E0.02954
G1 X124.739 Y133.876 E0.05582
G1 E-2.00000 F2400.000
G1 X123.417 Y131.431 F10800.000
G1 E2.00000 F2400.000
G1 F1200.000
G1 X122.952 Y130.444 E0.03420
G1 X121.734 Y127.679 E0.09475
G1 X121.230 Y127.093 E0.02421
G1 X120.717 Y126.669 E0.02087
G1 X120.148 Y126.332 E0.02075
G1 X118.659 Y125.918 E0.04845
G1 X119.978 Y126.670 F10800.000
G1 F1200.000
G1 X118.587 Y126.289 E0.04523
G1 X117.341 Y126.323 E0.03906
G1 X116.534 Y126.592 E0.02667
G1 X115.810 Y127.044 E0.02675
G1 X109.075 Y133.571 E0.29408
G1 X108.588 Y134.117 E0.02294
G1 X108.153 Y134.746 E0.02400
G1 X107.804 Y135.424 E0.02392
G1 X107.608 Y135.939 E0.01727
G1 X107.456 Y136.484 E0.01775
G1 X107.341 Y137.175 E0.02196
G1 X107.309 Y137.961 E0.02465
G1 X107.379 Y138.728 E0.02415
G1 X107.554 Y139.503 E0.02492
G1 X107.823 Y140.232 E0.02434
G1 X108.096 Y140.769 E0.01891
G1 X108.425 Y141.283 E0.01912
G1 X108.943 Y141.909 E0.02549
G1 X127.172 Y160.697 E0.82078
G1 X127.570 Y161.059 E0.01688
G1 X128.201 Y161.515 E0.02441
G1 X128.863 Y161.874 E0.02361
G1 X129.614 Y162.163 E0.02522
G1 X130.386 Y162.346 E0.02490
G1 X131.084 Y162.421 E0.02200
G1 X131.650 Y162.421 E0.01775
G1 X132.203 Y162.370 E0.01740
G1 X133.017 Y162.195 E0.02611
G1 X133.809 Y161.906 E0.02645
G1 X134.349 Y161.630 E0.01900
G1 X134.845 Y161.310 E0.01851
G1 X135.474 Y160.791 E0.02556
G1 X142.344 Y154.080 E0.30114
G1 X142.798 Y153.287 E0.02864
G1 X142.986 Y152.680 E0.01993
G1 X143.072 Y152.055 E0.01976
G1 X142.884 Y150.649 E0.04447
G1 X142.646 Y149.965 E0.02272
G1 X142.075 Y149.121 E0.03194
G1 X141.329 Y148.489 E0.03065
G1 X138.862 Y147.351 E0.08518
G1 E-2.00000 F2400.000
G1 X136.685 Y146.189 F10800.000
G1 E2.00000 F2400.000
G1 F1200.000
G1 X135.534 Y145.496 E0.04213
G1 X134.735 Y144.975 E0.02990
G1 X133.951 Y144.433 E0.02989
G1 X133.184 Y143.869 E0.02987
G1 X132.432 Y143.283 E0.02987
G1 X131.710 Y142.689 E0.02932
G1 X130.978 Y142.051 E0.03044
G1 X130.278 Y141.406 E0.02984
G1 X129.596 Y140.741 E0.02987
G1 X128.933 Y140.057 E0.02987
G1 X128.289 Y139.355 E0.02987
G1 X127.665 Y138.635 E0.02987
G1 X127.061 Y137.899 E0.02987
G1 X126.477 Y137.146 E0.02987
G1 X125.915 Y136.377 E0.02987
G1 X125.375 Y135.592 E0.02987
G1 X124.855 Y134.791 E0.02993
G1 X124.360 Y133.978 E0.02986
G1 X123.702 Y132.807 E0.04211
G1 E-2.00000 F2400.000
G1 X122.607 Y130.596 F10800.000
G1 E2.00000 F2400.000
G1 F1200.000
G1 X121.429 Y127.902 E0.09221
G1 X120.977 Y127.372 E0.02184
G1 X120.512 Y126.986 E0.01894
G1 X119.978 Y126.670 E0.01946
G1 X118.516 Y126.660 F10800.000
M73 Q3 S19
G1 F1200.000
G1 X117.434 Y126.690 E0.03393
G1 X116.676 Y126.943 E0.02506
G1 X116.029 Y127.352 E0.02399
G1 X109.342 Y133.837 E0.29206
M73 P3 R19
G1 X108.891 Y134.341 E0.02122
G1 X108.482 Y134.931 E0.02249
G1 X108.152 Y135.569 E0.02253
G1 X107.963 Y136.065 E0.01665
G1 X107.822 Y136.575 E0.01660
G1 X107.715 Y137.225 E0.02064
G1 X107.687 Y137.962 E0.02315
G1 X107.753 Y138.681 E0.02261
G1 X107.919 Y139.407 E0.02336
G1 X108.172 Y140.090 E0.02283
G1 X108.427 Y140.589 E0.01759
G1 X108.736 Y141.069 E0.01788
G1 X109.219 Y141.652 E0.02373
G1 X127.438 Y160.430 E0.82036
G1 X127.816 Y160.773 E0.01599
G1 X128.393 Y161.190 E0.02231
G1 X129.011 Y161.527 E0.02208
G1 X129.714 Y161.799 E0.02364
G1 X130.439 Y161.972 E0.02338
G1 X131.095 Y162.044 E0.02067
G1 X131.624 Y162.045 E0.01660
G1 X132.156 Y161.995 E0.01675
G1 X132.924 Y161.830 E0.02462
G1 X133.668 Y161.556 E0.02485
G1 X134.168 Y161.299 E0.01763
G1 X134.631 Y161.000 E0.01729
G1 X135.216 Y160.516 E0.02380
G1 X142.031 Y153.868 E0.29851
G1 X142.445 Y153.154 E0.02587
G1 X142.614 Y152.612 E0.01779
G1 X142.695 Y152.030 E0.01843
G1 X142.513 Y150.721 E0.04143
G1 X142.299 Y150.115 E0.02015
G1 X141.779 Y149.357 E0.02883
G1 X141.107 Y148.795 E0.02746
G1 X139.588 Y148.098 E0.05241
G1 E-2.00000 F2400.000
G1 X137.592 Y147.125 F10800.000
G1 E2.00000 F2400.000
G1 F1200.000
G1 X136.153 Y146.318 E0.05174
G1 X135.332 Y145.815 E0.03019
G1 X134.525 Y145.288 E0.03023
G1 X133.732 Y144.740 E0.03022
G1 X132.956 Y144.169 E0.03020
G1 X132.196 Y143.578 E0.03020
G1 X131.466 Y142.976 E0.02965
G1 X130.727 Y142.332 E0.03077
G1 X130.019 Y141.679 E0.03018
G1 X129.329 Y141.007 E0.03020
G1 X128.659 Y140.316 E0.03020
G1 X128.008 Y139.606 E0.03020
G1 X127.376 Y138.879 E0.03020
G1 X126.766 Y138.134 E0.03020
G1 X126.176 Y137.372 E0.03020
G1 X125.608 Y136.595 E0.03020
G1 X125.061 Y135.802 E0.03020
G1 X124.536 Y134.992 E0.03026
G1 X124.035 Y134.170 E0.03019
G1 X123.557 Y133.334 E0.03019
G1 X122.794 Y131.872 E0.05171
G1 E-2.00000 F2400.000
G1 X121.863 Y129.829 F10800.000
G1 E2.00000 F2400.000
G1 F1200.000
G1 X121.123 Y128.124 E0.05830
G1 X120.722 Y127.651 E0.01942
G1 X120.283 Y127.286 E0.01791
G1 X119.810 Y127.008 E0.01721
G1 X118.516 Y126.660 E0.04202
G1 X119.642 Y127.347 F10800.000
G1 F1200.000
G1 X118.446 Y127.032 E0.03877
G1 X117.524 Y127.057 E0.02891
G1 X116.855 Y127.275 E0.02207
G1 X116.277 Y127.637 E0.02138
G1 X109.609 Y134.103 E0.29122
G1 X109.194 Y134.567 E0.01952
G1 X108.811 Y135.116 E0.02099
G1 X108.500 Y135.714 E0.02114
G1 X108.324 Y136.175 E0.01546
G1 X108.188 Y136.666 E0.01599
G1 X108.089 Y137.273 E0.01930
G1 X108.064 Y137.963 E0.02165
G1 X108.127 Y138.632 E0.02107
G1 X108.283 Y139.310 E0.02181
G1 X108.522 Y139.947 E0.02132
G1 X108.758 Y140.409 E0.01627
G1 X109.046 Y140.855 E0.01664
G1 X109.494 Y141.394 E0.02200
G1 X127.705 Y160.163 E0.81994
G1 X128.062 Y160.486 E0.01510
G1 X128.585 Y160.865 E0.02024
G1 X129.160 Y161.180 E0.02056
G1 X129.815 Y161.435 E0.02207
G1 X130.493 Y161.599 E0.02186
G1 X131.106 Y161.667 E0.01933
G1 X131.616 Y161.668 E0.01599
G1 X132.109 Y161.621 E0.01555
G1 X132.830 Y161.464 E0.02314
G1 X133.525 Y161.207 E0.02324
G1 X133.986 Y160.968 E0.01626
G1 X134.417 Y160.689 E0.01608
G1 X134.958 Y160.240 E0.02206
G1 X141.719 Y153.655 E0.29594
G1 X142.092 Y153.020 E0.02306
G1 X142.249 Y152.515 E0.01659
G1 X142.317 Y152.007 E0.01610
G1 X142.143 Y150.795 E0.03839
G1 X141.953 Y150.267 E0.01757
G1 X141.485 Y149.594 E0.02570
G1 X140.887 Y149.102 E0.02427
G1 X140.304 Y148.837 E0.02010
G1 E-2.00000 F2400.000
G1 X138.410 Y147.967 F10800.000
G1 E2.00000 F2400.000
G1 F1200.000
G1 X137.661 Y147.590 E0.02630
G1 X136.806 Y147.129 E0.03043
G1 X135.960 Y146.642 E0.03061
G1 X135.131 Y146.134 E0.03052
G1 X134.314 Y145.601 E0.03056
G1 X133.513 Y145.047 E0.03055
G1 X132.729 Y144.470 E0.03053
G1 X131.960 Y143.872 E0.03053
G1 X131.223 Y143.264 E0.02997
G1 X130.475 Y142.613 E0.03110
G1 X129.760 Y141.953 E0.03051
G1 X129.062 Y141.273 E0.03053
G1 X128.384 Y140.575 E0.03053
G1 X127.726 Y139.857 E0.03053
G1 X127.088 Y139.122 E0.03053
G1 X126.471 Y138.369 E0.03053
G1 X125.875 Y137.599 E0.03053
G1 X125.300 Y136.813 E0.03053
G1 X124.748 Y136.011 E0.03053
G1 X124.217 Y135.193 E0.03059
G1 X123.710 Y134.362 E0.03052
G1 X123.227 Y133.517 E0.03052
G1 X122.766 Y132.657 E0.03061
G1 X121.977 Y131.029 E0.05670
G1 E-2.00000 F2400.000
G1 X121.130 Y129.073 F10800.000
G1 E2.00000 F2400.000
G1 F1200.000
G1 X120.816 Y128.345 E0.02489
G1 X120.467 Y127.929 E0.01702
G1 X120.078 Y127.603 E0.01590
G1 X119.642 Y127.347 E0.01588
G1 E-2.00000 F2400.000
G1 X139.159 Y148.740 F10800.000
G1 E2.00000 F2400.000
G1 F1200.000
G1 X138.367 Y148.368 E0.02742
G1 X137.486 Y147.924 E0.03093
G1 X136.623 Y147.459 E0.03076
G1 X135.768 Y146.967 E0.03093
G1 X134.929 Y146.452 E0.03085
G1 X134.104 Y145.914 E0.03089
M73 Q4 S19
G1 X133.294 Y145.354 E0.03087
G1 X132.501 Y144.771 E0.03086
G1 X131.725 Y144.166 E0.03086
G1 X130.979 Y143.552 E0.03030
G1 X130.223 Y142.893 E0.03143
G1 X129.500 Y142.227 E0.03084
G1 X128.795 Y141.540 E0.03086
G1 X128.110 Y140.833 E0.03086
G1 X127.445 Y140.108 E0.03086
G1 X126.800 Y139.365 E0.03086
M73 P4 R19
G1 X126.176 Y138.604 E0.03086
G1 X125.573 Y137.826 E0.03086
G1 X124.993 Y137.031 E0.03086
G1 X124.434 Y136.221 E0.03086
G1 X123.898 Y135.394 E0.03091
G1 X123.386 Y134.554 E0.03085
G1 X122.897 Y133.700 E0.03085
G1 X122.431 Y132.830 E0.03093
G1 X121.992 Y131.953 E0.03076
G1 X121.576 Y131.061 E0.03085
G1 X121.235 Y130.265 E0.02716
G1 E-2.00000 F2400.000
G1 X139.859 Y149.462 F10800.000
G1 E2.00000 F2400.000
G1 F1200.000
G1 X138.202 Y148.707 E0.05708
G1 X137.312 Y148.259 E0.03126
G1 X136.439 Y147.788 E0.03109
G1 X135.575 Y147.291 E0.03126
G1 X134.727 Y146.771 E0.03118
G1 X133.893 Y146.227 E0.03122
G1 X133.075 Y145.660 E0.03120
G1 X132.274 Y145.072 E0.03118
G1 X131.489 Y144.461 E0.03119
G1 X130.735 Y143.840 E0.03063
G1 X129.971 Y143.174 E0.03176
G1 X129.241 Y142.500 E0.03117
G1 X128.528 Y141.806 E0.03118
M73 P4 R18
G1 X127.836 Y141.092 E0.03119
G1 X127.163 Y140.359 E0.03118
G1 X126.512 Y139.608 E0.03118
G1 X125.881 Y138.839 E0.03118
G1 X125.272 Y138.053 E0.03118
G1 X124.685 Y137.250 E0.03118
M73 Q4 S18
G1 X124.121 Y136.431 E0.03118
