; generated by PrusaSlicer 2.3.1+x64 on 2021-08-02 at 12:47:03 UTC

; 

; external perimeters extrusion width = 0.45mm
; perimeters extrusion width = 0.45mm
; infill extrusion width = 0.45mm
; solid infill extrusion width = 0.45mm
; top infill extrusion width = 0.40mm
; first layer extrusion width = 0.42mm

M73 P0 R17
M73 Q0 S17
M201 X1000 Y1000 Z200 E5000 ; sets maximum accelerations, mm/sec^2
M203 X200 Y200 Z12 E120 ; sets maximum feedrates, mm/sec
M204 P1250 R1250 T1250 ; sets acceleration (P, T) and retract acceleration (R), mm/sec^2
M205 X8.00 Y8.00 Z0.40 E4.50 ; sets the jerk limits, mm/sec
M205 S0 T0 ; sets the minimum extruding and travel feed rate, mm/sec
M107
;TYPE:Custom
M862.3 P "MK3S" ; printer model check
M862.1 P0.4 ; nozzle diameter check
M115 U3.10.0 ; tell printer latest fw version
G90 ; use absolute coordinates
M83 ; extruder relative mode
M104 S260 ; set extruder temp
M140 S50 ; set bed temp
M190 S50 ; wait for bed temp
M109 S260 ; wait for extruder temp
G28 W ; home all without mesh bed level
G80 ; mesh bed leveling
G1 Y-3.0 F1000.0 ; go outside print area
G92 E0.0
G1 X60.0 E9.0 F1000.0 ; intro line
G1 X100.0 E12.5 F1000.0 ; intro line
G92 E0.0
M221 S95

; Don't change E values below. Excessive value can damage the printer.
M907 E430 ; set extruder motor current
G21 ; set units to millimeters
G90 ; use absolute coordinates
M83 ; use relative distances for extrusion
M900 K0
;LAYER_CHANGE
;Z:0.2
;HEIGHT:0.2
;BEFORE_LAYER_CHANGE
G92 E0.0
;0.2


G1 Z0.200 F10800.000
;AFTER_LAYER_CHANGE
;0.2
G1 X94.781 Y80.247
M204 S1000
;TYPE:Skirt
;WIDTH:0.42
G1 F900.000
G1 X96.220 Y78.587 E0.07923
G1 X97.751 Y77.012 E0.07920
G1 X100.298 Y74.740 E0.12308
G1 X102.039 Y73.398 E0.07923
G1 X103.852 Y72.158 E0.07920
G1 X106.770 Y70.453 E0.12187
G1 X109.824 Y69.007 E0.12185
G1 X111.872 Y68.210 E0.07923
G1 X113.961 Y67.531 E0.07920
G1 X117.241 Y66.716 E0.12187
G1 X119.439 Y66.336 E0.08044
G1 X121.622 Y66.085 E0.07920
G1 X125.002 Y65.939 E0.12201
G1 X127.228 Y66.002 E0.08030
G1 X129.417 Y66.190 E0.07920
G1 X132.756 Y66.717 E0.12187
G1 X134.929 Y67.222 E0.08044
G1 X137.036 Y67.840 E0.07920
G1 X140.204 Y69.020 E0.12187
M73 Q1 S17
G1 X142.233 Y69.946 E0.08044
M73 P1 R17
G1 X144.176 Y70.971 E0.07920
G1 X147.046 Y72.756 E0.12187
G1 X149.751 Y74.783 E0.12185
G1 X151.411 Y76.222 E0.07923
G1 X152.987 Y77.752 E0.07920
G1 X155.245 Y80.283 E0.12229
G1 X157.433 Y83.239 E0.13260
G1 X158.452 Y84.836 E0.06833
G1 X159.535 Y86.751 E0.07934
G1 X160.992 Y89.826 E0.12267
G1 X161.788 Y91.874 E0.07923
G1 X162.468 Y93.963 E0.07920
G1 X163.282 Y97.243 E0.12187
G1 X163.662 Y99.441 E0.08044
G1 X163.913 Y101.624 E0.07920
G1 X164.060 Y105.000 E0.12187
G1 X163.996 Y107.230 E0.08044
G1 X163.809 Y109.419 E0.07920
G1 X163.282 Y112.758 E0.12187
G1 X162.776 Y114.930 E0.08044
G1 X162.158 Y117.038 E0.07920
G1 X160.978 Y120.206 E0.12187
G1 X160.052 Y122.235 E0.08044
G1 X159.027 Y124.178 E0.07920
G1 X157.242 Y127.048 E0.12187
G1 X155.216 Y129.753 E0.12185
G1 X153.776 Y131.413 E0.07923
G1 X152.246 Y132.988 E0.07920
G1 X149.724 Y135.239 E0.12187
G1 X147.018 Y137.263 E0.12185
G1 X145.169 Y138.450 E0.07923
G1 X143.253 Y139.533 E0.07934
G1 X140.172 Y140.993 E0.12295
G1 X138.124 Y141.790 E0.07923
G1 X136.036 Y142.469 E0.07920
G1 X132.755 Y143.284 E0.12187
G1 X130.557 Y143.664 E0.08044
G1 X128.375 Y143.915 E0.07920
G1 X124.998 Y144.061 E0.12187
G1 X122.768 Y143.998 E0.08044
G1 X120.579 Y143.810 E0.07920
G1 X117.241 Y143.283 E0.12187
G1 X115.068 Y142.778 E0.08044
G1 X112.960 Y142.160 E0.07920
G1 X109.792 Y140.980 E0.12187
G1 X107.763 Y140.054 E0.08044
G1 X105.820 Y139.029 E0.07920
G1 X102.950 Y137.244 E0.12187
G1 X100.246 Y135.217 E0.12185
G1 X98.586 Y133.778 E0.07923
G1 X97.010 Y132.248 E0.07920
G1 X94.752 Y129.717 E0.12229
G1 X92.564 Y126.761 E0.13260
G1 X91.544 Y125.164 E0.06833
G1 X90.462 Y123.249 E0.07934
G1 X89.005 Y120.174 E0.12267
M73 Q2 S17
G1 X88.208 Y118.126 E0.07923
M73 P2 R17
G1 X87.529 Y116.037 E0.07920
G1 X86.715 Y112.757 E0.12187
G1 X86.334 Y110.559 E0.08044
G1 X86.083 Y108.376 E0.07920
G1 X85.937 Y105.000 E0.12187
G1 X86.000 Y102.770 E0.08044
G1 X86.188 Y100.581 E0.07920
G1 X86.715 Y97.242 E0.12187
G1 X87.220 Y95.070 E0.08044
G1 X87.838 Y92.962 E0.07920
G1 X89.018 Y89.794 E0.12187
G1 X89.945 Y87.765 E0.08044
G1 X90.969 Y85.822 E0.07920
G1 X92.754 Y82.952 E0.12187
G1 X94.745 Y80.296 E0.11969
; printing object Flood Dog v21 v1 Gasket.stl id:0 copy 0
G1 X97.516 Y82.526 F10800.000
;TYPE:External perimeter
G1 F900.000
G1 X98.608 Y81.259 E0.06031
G1 X99.539 Y80.259 E0.04928
G1 X100.256 Y79.541 E0.03659
G1 X100.993 Y78.845 E0.03656
G1 X101.750 Y78.170 E0.03656
G1 X102.526 Y77.517 E0.03656
G1 X103.320 Y76.887 E0.03656
G1 X104.131 Y76.279 E0.03656
G1 X104.960 Y75.695 E0.03656
G1 X105.805 Y75.135 E0.03656
G1 X106.665 Y74.599 E0.03656
G1 X107.541 Y74.088 E0.03656
G1 X108.431 Y73.602 E0.03656
G1 X109.334 Y73.141 E0.03656
G1 X110.250 Y72.707 E0.03656
G1 X111.179 Y72.299 E0.03656
G1 X112.118 Y71.918 E0.03656
G1 X113.069 Y71.563 E0.03660
G1 X114.658 Y71.041 E0.06031
G1 X115.972 Y70.665 E0.04929
G1 X116.957 Y70.422 E0.03659
G1 X117.948 Y70.206 E0.03656
G1 X118.944 Y70.019 E0.03656
G1 X119.946 Y69.860 E0.03656
G1 X120.951 Y69.730 E0.03656
G1 X121.960 Y69.629 E0.03656
G1 X122.973 Y69.557 E0.03660
G1 X124.644 Y69.504 E0.06031
G1 X126.011 Y69.513 E0.04929
G1 X127.025 Y69.557 E0.03659
G1 X128.036 Y69.629 E0.03656
G1 X129.045 Y69.730 E0.03656
G1 X130.050 Y69.860 E0.03656
G1 X131.052 Y70.019 E0.03656
G1 X132.048 Y70.206 E0.03656
G1 X133.040 Y70.422 E0.03660
G1 X134.659 Y70.842 E0.06031
G1 X135.968 Y71.236 E0.04929
G1 X136.928 Y71.564 E0.03659
G1 X137.878 Y71.918 E0.03656
G1 X138.818 Y72.299 E0.03656
G1 X139.746 Y72.707 E0.03656
G1 X140.662 Y73.141 E0.03656
G1 X141.565 Y73.602 E0.03656
G1 X142.455 Y74.088 E0.03656
G1 X143.331 Y74.599 E0.03656
G1 X144.191 Y75.135 E0.03656
G1 X145.037 Y75.695 E0.03656
G1 X145.865 Y76.279 E0.03656
G1 X146.677 Y76.887 E0.03656
G1 X147.471 Y77.517 E0.03656
G1 X148.246 Y78.170 E0.03656
G1 X149.003 Y78.845 E0.03656
G1 X149.740 Y79.541 E0.03656
G1 X150.457 Y80.258 E0.03656
G1 X151.153 Y80.995 E0.03656
G1 X151.828 Y81.752 E0.03656
G1 X152.481 Y82.527 E0.03656
G1 X153.112 Y83.321 E0.03656
G1 X153.719 Y84.133 E0.03656
G1 X154.303 Y84.962 E0.03656
G1 X154.864 Y85.807 E0.03656
G1 X155.399 Y86.667 E0.03656
G1 X155.911 Y87.543 E0.03656
G1 X156.396 Y88.433 E0.03656
G1 X156.857 Y89.336 E0.03656
G1 X157.291 Y90.252 E0.03656
G1 X157.699 Y91.180 E0.03656
G1 X158.080 Y92.120 E0.03656
G1 X158.435 Y93.070 E0.03656
G1 X158.762 Y94.030 E0.03656
G1 X159.061 Y94.999 E0.03658
G1 X159.414 Y96.304 E0.04875
G1 X159.792 Y97.949 E0.06085
G1 X159.979 Y98.946 E0.03660
G1 X160.138 Y99.948 E0.03656
G1 X160.268 Y100.953 E0.03656
G1 X160.369 Y101.962 E0.03656
G1 X160.441 Y102.973 E0.03656
G1 X160.485 Y103.986 E0.03656
G1 X160.499 Y105.000 E0.03656
G1 X160.485 Y106.014 E0.03656
G1 X160.441 Y107.027 E0.03656
G1 X160.369 Y108.038 E0.03656
G1 X160.268 Y109.048 E0.03660
G1 X160.035 Y110.704 E0.06031
G1 X159.792 Y112.051 E0.04933
G1 X159.414 Y113.696 E0.06087
G1 X159.061 Y115.001 E0.04875
G1 X158.762 Y115.970 E0.03658
G1 X158.435 Y116.930 E0.03656
G1 X158.080 Y117.880 E0.03656
G1 X157.699 Y118.820 E0.03656
G1 X157.291 Y119.748 E0.03656
G1 X156.857 Y120.664 E0.03656
G1 X156.396 Y121.567 E0.03656
G1 X155.911 Y122.457 E0.03656
G1 X155.399 Y123.333 E0.03656
G1 X154.864 Y124.193 E0.03656
G1 X154.303 Y125.039 E0.03660
G1 X153.315 Y126.407 E0.06085
M73 Q3 S17
G1 X152.482 Y127.472 E0.04875
G1 X151.828 Y128.248 E0.03658
M73 P3 R17
G1 X151.153 Y129.005 E0.03656
G1 X150.457 Y129.742 E0.03656
G1 X149.740 Y130.459 E0.03656
G1 X149.003 Y131.155 E0.03656
G1 X148.246 Y131.830 E0.03656
G1 X147.471 Y132.483 E0.03656
G1 X146.677 Y133.113 E0.03656
G1 X145.865 Y133.721 E0.03656
G1 X145.037 Y134.305 E0.03656
G1 X144.192 Y134.865 E0.03656
G1 X143.331 Y135.401 E0.03656
G1 X142.455 Y135.912 E0.03656
G1 X141.565 Y136.398 E0.03656
G1 X140.662 Y136.859 E0.03656
G1 X139.746 Y137.293 E0.03656
G1 X138.818 Y137.701 E0.03656
G1 X137.878 Y138.082 E0.03656
G1 X136.928 Y138.436 E0.03656
G1 X135.969 Y138.764 E0.03656
G1 X134.999 Y139.063 E0.03660
G1 X133.383 Y139.493 E0.06031
G1 X132.049 Y139.794 E0.04929
G1 X131.052 Y139.981 E0.03659
G1 X130.050 Y140.140 E0.03656
G1 X129.045 Y140.270 E0.03656
G1 X128.036 Y140.371 E0.03656
G1 X127.025 Y140.443 E0.03656
G1 X126.012 Y140.487 E0.03656
G1 X124.997 Y140.501 E0.03660
G1 X123.325 Y140.458 E0.06031
G1 X121.961 Y140.371 E0.04928
G1 X120.951 Y140.270 E0.03659
G1 X119.946 Y140.140 E0.03656
G1 X118.944 Y139.981 E0.03656
G1 X117.948 Y139.794 E0.03656
G1 X116.957 Y139.578 E0.03656
G1 X115.973 Y139.335 E0.03656
G1 X114.996 Y139.063 E0.03656
G1 X114.028 Y138.764 E0.03656
G1 X113.068 Y138.436 E0.03656
G1 X112.118 Y138.082 E0.03656
G1 X111.178 Y137.701 E0.03658
G1 X109.944 Y137.148 E0.04875
G1 X108.432 Y136.399 E0.06085
G1 X107.541 Y135.912 E0.03660
G1 X106.665 Y135.401 E0.03656
G1 X105.805 Y134.865 E0.03656
G1 X104.959 Y134.305 E0.03658
G1 X103.860 Y133.518 E0.04875
G1 X102.526 Y132.484 E0.06085
G1 X101.750 Y131.830 E0.03660
G1 X100.992 Y131.154 E0.03660
G1 X99.789 Y129.992 E0.06031
G1 X98.844 Y129.006 E0.04929
G1 X98.168 Y128.248 E0.03659
G1 X97.515 Y127.473 E0.03656
G1 X96.885 Y126.679 E0.03656
G1 X96.277 Y125.867 E0.03656
G1 X95.693 Y125.038 E0.03656
G1 X95.133 Y124.193 E0.03656
G1 X94.597 Y123.333 E0.03656
G1 X94.086 Y122.457 E0.03656
G1 X93.600 Y121.567 E0.03656
G1 X93.140 Y120.664 E0.03656
G1 X92.705 Y119.748 E0.03656
G1 X92.297 Y118.820 E0.03656
G1 X91.916 Y117.880 E0.03656
G1 X91.562 Y116.930 E0.03656
G1 X91.235 Y115.970 E0.03656
G1 X90.935 Y115.002 E0.03656
G1 X90.663 Y114.025 E0.03656
G1 X90.420 Y113.041 E0.03656
G1 X90.204 Y112.050 E0.03656
G1 X90.017 Y111.054 E0.03656
G1 X89.858 Y110.052 E0.03656
G1 X89.728 Y109.047 E0.03656
G1 X89.627 Y108.038 E0.03656
G1 X89.555 Y107.027 E0.03656
G1 X89.512 Y106.014 E0.03656
G1 X89.497 Y105.000 E0.03656
G1 X89.512 Y103.986 E0.03656
G1 X89.555 Y102.973 E0.03656
G1 X89.627 Y101.962 E0.03656
G1 X89.728 Y100.953 E0.03656
G1 X89.859 Y99.947 E0.03658
M73 P3 R16
G1 X90.080 Y98.613 E0.04875
G1 X90.419 Y96.960 E0.06085
G1 X90.663 Y95.975 E0.03660
G1 X90.935 Y94.997 E0.03658
G1 X91.344 Y93.709 E0.04875
G1 X91.916 Y92.121 E0.06085
G1 X92.297 Y91.180 E0.03660
G1 X92.705 Y90.252 E0.03656
G1 X93.140 Y89.336 E0.03656
G1 X93.600 Y88.433 E0.03656
G1 X94.086 Y87.543 E0.03656
G1 X94.597 Y86.667 E0.03656
G1 X95.133 Y85.807 E0.03656
G1 X95.693 Y84.962 E0.03656
G1 X96.277 Y84.133 E0.03656
G1 X96.885 Y83.321 E0.03656
G1 X97.479 Y82.573 E0.03444
G1 X97.377 Y82.151 F10800.000
G1 X97.195 Y82.343
G1 F900.000
G1 X97.664 Y81.765 E0.02682
M73 Q3 S16
G1 X98.566 Y80.740 E0.04925
G1 X99.269 Y79.995 E0.03692
G1 X99.993 Y79.271 E0.03695
G1 X100.738 Y78.567 E0.03695
G1 X101.502 Y77.886 E0.03690
G1 X102.823 Y76.800 E0.06165
G1 X103.910 Y75.974 E0.04925
G1 X104.747 Y75.384 E0.03692
G1 X105.601 Y74.817 E0.03695
G1 X106.471 Y74.276 E0.03695
G1 X107.355 Y73.760 E0.03690
G1 X108.864 Y72.958 E0.06165
G1 X110.095 Y72.364 E0.04925
G1 X111.032 Y71.952 E0.03692
G1 X111.981 Y71.566 E0.03695
G1 X112.941 Y71.208 E0.03695
G1 X113.910 Y70.878 E0.03690
G1 X115.549 Y70.392 E0.06165
G1 X116.873 Y70.054 E0.04925
G1 X117.873 Y69.836 E0.03692
G1 X118.879 Y69.647 E0.03692
G1 X120.230 Y69.443 E0.04925
G1 X121.929 Y69.253 E0.06165
G1 X122.950 Y69.180 E0.03690
G1 X123.973 Y69.136 E0.03691
G1 X125.443 Y69.128 E0.05303
G1 X127.047 Y69.180 E0.05787
G1 X128.068 Y69.253 E0.03691
G1 X129.087 Y69.356 E0.03691
G1 X130.544 Y69.557 E0.05303
G1 X132.124 Y69.837 E0.05787
G1 X133.124 Y70.054 E0.03691
M73 Q4 S16
G1 X134.119 Y70.301 E0.03695
G1 X135.106 Y70.575 E0.03695
G1 X135.958 Y70.839 E0.03216
M73 P4 R16
G1 X137.055 Y71.208 E0.04175
G1 X138.015 Y71.566 E0.03693
G1 X138.964 Y71.952 E0.03695
G1 X139.903 Y72.364 E0.03695
G1 X140.828 Y72.803 E0.03691
G1 X142.132 Y73.482 E0.05303
G1 X143.526 Y74.276 E0.05787
G1 X144.395 Y74.817 E0.03691
G1 X145.249 Y75.384 E0.03695
G1 X146.087 Y75.974 E0.03695
G1 X146.906 Y76.587 E0.03690
G1 X148.233 Y77.666 E0.06165
G1 X149.259 Y78.568 E0.04925
G1 X150.003 Y79.271 E0.03692
G1 X150.728 Y79.995 E0.03695
G1 X151.431 Y80.740 E0.03695
G1 X152.112 Y81.504 E0.03690
G1 X153.198 Y82.824 E0.06165
G1 X154.025 Y83.912 E0.04925
G1 X154.615 Y84.749 E0.03692
G1 X155.180 Y85.602 E0.03690
G1 X156.067 Y87.063 E0.06165
G1 X156.730 Y88.257 E0.04925
G1 X157.195 Y89.170 E0.03692
G1 X157.634 Y90.095 E0.03692
G1 X158.174 Y91.349 E0.04925
G1 X158.790 Y92.944 E0.06165
G1 X159.120 Y93.913 E0.03690
G1 X159.423 Y94.891 E0.03690
G1 X159.862 Y96.543 E0.06165
G1 X160.162 Y97.876 E0.04925
G1 X160.351 Y98.882 E0.03692
G1 X160.511 Y99.893 E0.03690
G1 X160.711 Y101.591 E0.06165
G1 X160.818 Y102.953 E0.04925
G1 X160.862 Y103.975 E0.03692
G1 X160.876 Y105.000 E0.03695
G1 X160.862 Y106.025 E0.03695
G1 X160.818 Y107.047 E0.03692
G1 X160.711 Y108.409 E0.04925
G1 X160.511 Y110.107 E0.06165
G1 X160.351 Y111.118 E0.03690
G1 X160.162 Y112.125 E0.03695
G1 X159.944 Y113.126 E0.03695
G1 X159.698 Y114.120 E0.03692
G1 X159.322 Y115.433 E0.04925
G1 X158.789 Y117.058 E0.06165
G1 X158.432 Y118.017 E0.03690
G1 X158.046 Y118.966 E0.03695
G1 X157.634 Y119.904 E0.03695
G1 X157.196 Y120.829 E0.03690
G1 X156.402 Y122.344 E0.06165
G1 X155.722 Y123.528 E0.04925
G1 X155.181 Y124.397 E0.03692
G1 X154.615 Y125.251 E0.03692
G1 X153.820 Y126.361 E0.04925
G1 X152.772 Y127.712 E0.06165
G1 X152.113 Y128.495 E0.03690
G1 X151.432 Y129.259 E0.03692
G1 X150.487 Y130.246 E0.04925
G1 X149.257 Y131.434 E0.06165
G1 X148.493 Y132.115 E0.03690
G1 X147.710 Y132.774 E0.03690
G1 X146.359 Y133.822 E0.06165
G1 X145.249 Y134.617 E0.04925
G1 X144.395 Y135.183 E0.03692
G1 X143.527 Y135.724 E0.03690
G1 X142.040 Y136.569 E0.06165
G1 X140.828 Y137.197 E0.04925
G1 X139.903 Y137.636 E0.03692
G1 X138.964 Y138.048 E0.03695
G1 X138.015 Y138.434 E0.03695
G1 X137.056 Y138.791 E0.03690
G1 X135.432 Y139.324 E0.06165
G1 X134.118 Y139.700 E0.04925
G1 X133.124 Y139.946 E0.03692
G1 X132.123 Y140.164 E0.03695
G1 X131.116 Y140.353 E0.03695
G1 X130.105 Y140.513 E0.03690
G1 X128.407 Y140.713 E0.06165
G1 X127.046 Y140.820 E0.04925
G1 X126.023 Y140.864 E0.03692
G1 X124.998 Y140.878 E0.03695
G1 X123.974 Y140.864 E0.03695
G1 X122.951 Y140.820 E0.03692
G1 X121.589 Y140.713 E0.04925
G1 X119.891 Y140.513 E0.06165
G1 X118.880 Y140.353 E0.03690
G1 X117.873 Y140.164 E0.03695
G1 X116.872 Y139.946 E0.03695
G1 X115.878 Y139.700 E0.03692
G1 X114.565 Y139.324 E0.04925
G1 X112.940 Y138.791 E0.06165
G1 X111.981 Y138.434 E0.03690
G1 X111.032 Y138.048 E0.03695
G1 X110.094 Y137.636 E0.03695
G1 X109.169 Y137.198 E0.03690
G1 X107.655 Y136.404 E0.06165
G1 X106.470 Y135.724 E0.04925
G1 X105.601 Y135.183 E0.03692
G1 X104.748 Y134.617 E0.03692
G1 X103.637 Y133.822 E0.04925
G1 X102.286 Y132.774 E0.06165
G1 X101.503 Y132.115 E0.03690
G1 X100.739 Y131.433 E0.03692
G1 X99.752 Y130.489 E0.04925
G1 X98.564 Y129.259 E0.06165
G1 X97.883 Y128.495 E0.03690
G1 X97.224 Y127.712 E0.03690
G1 X96.176 Y126.361 E0.06165
G1 X95.381 Y125.251 E0.04925
G1 X94.816 Y124.397 E0.03692
G1 X94.274 Y123.527 E0.03695
G1 X93.757 Y122.642 E0.03695
G1 X93.330 Y121.860 E0.03216
G1 X92.801 Y120.830 E0.04175
G1 X92.362 Y119.904 E0.03693
G1 X91.950 Y118.966 E0.03695
G1 X91.565 Y118.017 E0.03695
G1 X91.207 Y117.058 E0.03692
G1 X90.775 Y115.762 E0.04925
G1 X90.298 Y114.120 E0.06165
G1 X90.052 Y113.126 E0.03690
G1 X89.835 Y112.125 E0.03695
M73 Q5 S16
G1 X89.645 Y111.118 E0.03695
G1 X89.485 Y110.107 E0.03690
G1 X89.286 Y108.409 E0.06165
M73 P5 R16
G1 X89.178 Y107.047 E0.04925
G1 X89.135 Y106.025 E0.03692
G1 X89.120 Y105.000 E0.03695
G1 X89.135 Y103.975 E0.03695
G1 X89.178 Y102.953 E0.03692
G1 X89.286 Y101.591 E0.04925
G1 X89.485 Y99.893 E0.06165
G1 X89.645 Y98.882 E0.03690
G1 X89.835 Y97.875 E0.03695
G1 X90.052 Y96.874 E0.03695
G1 X90.298 Y95.880 E0.03690
G1 X90.775 Y94.238 E0.06165
G1 X91.207 Y92.942 E0.04925
G1 X91.565 Y91.983 E0.03692
G1 X91.950 Y91.034 E0.03695
G1 X92.362 Y90.096 E0.03695
G1 X92.801 Y89.170 E0.03692
G1 X93.430 Y87.958 E0.04925
G1 X94.275 Y86.472 E0.06165
G1 X94.816 Y85.603 E0.03690
