; generated by PrusaSlicer 2.3.1+x64 on 2021-08-02 at 12:36:44 UTC

; 

; external perimeters extrusion width = 0.45mm
; perimeters extrusion width = 0.45mm
; infill extrusion width = 0.45mm
; solid infill extrusion width = 0.45mm
; top infill extrusion width = 0.40mm
; first layer extrusion width = 0.42mm

M73 P0 R122
M73 Q0 S122
M201 X1000 Y1000 Z200 E5000 ; sets maximum accelerations, mm/sec^2
M203 X200 Y200 Z12 E120 ; sets maximum feedrates, mm/sec
M204 P1250 R1250 T1250 ; sets acceleration (P, T) and retract acceleration (R), mm/sec^2
M205 X8.00 Y8.00 Z0.40 E4.50 ; sets the jerk limits, mm/sec
M205 S0 T0 ; sets the minimum extruding and travel feed rate, mm/sec
M107
;TYPE:Custom
M862.3 P "MK3S" ; printer model check
M862.1 P0.4 ; nozzle diameter check
M115 U3.10.0 ; tell printer latest fw version
G90 ; use absolute coordinates
M83 ; extruder relative mode
M104 S260 ; set extruder temp
M140 S95 ; set bed temp
M190 S95 ; wait for bed temp
M109 S260 ; wait for extruder temp
G28 W ; home all without mesh bed level
G80 ; mesh bed leveling
G1 Y-3.0 F1000.0 ; go outside print area
G92 E0.0
G1 X60.0 E9.0 F1000.0 ; intro line
G1 X100.0 E12.5 F1000.0 ; intro line
G92 E0.0
M221 S95

; Don't change E values below. Excessive value can damage the printer.
M907 E430 ; set extruder motor current
G21 ; set units to millimeters
G90 ; use absolute coordinates
M83 ; use relative distances for extrusion
M900 K0.04 ; Filament gcode LA 1.5
M900 K20 ; Filament gcode LA 1.0
;LAYER_CHANGE
;Z:0.2
;HEIGHT:0.2
;BEFORE_LAYER_CHANGE
G92 E0.0
;0.2


G1 Z0.200 F10800.000
;AFTER_LAYER_CHANGE
;0.2
G1 E-2.00000 F2400.000
G1 X116.921 Y92.271 F10800.000
G1 E2.00000 F2400.000
M204 S1000
;TYPE:Skirt
;WIDTH:0.42
G1 F1200.000
G1 X133.382 Y92.113 E0.51613
G1 X134.883 Y92.390 E0.04787
G1 X137.048 Y92.968 E0.07028
G1 X140.287 Y94.083 E0.10738
G1 X142.348 Y94.961 E0.07025
G1 X144.340 Y95.944 E0.06965
G1 X147.307 Y97.677 E0.10774
G1 X149.153 Y98.940 E0.07013
G1 X150.915 Y100.294 E0.06965
G1 X153.471 Y102.562 E0.10714
G1 X155.045 Y104.172 E0.07061
G1 X156.509 Y105.847 E0.06977
G1 X158.582 Y108.588 E0.10774
G1 X159.802 Y110.462 E0.07013
G1 X160.908 Y112.389 E0.06965
G1 X162.396 Y115.465 E0.10714
G1 X163.231 Y117.556 E0.07061
G1 X163.939 Y119.666 E0.06977
G1 X164.797 Y122.974 E0.10714
G1 X165.206 Y125.192 E0.07073
G1 X165.487 Y127.396 E0.06965
G1 X165.679 Y130.807 E0.10714
G1 X165.646 Y133.063 E0.07072
G1 X165.490 Y135.279 E0.06965
G1 X165.007 Y138.681 E0.10774
G1 X164.536 Y140.867 E0.07013
G1 X163.949 Y143.010 E0.06965
G1 X162.816 Y146.234 E0.10714
G1 X161.918 Y148.305 E0.07080
G1 X160.923 Y150.289 E0.06958
G1 X159.180 Y153.228 E0.10714
G1 X157.897 Y155.079 E0.07061
G1 X156.529 Y156.834 E0.06977
G1 X154.245 Y159.375 E0.10714
G1 X152.621 Y160.942 E0.07073
G1 X150.939 Y162.392 E0.06965
G1 X148.201 Y164.436 E0.10714
G1 X146.302 Y165.654 E0.07073
G1 X144.368 Y166.747 E0.06965
G1 X141.282 Y168.215 E0.10714
G1 X139.182 Y169.038 E0.07073
G1 X137.071 Y169.731 E0.06965
G1 X133.758 Y170.566 E0.10714
G1 X131.537 Y170.961 E0.07073
G1 X129.332 Y171.227 E0.06965
G1 X125.919 Y171.397 E0.10714
G1 X123.664 Y171.349 E0.07073
G1 X121.449 Y171.178 E0.06965
M73 P0 R121
G1 X118.065 Y170.675 E0.10726
G1 X115.866 Y170.187 E0.07061
G1 X113.728 Y169.585 E0.06965
G1 X110.512 Y168.431 E0.10714
G1 X108.448 Y167.521 E0.07073
G1 X106.469 Y166.511 E0.06965
G1 X103.541 Y164.749 E0.10714
G1 X101.696 Y163.452 E0.07073
G1 X99.953 Y162.075 E0.06965
G1 X97.427 Y159.773 E0.10714
G1 X95.872 Y158.140 E0.07073
G1 X94.432 Y156.448 E0.06965
G1 X92.406 Y153.696 E0.10714
G1 X91.203 Y151.793 E0.07061
G1 X90.121 Y149.848 E0.06977
G1 X88.673 Y146.753 E0.10714
G1 X87.864 Y144.647 E0.07073
G1 X87.186 Y142.532 E0.06965
G1 X86.372 Y139.213 E0.10714
G1 X85.992 Y136.990 E0.07073
G1 X85.741 Y134.783 E0.06965
G1 X85.593 Y131.369 E0.10714
G1 X85.738 Y127.956 E0.10709
G1 X85.988 Y125.747 E0.06970
G1 X86.364 Y123.535 E0.07037
G1 X87.176 Y120.205 E0.10745
G1 X87.854 Y118.088 E0.06970
G1 X88.661 Y115.982 E0.07073
G1 X89.585 Y113.924 E0.07073
G1 X90.607 Y111.952 E0.06965
G1 X92.389 Y109.036 E0.10714
G1 X93.698 Y107.199 E0.07073
G1 X95.087 Y105.465 E0.06965
G1 X97.405 Y102.954 E0.10714
G1 X99.928 Y100.652 E0.10709
G1 X101.671 Y99.272 E0.06970
G1 X103.506 Y97.980 E0.07037
G1 X106.411 Y96.226 E0.10643
G1 X109.475 Y94.715 E0.10709
G1 X111.533 Y93.874 E0.06970
G1 X113.633 Y93.150 E0.06965
G1 X116.863 Y92.286 E0.10484
G1 E-2.00000 F2400.000
G1 X120.079 Y91.816 F10800.000
G1 E2.00000 F2400.000
G1 F1200.000
G1 X121.126 Y91.679 E0.03312
G1 X122.362 Y91.566 E0.03891
G1 X123.577 Y91.490 E0.03818
G1 X124.746 Y91.449 E0.03667
G1 X125.926 Y91.440 E0.03699
G1 X127.154 Y91.465 E0.03851
G1 X128.376 Y91.525 E0.03837
G1 X129.586 Y91.619 E0.03806
G1 X130.641 Y91.741 E0.03327
G1 X131.042 Y91.440 E0.01574
G1 X131.885 Y91.047 E0.02917
G1 X132.832 Y90.838 E0.03038
G1 X133.788 Y90.843 E0.02999
G1 X136.281 Y91.421 E0.08025
G1 X137.421 Y91.742 E0.03712
G1 X138.542 Y92.093 E0.03684
G1 X139.638 Y92.470 E0.03634
G1 X140.758 Y92.891 E0.03751
G1 X141.820 Y93.326 E0.03599
G1 X142.879 Y93.795 E0.03632
G1 X143.925 Y94.293 E0.03632
G1 X144.948 Y94.815 E0.03599
G1 X146.002 Y95.392 E0.03768
G1 X147.002 Y95.977 E0.03633
G1 X147.995 Y96.596 E0.03667
G1 X148.956 Y97.233 E0.03617
G1 X149.908 Y97.903 E0.03650
G1 X150.836 Y98.597 E0.03633
G1 X151.740 Y99.313 E0.03617
G1 X152.632 Y100.061 E0.03650
G1 X153.499 Y100.830 E0.03633
G1 X154.378 Y101.656 E0.03785
G1 X155.192 Y102.466 E0.03599
G1 X155.994 Y103.310 E0.03650
G1 X156.768 Y104.172 E0.03634
G1 X157.515 Y105.052 E0.03617
G1 X158.246 Y105.964 E0.03666
G1 X158.942 Y106.884 E0.03616
G1 X159.636 Y107.858 E0.03750
G1 X160.275 Y108.811 E0.03599
G1 X160.891 Y109.787 E0.03617
G1 X161.503 Y110.821 E0.03769
G1 X162.062 Y111.830 E0.03616
G1 X162.598 Y112.863 E0.03649
G1 X163.099 Y113.901 E0.03615
G1 X163.578 Y114.968 E0.03665
G1 X164.020 Y116.033 E0.03616
G1 X164.435 Y117.115 E0.03633
G1 X164.818 Y118.208 E0.03633
G1 X165.168 Y119.301 E0.03599
G1 X165.493 Y120.424 E0.03666
G1 X165.785 Y121.551 E0.03651
G1 X166.054 Y122.723 E0.03769
G1 X166.279 Y123.854 E0.03616
G1 X166.473 Y124.996 E0.03632
G1 X166.634 Y126.138 E0.03615
G1 X166.764 Y127.284 E0.03617
G1 X166.865 Y128.488 E0.03786
G1 X166.929 Y129.634 E0.03599
G1 X166.961 Y130.802 E0.03665
G1 X166.960 Y131.950 E0.03599
G1 X166.928 Y133.103 E0.03617
G1 X166.859 Y134.304 E0.03769
G1 X166.761 Y135.453 E0.03617
G1 X166.629 Y136.609 E0.03649
G1 X166.464 Y137.767 E0.03666
G1 X166.267 Y138.914 E0.03648
G1 X166.041 Y140.039 E0.03599
G1 X165.782 Y141.169 E0.03634
G1 X165.314 Y142.903 E0.05632
G1 X164.808 Y144.529 E0.05340
G1 X164.422 Y145.624 E0.03641
G1 X164.005 Y146.711 E0.03650
G1 X163.557 Y147.786 E0.03651
G1 X163.082 Y148.842 E0.03632
G1 X162.574 Y149.890 E0.03651
G1 X162.037 Y150.923 E0.03650
G1 X161.466 Y151.950 E0.03684
G1 X160.872 Y152.951 E0.03650
G1 X160.250 Y153.934 E0.03650
G1 X159.603 Y154.896 E0.03634
G1 X158.929 Y155.839 E0.03634
G1 X157.831 Y157.260 E0.05631
G1 X156.739 Y158.568 E0.05341
G1 X155.958 Y159.435 E0.03659
G1 X155.159 Y160.274 E0.03632
G1 X154.337 Y161.089 E0.03631
G1 X153.488 Y161.886 E0.03649
G1 X152.625 Y162.651 E0.03616
G1 X151.737 Y163.396 E0.03634
G1 X150.794 Y164.141 E0.03769
G1 X149.865 Y164.833 E0.03632
G1 X148.917 Y165.499 E0.03632
G1 X147.960 Y166.132 E0.03599
G1 X146.985 Y166.739 E0.03600
G1 X145.942 Y167.348 E0.03786
G1 X144.930 Y167.900 E0.03617
G1 X143.893 Y168.429 E0.03649
G1 X142.847 Y168.926 E0.03632
G1 X141.777 Y169.398 E0.03665
G1 X140.714 Y169.831 E0.03599
G1 X139.634 Y170.237 E0.03617
G1 X138.492 Y170.630 E0.03787
G1 X137.391 Y170.973 E0.03617
G1 X136.276 Y171.287 E0.03632
G1 X135.147 Y171.571 E0.03649
G1 X134.011 Y171.822 E0.03649
G1 X132.878 Y172.040 E0.03615
G1 X131.751 Y172.225 E0.03583
G1 X130.554 Y172.386 E0.03786
G1 X129.401 Y172.508 E0.03634
G1 X128.246 Y172.597 E0.03632
G1 X127.084 Y172.654 E0.03648
G1 X125.921 Y172.678 E0.03648
G1 X124.768 Y172.670 E0.03615
G1 X123.620 Y172.630 E0.03600
G1 X122.421 Y172.554 E0.03769
G1 X121.267 Y172.448 E0.03633
G1 X120.111 Y172.308 E0.03650
G1 X118.970 Y172.138 E0.03616
G1 X117.814 Y171.932 E0.03682
G1 X116.696 Y171.700 E0.03581
G1 X115.584 Y171.438 E0.03583
G1 X114.411 Y171.125 E0.03805
G1 X113.300 Y170.795 E0.03635
G1 X112.200 Y170.433 E0.03632
G1 X111.110 Y170.041 E0.03632
G1 X110.021 Y169.615 E0.03665
G1 X108.960 Y169.164 E0.03616
G1 X107.901 Y168.680 E0.03651
G1 X106.297 Y167.870 E0.05632
G1 X104.807 Y167.045 E0.05341
G1 X103.803 Y166.440 E0.03676
G1 X102.833 Y165.817 E0.03615
G1 X101.876 Y165.165 E0.03632
G1 X100.932 Y164.482 E0.03651
G1 X99.518 Y163.374 E0.05632
G1 X98.218 Y162.273 E0.05341
G1 X97.364 Y161.493 E0.03626
G1 X96.523 Y160.682 E0.03666
G1 X95.712 Y159.854 E0.03632
G1 X94.928 Y159.008 E0.03617
G1 X94.137 Y158.103 E0.03768
G1 X93.406 Y157.218 E0.03599
G1 X92.694 Y156.304 E0.03633
G1 X92.004 Y155.366 E0.03650
G1 X91.344 Y154.414 E0.03633
G1 X90.709 Y153.439 E0.03649
G1 X90.106 Y152.456 E0.03617
G1 X89.507 Y151.414 E0.03768
G1 X88.961 Y150.398 E0.03616
G1 X88.442 Y149.362 E0.03634
G1 X87.954 Y148.317 E0.03614
G1 X87.497 Y147.264 E0.03599
G1 X87.053 Y146.154 E0.03750
G1 X86.653 Y145.066 E0.03632
G1 X86.284 Y143.968 E0.03632
G1 X85.946 Y142.860 E0.03633
G1 X85.639 Y141.743 E0.03633
G1 X85.361 Y140.607 E0.03666
G1 X85.117 Y139.474 E0.03633
G1 X84.906 Y138.335 E0.03633
G1 X84.727 Y137.195 E0.03617
G1 X84.573 Y135.998 E0.03785
G1 X84.460 Y134.855 E0.03600
G1 X84.378 Y133.700 E0.03633
G1 X84.329 Y132.548 E0.03616
G1 X84.311 Y131.395 E0.03615
G1 X84.354 Y129.562 E0.05748
G1 X84.460 Y127.855 E0.05363
G1 X84.573 Y126.710 E0.03608
G1 X84.719 Y125.566 E0.03616
G1 X84.896 Y124.426 E0.03616
G1 X85.105 Y123.292 E0.03615
G1 X85.348 Y122.154 E0.03648
G1 X85.621 Y121.034 E0.03615
G1 X85.938 Y119.874 E0.03769
G1 X86.275 Y118.766 E0.03635
G1 X86.645 Y117.662 E0.03650
G1 X87.043 Y116.579 E0.03616
G1 X87.470 Y115.508 E0.03616
G1 X87.944 Y114.410 E0.03751
G1 X88.434 Y113.360 E0.03633
G1 X88.956 Y112.319 E0.03649
G1 X89.504 Y111.298 E0.03634
G1 X90.080 Y110.293 E0.03634
G1 X90.682 Y109.309 E0.03616
G1 X91.313 Y108.338 E0.03632
G1 X91.978 Y107.376 E0.03666
G1 X92.664 Y106.442 E0.03634
G1 X93.406 Y105.489 E0.03786
G1 X94.137 Y104.603 E0.03600
G1 X94.895 Y103.735 E0.03616
G1 X95.685 Y102.880 E0.03649
G1 X96.491 Y102.056 E0.03615
G1 X97.327 Y101.247 E0.03648
G1 X98.183 Y100.465 E0.03634
G1 X99.097 Y99.676 E0.03786
G1 X99.987 Y98.951 E0.03600
G1 X100.910 Y98.241 E0.03648
G1 X101.834 Y97.570 E0.03582
G1 X102.791 Y96.916 E0.03632
G1 X103.774 Y96.284 E0.03666
G1 X104.766 Y95.685 E0.03633
G1 X105.788 Y95.106 E0.03685
G1 X106.846 Y94.546 E0.03751
G1 X107.875 Y94.039 E0.03598
G1 X108.934 Y93.553 E0.03652
G1 X110.040 Y93.083 E0.03770
G1 X111.673 Y92.461 E0.05479
G1 X113.255 Y91.925 E0.05237
G1 X114.465 Y91.566 E0.03956
G1 X116.712 Y90.990 E0.07273
G1 X117.771 Y90.935 E0.03325
G1 X118.798 Y91.130 E0.03279
G1 X119.667 Y91.515 E0.02978
G1 X120.030 Y91.780 E0.01411
G1 E-2.00000 F2400.000
G1 X132.852 Y91.215 F10800.000
G1 E2.00000 F2400.000
G1 F1200.000
G1 X133.765 Y91.220 E0.02863
G1 X136.191 Y91.787 E0.07813
G1 X137.316 Y92.104 E0.03664
G1 X138.427 Y92.452 E0.03650
G1 X139.513 Y92.826 E0.03601
G1 X140.617 Y93.241 E0.03701
G1 X141.675 Y93.674 E0.03583
G1 X142.720 Y94.136 E0.03583
G1 X143.756 Y94.630 E0.03599
G1 X144.774 Y95.150 E0.03583
G1 X145.814 Y95.719 E0.03718
G1 X146.805 Y96.298 E0.03600
G1 X147.788 Y96.911 E0.03633
G1 X148.741 Y97.543 E0.03584
G1 X149.688 Y98.210 E0.03633
G1 X150.608 Y98.897 E0.03600
G1 X151.504 Y99.607 E0.03583
G1 X152.388 Y100.348 E0.03617
G1 X153.247 Y101.110 E0.03600
G1 X154.114 Y101.926 E0.03734
G1 X154.921 Y102.728 E0.03566
G1 X155.715 Y103.564 E0.03616
G1 X156.486 Y104.422 E0.03617
G1 X157.226 Y105.294 E0.03584
G1 X157.947 Y106.194 E0.03616
G1 X158.639 Y107.109 E0.03599
G1 X159.324 Y108.070 E0.03699
G1 X159.958 Y109.014 E0.03566
G1 X160.571 Y109.986 E0.03601
G1 X161.175 Y111.006 E0.03718
G1 X161.729 Y112.006 E0.03583
G1 X162.262 Y113.034 E0.03632
G1 X162.758 Y114.063 E0.03582
G1 X163.230 Y115.115 E0.03615
G1 X163.669 Y116.170 E0.03583
G1 X164.080 Y117.242 E0.03600
G1 X164.462 Y118.331 E0.03616
G1 X164.808 Y119.414 E0.03566
G1 X165.129 Y120.522 E0.03616
G1 X165.420 Y121.643 E0.03634
G1 X165.684 Y122.799 E0.03718
G1 X165.908 Y123.925 E0.03600
M73 Q0 S121
G1 X166.100 Y125.052 E0.03582
G1 X166.260 Y126.183 E0.03582
G1 X166.389 Y127.324 E0.03600
G1 X166.489 Y128.511 E0.03735
G1 X166.552 Y129.647 E0.03566
G1 X166.584 Y130.805 E0.03632
G1 X166.583 Y131.942 E0.03566
G1 X166.551 Y133.090 E0.03601
G1 X166.483 Y134.274 E0.03719
G1 X166.385 Y135.418 E0.03600
G1 X166.255 Y136.559 E0.03600
G1 X166.092 Y137.706 E0.03633
G1 X165.897 Y138.842 E0.03615
G1 X165.672 Y139.963 E0.03583
G1 X165.415 Y141.081 E0.03598
G1 X164.951 Y142.801 E0.05587
G1 X164.451 Y144.407 E0.05274
G1 X164.069 Y145.492 E0.03605
G1 X163.656 Y146.568 E0.03616
G1 X163.210 Y147.638 E0.03634
G1 X162.739 Y148.685 E0.03598
G1 X162.236 Y149.723 E0.03617
G1 X161.704 Y150.747 E0.03617
G1 X161.141 Y151.760 E0.03634
G1 X160.552 Y152.751 E0.03616
G1 X159.935 Y153.726 E0.03616
G1 X159.294 Y154.679 E0.03600
G1 X158.625 Y155.617 E0.03614
G1 X157.535 Y157.027 E0.05586
G1 X156.456 Y158.318 E0.05275
G1 X155.683 Y159.177 E0.03623
G1 X154.891 Y160.008 E0.03599
G1 X154.077 Y160.816 E0.03598
G1 X153.236 Y161.605 E0.03616
G1 X152.377 Y162.367 E0.03600
G1 X151.497 Y163.105 E0.03601
G1 X150.567 Y163.840 E0.03718
G1 X149.646 Y164.526 E0.03599
G1 X148.707 Y165.186 E0.03599
G1 X147.759 Y165.814 E0.03566
G1 X146.788 Y166.418 E0.03583
G1 X145.759 Y167.018 E0.03736
G1 X144.756 Y167.566 E0.03584
G1 X143.729 Y168.090 E0.03616
G1 X142.692 Y168.582 E0.03599
G1 X141.632 Y169.050 E0.03632
G1 X140.574 Y169.481 E0.03583
G1 X139.504 Y169.883 E0.03584
G1 X138.377 Y170.270 E0.03736
G1 X137.281 Y170.612 E0.03600
G1 X136.181 Y170.922 E0.03583
G1 X135.063 Y171.203 E0.03616
G1 X133.937 Y171.453 E0.03616
G1 X132.815 Y171.669 E0.03582
G1 X131.692 Y171.852 E0.03566
G1 X130.512 Y172.011 E0.03736
G1 X129.370 Y172.132 E0.03601
G1 X128.225 Y172.221 E0.03599
G1 X127.074 Y172.277 E0.03615
G1 X125.921 Y172.301 E0.03615
G1 X124.778 Y172.293 E0.03582
G1 X123.636 Y172.253 E0.03584
G1 X122.453 Y172.178 E0.03718
G1 X121.309 Y172.073 E0.03600
G1 X120.164 Y171.935 E0.03617
G1 X119.034 Y171.766 E0.03583
G1 X117.888 Y171.562 E0.03648
G1 X116.775 Y171.332 E0.03565
G1 X115.673 Y171.071 E0.03550
G1 X114.516 Y170.763 E0.03754
G1 X113.415 Y170.436 E0.03601
G1 X112.325 Y170.078 E0.03599
G1 X111.245 Y169.689 E0.03598
G1 X110.166 Y169.267 E0.03632
G1 X109.114 Y168.820 E0.03583
G1 X108.061 Y168.338 E0.03632
G1 X106.470 Y167.535 E0.05587
G1 X104.999 Y166.721 E0.05275
G1 X104.004 Y166.121 E0.03640
G1 X103.039 Y165.501 E0.03599
G1 X102.095 Y164.858 E0.03582
G1 X101.156 Y164.178 E0.03632
G1 X99.754 Y163.079 E0.05587
G1 X98.470 Y161.992 E0.05275
G1 X97.620 Y161.217 E0.03607
G1 X96.790 Y160.416 E0.03616
G1 X95.983 Y159.592 E0.03615
G1 X95.207 Y158.754 E0.03583
G1 X94.426 Y157.861 E0.03717
G1 X93.702 Y156.984 E0.03566
G1 X92.996 Y156.079 E0.03600
G1 X92.313 Y155.150 E0.03616
G1 X91.656 Y154.202 E0.03616
G1 X91.029 Y153.240 E0.03600
G1 X90.429 Y152.261 E0.03600
G1 X89.838 Y151.233 E0.03718
G1 X89.297 Y150.226 E0.03583
G1 X88.780 Y149.195 E0.03617
G1 X88.297 Y148.160 E0.03581
G1 X87.844 Y147.117 E0.03566
G1 X87.406 Y146.021 E0.03700
G1 X87.010 Y144.944 E0.03599
G1 X86.644 Y143.856 E0.03599
G1 X86.309 Y142.758 E0.03600
G1 X86.005 Y141.650 E0.03600
G1 X85.729 Y140.525 E0.03633
G1 X85.488 Y139.403 E0.03599
G1 X85.277 Y138.269 E0.03616
G1 X85.100 Y137.140 E0.03583
G1 X84.948 Y135.958 E0.03735
G1 X84.836 Y134.821 E0.03583
G1 X84.755 Y133.681 E0.03583
G1 X84.706 Y132.534 E0.03599
G1 X84.689 Y131.393 E0.03579
G1 X84.731 Y129.575 E0.05702
G1 X84.835 Y127.889 E0.05297
G1 X84.948 Y126.749 E0.03589
G1 X85.093 Y125.616 E0.03583
G1 X85.268 Y124.487 E0.03583
G1 X85.476 Y123.363 E0.03582
G1 X85.717 Y122.236 E0.03615
G1 X85.986 Y121.126 E0.03582
G1 X86.299 Y119.982 E0.03718
G1 X86.635 Y118.878 E0.03618
G1 X87.000 Y117.789 E0.03600
G1 X87.394 Y116.717 E0.03583
G1 X87.819 Y115.650 E0.03599
