; generated by PrusaSlicer 2.3.1+x64 on 2021-10-04 at 14:53:25 UTC

; 

; external perimeters extrusion width = 0.45mm
; perimeters extrusion width = 0.45mm
; infill extrusion width = 0.45mm
; solid infill extrusion width = 0.45mm
; top infill extrusion width = 0.40mm
; first layer extrusion width = 0.42mm

M73 P0 R39
M73 Q0 S39
M201 X1000 Y1000 Z200 E5000 ; sets maximum accelerations, mm/sec^2
M203 X200 Y200 Z12 E120 ; sets maximum feedrates, mm/sec
M204 P1250 R1250 T1250 ; sets acceleration (P, T) and retract acceleration (R), mm/sec^2
M205 X8.00 Y8.00 Z0.40 E4.50 ; sets the jerk limits, mm/sec
M205 S0 T0 ; sets the minimum extruding and travel feed rate, mm/sec
M107
;TYPE:Custom
M862.3 P "MK3S" ; printer model check
M862.1 P0.4 ; nozzle diameter check
M115 U3.10.0 ; tell printer latest fw version
G90 ; use absolute coordinates
M83 ; extruder relative mode
M104 S260 ; set extruder temp
M140 S105 ; set bed temp
M190 S105 ; wait for bed temp
M109 S260 ; wait for extruder temp
G28 W ; home all without mesh bed level
G80 ; mesh bed leveling
G1 Y-3.0 F1000.0 ; go outside print area
G92 E0.0
G1 X60.0 E9.0 F1000.0 ; intro line
G1 X100.0 E12.5 F1000.0 ; intro line
G92 E0.0
M221 S95

; Don't change E values below. Excessive value can damage the printer.
M907 E430 ; set extruder motor current
G21 ; set units to millimeters
G90 ; use absolute coordinates
M83 ; use relative distances for extrusion
M900 K0.04 ; Filament gcode LA 1.5
M900 K20 ; Filament gcode LA 1.0
;LAYER_CHANGE
;Z:0.2
;HEIGHT:0.2
;BEFORE_LAYER_CHANGE
G92 E0.0
;0.2


G1 E-0.80000 F2100.000
G1 Z0.400 F10800.000
;AFTER_LAYER_CHANGE
;0.2
G1 X103.631 Y75.845
G1 Z0.200
G1 E0.80000 F2100.000
M204 S1000
;TYPE:Skirt
;WIDTH:0.42
G1 F1200.000
G1 X103.994 Y75.353 E0.01917
G1 X104.471 Y74.970 E0.01917
G1 X105.033 Y74.719 E0.01929
G1 X105.637 Y74.622 E0.01917
G1 X144.294 Y74.621 E1.21207
G1 X145.168 Y74.789 E0.02790
G1 X145.916 Y75.264 E0.02778
G1 X146.440 Y75.983 E0.02790
G1 X146.662 Y76.845 E0.02790
G1 X146.661 Y111.162 E1.07599
G1 X140.417 Y133.643 E0.73157
G1 X140.206 Y134.156 E0.01740
G1 X139.843 Y134.648 E0.01917
G1 X139.366 Y135.031 E0.01917
G1 X138.808 Y135.280 E0.01917
G1 X138.204 Y135.378 E0.01917
G1 X111.845 Y135.379 E0.82646
G1 X111.262 Y135.299 E0.01846
G1 X110.719 Y135.081 E0.01835
G1 X110.026 Y134.499 E0.02837
G1 X109.601 Y133.705 E0.02825
G1 X103.350 Y111.281 E0.72990
G1 X103.333 Y76.979 E1.07551
G1 X103.411 Y76.395 E0.01846
G1 X103.609 Y75.901 E0.01670
; printing object Mount Lid id:1 copy 0
;WIPE_START
G1 F8640.000
G1 X103.994 Y75.353 E-0.15466
G1 X104.471 Y74.970 E-0.14121
G1 X105.033 Y74.719 E-0.14208
G1 X105.637 Y74.622 E-0.14121
G1 X106.420 Y74.622 E-0.18084
;WIPE_END
G1 E-0.04000 F2100.000
G1 Z0.600 F10800.000
G1 X127.033 Y127.961
G1 Z0.200
G1 E0.80000 F2100.000
;TYPE:External perimeter
G1 F1200.000
G1 X127.548 Y127.713 E0.01791
G1 X127.888 Y127.595 E0.01130
G1 X128.248 Y127.533 E0.01145
G1 X129.431 Y127.503 E0.03709
G1 X131.202 Y127.538 E0.05555
G1 X131.560 Y127.599 E0.01138
G1 X131.901 Y127.717 E0.01132
G1 X132.418 Y127.966 E0.01797
G1 X132.754 Y128.326 E0.01546
G1 X132.961 Y128.623 E0.01135
G1 X133.097 Y128.966 E0.01156
G1 X133.147 Y129.203 E0.00759
G1 X133.197 Y129.659 E0.01440
G1 X133.169 Y129.919 E0.00821
G1 X133.082 Y130.379 E0.01468
G1 X132.930 Y130.735 E0.01213
G1 X132.711 Y131.038 E0.01173
G1 X132.356 Y131.408 E0.01607
G1 X131.548 Y131.780 E0.02787
G1 X131.212 Y131.887 E0.01108
G1 X130.870 Y131.956 E0.01092
G1 X130.530 Y131.994 E0.01072
G1 X130.034 Y132.014 E0.01558
G1 X129.043 Y131.997 E0.03105
G1 X128.697 Y131.966 E0.01091
G1 X128.347 Y131.906 E0.01114
G1 X127.838 Y131.748 E0.01670
G1 X127.023 Y131.350 E0.02843
G1 X126.687 Y130.989 E0.01545
G1 X126.484 Y130.695 E0.01121
G1 X126.379 Y130.460 E0.00809
G1 X126.295 Y130.116 E0.01110
G1 X126.246 Y129.657 E0.01447
G1 X126.296 Y129.196 E0.01453
G1 X126.382 Y128.851 E0.01115
G1 X126.488 Y128.615 E0.00812
G1 X126.694 Y128.321 E0.01127
G1 X126.992 Y128.005 E0.01362
G1 X127.006 Y127.562 F10800.000
;WIPE_START
G1 F8640.000
G1 X127.548 Y127.713 E-0.14490
G1 X127.888 Y127.595 E-0.08322
G1 X128.248 Y127.533 E-0.08430
G1 X129.431 Y127.503 E-0.27313
G1 X130.186 Y127.518 E-0.17445
;WIPE_END
G1 E-0.04000 F2100.000
G1 Z0.600 F10800.000
G1 X127.023 Y126.686
G1 Z0.200
G1 E0.80000 F2100.000
G1 F1200.000
G1 X126.690 Y126.330 E0.01528
G1 X126.546 Y126.137 E0.00755
G1 X126.424 Y125.914 E0.00796
G1 X126.316 Y125.568 E0.01140
G1 X126.246 Y124.999 E0.01796
G1 X126.268 Y124.751 E0.00782
G1 X126.318 Y124.418 E0.01054
G1 X126.429 Y124.069 E0.01150
G1 X126.620 Y123.752 E0.01159
G1 X127.038 Y123.299 E0.01933
G1 X127.404 Y123.129 E0.01264
G1 X127.738 Y123.011 E0.01113
G1 X128.086 Y122.939 E0.01113
G1 X128.563 Y122.886 E0.01503
G1 X129.359 Y122.684 E0.02577
G1 X129.714 Y122.650 E0.01118
G1 X130.392 Y122.657 E0.02124
G1 X130.741 Y122.689 E0.01100
G1 X131.091 Y122.753 E0.01114
G1 X131.433 Y122.857 E0.01123
G1 X131.910 Y123.054 E0.01618
G1 X132.418 Y123.305 E0.01776
G1 X132.752 Y123.662 E0.01531
G1 X132.898 Y123.858 E0.00769
G1 X133.062 Y124.190 E0.01159
G1 X133.147 Y124.538 E0.01124
G1 X133.197 Y124.999 E0.01456
G1 X133.137 Y125.479 E0.01516
G1 X133.042 Y125.836 E0.01157
G1 X132.927 Y126.077 E0.00837
G1 X132.710 Y126.377 E0.01161
G1 X132.355 Y126.744 E0.01603
G1 X131.996 Y126.913 E0.01242
G1 X131.668 Y127.037 E0.01100
G1 X131.153 Y127.128 E0.01640
G1 X129.710 Y127.154 E0.04524
G1 X128.237 Y127.120 E0.04620
G1 X127.880 Y127.058 E0.01138
G1 X127.700 Y126.999 E0.00591
G1 X127.380 Y126.868 E0.01085
G1 X127.076 Y126.713 E0.01069
G1 X126.648 Y126.826 F10800.000
;WIPE_START
G1 F8640.000
G1 X126.690 Y126.330 E-0.12564
G1 X126.546 Y126.137 E-0.05557
G1 X126.424 Y125.914 E-0.05859
G1 X126.316 Y125.568 E-0.08395
G1 X126.246 Y124.999 E-0.13227
G1 X126.268 Y124.751 E-0.05760
G1 X126.318 Y124.418 E-0.07761
G1 X126.429 Y124.069 E-0.08467
G1 X126.617 Y123.757 E-0.08411
;WIPE_END
G1 E-0.04000 F2100.000
G1 Z0.600 F10800.000
G1 X129.066 Y122.369
G1 Z0.200
G1 E0.80000 F2100.000
;TYPE:Perimeter
G1 F1200.000
G1 X129.175 Y122.098 E0.00917
G1 X129.277 Y121.644 E0.01458
G1 X129.342 Y121.090 E0.01749
G1 X130.247 Y122.016 E0.04057
G1 X130.582 Y122.295 E0.01367
G1 X129.698 Y122.273 E0.02771
G1 X129.294 Y122.311 E0.01272
G1 X129.124 Y122.355 E0.00551
;WIPE_START
G1 F8640.000
G1 X129.175 Y122.098 E-0.06042
G1 X129.277 Y121.644 E-0.10738
G1 X129.342 Y121.090 E-0.12882
G1 X130.247 Y122.016 E-0.29880
G1 X130.582 Y122.295 E-0.10068
G1 X130.305 Y122.288 E-0.06390
;WIPE_END
G1 E-0.04000 F2100.000
G1 Z0.600 F10800.000
G1 X130.858 Y118.888
G1 Z0.200
G1 E0.80000 F2100.000
G1 F1200.000
G1 X130.373 Y118.398 E0.02163
G1 X130.030 Y118.148 E0.01330
G1 X129.779 Y117.995 E0.00922
G1 X129.318 Y117.785 E0.01588
G1 X130.815 Y117.785 E0.04693
G1 X130.856 Y118.828 E0.03273
G1 X131.200 Y117.990 F10800.000
;TYPE:External perimeter
G1 F1200.000
G1 X133.092 Y117.984 E0.05932
G1 X133.090 Y122.919 E0.15476
G1 X132.123 Y122.725 E0.03095
G1 X131.641 Y122.533 E0.01625
G1 X131.325 Y122.379 E0.01105
G1 X130.895 Y122.066 E0.01666
G1 X130.500 Y121.736 E0.01614
G1 X130.135 Y121.379 E0.01598
G1 X129.336 Y120.535 E0.03646
G1 X128.875 Y120.122 E0.01942
G1 X128.702 Y120.027 E0.00618
G1 X128.525 Y119.975 E0.00580
G1 X128.402 Y119.960 E0.00387
G1 X128.254 Y119.975 E0.00467
G1 X128.116 Y120.051 E0.00492
G1 X128.047 Y120.161 E0.00407
G1 X128.024 Y120.324 E0.00519
G1 X128.049 Y120.490 E0.00526
G1 X128.121 Y120.602 E0.00417
G1 X128.245 Y120.674 E0.00451
G1 X128.345 Y120.707 E0.00330
G1 X128.999 Y120.783 E0.02063
G1 X128.905 Y121.581 E0.02520
G1 X128.814 Y121.985 E0.01300
G1 X128.595 Y122.527 E0.01833
G1 X127.904 Y122.524 E0.02167
G1 X127.552 Y122.462 E0.01123
G1 X127.321 Y122.356 E0.00796
G1 X127.116 Y122.227 E0.00759
G1 X126.749 Y121.909 E0.01523
G1 X126.433 Y121.335 E0.02056
G1 X126.306 Y120.912 E0.01383
G1 X126.246 Y120.299 E0.01932
G1 X126.292 Y119.758 E0.01700
G1 X126.371 Y119.421 E0.01087
G1 X126.513 Y119.101 E0.01096
G1 X126.831 Y118.624 E0.01800
G1 X127.236 Y118.297 E0.01631
G1 X127.516 Y118.141 E0.01005
G1 X127.822 Y118.047 E0.01003
G1 X128.319 Y117.983 E0.01572
G1 X128.564 Y117.997 E0.00769
G1 X128.915 Y118.053 E0.01114
G1 X129.253 Y118.160 E0.01111
G1 X129.599 Y118.327 E0.01205
G1 X129.821 Y118.462 E0.00815
G1 X130.128 Y118.686 E0.01190
G1 X130.545 Y119.099 E0.01841
G1 X130.726 Y119.339 E0.00943
G1 X130.884 Y119.593 E0.00937
G1 X130.981 Y119.809 E0.00742
G1 X131.111 Y119.961 E0.00628
G1 X131.398 Y120.242 E0.01260
G1 X131.404 Y119.787 E0.01426
G1 X131.307 Y119.346 E0.01416
G1 X131.235 Y118.871 E0.01507
G1 X131.203 Y118.050 E0.02577
G1 X131.189 Y117.590 F10800.000
;WIPE_START
G1 F8640.000
G1 X133.092 Y117.984 E-0.43657
G1 X133.092 Y119.384 E-0.32343
;WIPE_END
G1 E-0.04000 F2100.000
G1 Z0.600 F10800.000
G1 X124.105 Y125.614
M73 Q1 S39
G1 Z0.200
G1 E0.80000 F2100.000
;TYPE:Perimeter
G1 F1200.000
G1 X121.555 Y125.611 E0.07995
G1 X121.555 Y127.935 E0.07287
M73 P1 R39
G1 X124.105 Y127.935 E0.07995
G1 X124.105 Y130.721 E0.08734
G1 X116.530 Y130.721 E0.23751
G1 X116.536 Y126.716 E0.12557
G1 X116.567 Y126.224 E0.01546
G1 X116.677 Y125.319 E0.02858
G1 X116.567 Y124.438 E0.02783
G1 X116.536 Y123.958 E0.01508
G1 X116.540 Y122.141 E0.05700
G1 X116.574 Y121.786 E0.01117
G1 X116.673 Y121.249 E0.01713
G1 X116.879 Y120.742 E0.01716
G1 X117.085 Y120.406 E0.01235
G1 X117.439 Y119.994 E0.01705
G1 X117.878 Y119.650 E0.01747
G1 X118.212 Y119.454 E0.01215
G1 X118.708 Y119.244 E0.01688
G1 X119.134 Y119.135 E0.01379
G1 X119.554 Y119.056 E0.01342
G1 X120.014 Y119.019 E0.01445
G1 X120.380 Y119.008 E0.01149
G1 X120.933 Y119.033 E0.01736
G1 X121.331 Y119.089 E0.01259
G1 X121.903 Y119.232 E0.01848
G1 X122.443 Y119.462 E0.01840
G1 X122.806 Y119.680 E0.01329
G1 X123.283 Y120.074 E0.01938
G1 X123.596 Y120.483 E0.01616
G1 X123.769 Y120.794 E0.01115
G1 X123.949 Y121.253 E0.01546
G1 X124.077 Y121.913 E0.02111
G1 X124.105 Y122.531 E0.01939
G1 X124.105 Y125.554 E0.09477
G1 X123.728 Y125.236 F10800.000
;TYPE:External perimeter
G1 F1200.000
G1 X119.621 Y125.232 E0.12876
G1 X119.151 Y125.213 E0.01476
G1 X118.232 Y125.135 E0.02891
G1 X117.034 Y125.135 E0.03757
G1 X116.942 Y124.403 E0.02313
G1 X116.913 Y123.947 E0.01433
G1 X116.917 Y122.159 E0.05607
G1 X116.948 Y121.838 E0.01010
G1 X117.037 Y121.355 E0.01539
G1 X117.217 Y120.912 E0.01499
G1 X117.390 Y120.628 E0.01043
G1 X117.701 Y120.268 E0.01493
G1 X118.090 Y119.963 E0.01551
G1 X118.382 Y119.792 E0.01058
G1 X118.829 Y119.603 E0.01523
G1 X119.216 Y119.503 E0.01252
G1 X119.604 Y119.430 E0.01240
G1 X120.377 Y119.386 E0.02427
G1 X120.898 Y119.409 E0.01636
G1 X121.259 Y119.460 E0.01141
G1 X121.782 Y119.590 E0.01692
G1 X122.271 Y119.798 E0.01664
G1 X122.588 Y119.989 E0.01159
G1 X123.009 Y120.337 E0.01716
G1 X123.280 Y120.690 E0.01395
G1 X123.427 Y120.955 E0.00949
G1 X123.586 Y121.358 E0.01358
G1 X123.702 Y121.958 E0.01916
G1 X123.728 Y122.540 E0.01826
G1 X123.728 Y125.176 E0.08267
G1 X123.729 Y125.636 F10800.000
;WIPE_START
G1 F8640.000
G1 X120.437 Y125.221 E-0.76000
;WIPE_END
G1 E-0.04000 F2100.000
G1 Z0.600 F10800.000
G1 X121.178 Y125.808
G1 Z0.200
G1 E0.80000 F2100.000
G1 F1200.000
G1 X121.178 Y128.312 E0.07854
G1 X123.728 Y128.312 E0.07995
G1 X123.728 Y130.344 E0.06369
G1 X116.908 Y130.344 E0.21385
G1 X116.913 Y126.728 E0.11337
G1 X116.942 Y126.258 E0.01475
G1 X117.033 Y125.512 E0.02358
G1 X118.619 Y125.512 E0.04971
G1 X118.709 Y126.286 E0.02444
G1 X118.737 Y126.781 E0.01556
G1 X118.742 Y128.312 E0.04800
G1 X119.343 Y128.312 E0.01884
G1 X119.343 Y125.808 E0.07854
G1 X121.118 Y125.808 E0.05565
G1 X121.559 Y125.684 F10800.000
;WIPE_START
G1 F8640.000
G1 X121.178 Y128.312 E-0.57853
G1 X121.964 Y128.312 E-0.18147
;WIPE_END
G1 E-0.04000 F2100.000
G1 Z0.600 F10800.000
G1 X127.507 Y127.328
G1 Z0.200
G1 E0.80000 F2100.000
;TYPE:Perimeter
G1 F1200.000
G1 X126.807 Y127.651 E0.02419
G1 X126.401 Y128.082 E0.01854
G1 X126.159 Y128.428 E0.01324
G1 X126.024 Y128.727 E0.01031
G1 X125.924 Y129.130 E0.01301
G1 X125.866 Y129.657 E0.01661
G1 X125.923 Y130.181 E0.01654
G1 X126.021 Y130.582 E0.01294
G1 X126.153 Y130.881 E0.01026
G1 X126.393 Y131.226 E0.01317
G1 X126.794 Y131.658 E0.01849
G1 X127.698 Y132.099 E0.03154
G1 X128.071 Y132.215 E0.01222
G1 X112.659 Y132.215 E0.48322
G1 X112.659 Y117.785 E0.45244
G1 X127.391 Y117.785 E0.46192
G1 X127.029 Y117.981 E0.01292
G1 X126.550 Y118.368 E0.01929
G1 X126.180 Y118.923 E0.02094
G1 X126.012 Y119.300 E0.01294
G1 X125.919 Y119.699 E0.01285
G1 X125.868 Y120.301 E0.01894
G1 X125.934 Y120.985 E0.02155
G1 X126.083 Y121.481 E0.01624
G1 X126.451 Y122.150 E0.02392
G1 X126.891 Y122.532 E0.01827
G1 X127.142 Y122.688 E0.00928
G1 X127.305 Y122.763 E0.00564
G1 X126.818 Y122.986 E0.01679
G1 X126.314 Y123.530 E0.02324
G1 X126.083 Y123.912 E0.01401
G1 X125.950 Y124.333 E0.01383
G1 X125.866 Y125.005 E0.02125
G1 X125.946 Y125.648 E0.02030
G1 X126.076 Y126.063 E0.01365
G1 X126.228 Y126.341 E0.00994
G1 X126.400 Y126.572 E0.00902
G1 X126.792 Y126.992 E0.01803
G1 X127.223 Y127.211 E0.01514
G1 X127.452 Y127.305 E0.00776
;WIPE_START
G1 F8640.000
G1 X126.807 Y127.651 E-0.16905
G1 X126.401 Y128.082 E-0.13655
G1 X126.159 Y128.428 E-0.09751
G1 X126.024 Y128.727 E-0.07591
G1 X125.924 Y129.130 E-0.09581
G1 X125.866 Y129.657 E-0.12230
G1 X125.895 Y129.927 E-0.06287
;WIPE_END
G1 E-0.04000 F2100.000
G1 Z0.600 F10800.000
G1 X131.948 Y127.334
G1 Z0.200
G1 E0.80000 F2100.000
G1 F1200.000
G1 X132.578 Y127.056 E0.02157
G1 X133.000 Y126.620 E0.01903
G1 X133.253 Y126.270 E0.01354
G1 X133.397 Y125.966 E0.01055
G1 X133.508 Y125.552 E0.01346
G1 X133.576 Y125.003 E0.01734
G1 X133.519 Y124.473 E0.01672
G1 X133.419 Y124.060 E0.01333
G1 X133.221 Y123.660 E0.01396
G1 X133.041 Y123.419 E0.00943
G1 X132.897 Y123.265 E0.00663
G1 X133.467 Y123.380 E0.01824
G1 X133.469 Y117.785 E0.17542
G1 X137.341 Y117.785 E0.12140
G1 X137.341 Y132.215 E0.45244
G1 X131.425 Y132.215 E0.18551
G1 X131.685 Y132.133 E0.00856
G1 X132.578 Y131.721 E0.03085
G1 X133.001 Y131.281 E0.01913
G1 X133.260 Y130.922 E0.01388
G1 X133.444 Y130.490 E0.01473
G1 X133.543 Y129.974 E0.01645
G1 X133.576 Y129.659 E0.00996
G1 X133.520 Y129.143 E0.01626
G1 X133.459 Y128.856 E0.00920
G1 X133.295 Y128.444 E0.01392
G1 X133.049 Y128.088 E0.01356
G1 X132.645 Y127.657 E0.01853
G1 X132.005 Y127.354 E0.02220
;WIPE_START
G1 F8640.000
G1 X132.578 Y127.056 E-0.14900
G1 X133.000 Y126.620 E-0.14017
G1 X133.253 Y126.270 E-0.09973
G1 X133.397 Y125.966 E-0.07766
G1 X133.508 Y125.552 E-0.09911
G1 X133.576 Y125.003 E-0.12772
G1 X133.546 Y124.716 E-0.06661
;WIPE_END
G1 E-0.04000 F2100.000
G1 Z0.600 F10800.000
G1 X137.718 Y132.592
G1 Z0.200
G1 E0.80000 F2100.000
;TYPE:External perimeter
G1 F1200.000
G1 X112.282 Y132.592 E0.79754
G1 X112.282 Y117.408 E0.47609
G1 X137.718 Y117.408 E0.79754
M73 P1 R38
G1 X137.718 Y132.532 E0.47420
G1 X137.325 Y132.521 F10800.000
;WIPE_START
G1 F8640.000
G1 X134.427 Y132.540 E-0.76000
;WIPE_END
G1 E-0.04000 F2100.000
G1 Z0.600 F10800.000
G1 X132.600 Y131.941
G1 Z0.200
G1 E0.80000 F2100.000
;TYPE:Gap fill
;WIDTH:0.115435
G1 F1200.000
G1 X132.480 Y132.026 E0.00089
;WIPE_START
G1 F8640.000
G1 X132.600 Y131.941 E-0.03398
;WIPE_END
G1 E-0.76602 F2100.000
G1 Z0.600 F10800.000
G1 X131.238 Y132.240
G1 Z0.200
G1 E0.80000 F2100.000
;WIDTH:0.339718
G1 F1200.000
G1 X130.925 Y132.272 E0.00775
;WIDTH:0.3069
G1 X130.557 Y132.292 E0.00810
;WIDTH:0.26524
G1 X130.040 Y132.303 E0.00956
;WIDTH:0.243926
G1 X128.651 Y132.277 E0.02322
;WIDTH:0.337358
G1 X128.257 Y132.244 E0.00969
;WIPE_START
G1 F8640.000
G1 X128.651 Y132.277 E-0.09135
;WIPE_END
G1 E-0.70865 F2100.000
G1 Z0.600 F10800.000
G1 X126.969 Y132.026
G1 Z0.200
G1 E0.80000 F2100.000
;WIDTH:0.143588
G1 F1200.000
G1 X126.870 Y131.953 E0.00103
;WIDTH:0.118454
G1 X126.771 Y131.879 E0.00078
;WIPE_START
G1 F8640.000
G1 X126.870 Y131.953 E-0.02852
;WIPE_END
G1 E-0.77148 F2100.000
G1 Z0.600 F10800.000
G1 X127.960 Y127.286
G1 Z0.200
G1 E0.80000 F2100.000
;WIDTH:0.120502
G1 F1200.000
G1 X128.104 Y127.327 E0.00097
G1 X128.210 Y127.327 E0.00068
;WIPE_START
G1 F8640.000
G1 X128.104 Y127.327 E-0.02435
G1 X127.960 Y127.286 E-0.03467
;WIPE_END
G1 E-0.74099 F2100.000
G1 Z0.600 F10800.000
