; generated by PrusaSlicer 2.3.0+ on 2021-03-19 at 21:33:43 UTC

; 

; external perimeters extrusion width = 0.45mm
; perimeters extrusion width = 0.45mm
; infill extrusion width = 0.45mm
; solid infill extrusion width = 0.45mm
; top infill extrusion width = 0.40mm
; first layer extrusion width = 0.42mm

M73 P0 R36
M73 Q0 S36
M201 X1000 Y1000 Z200 E5000 ; sets maximum accelerations, mm/sec^2
M203 X200 Y200 Z12 E120 ; sets maximum feedrates, mm/sec
M204 P1250 R1250 T1250 ; sets acceleration (P, T) and retract acceleration (R), mm/sec^2
M205 X8.00 Y8.00 Z0.40 E4.50 ; sets the jerk limits, mm/sec
M205 S0 T0 ; sets the minimum extruding and travel feed rate, mm/sec
M107
;TYPE:Custom
M862.3 P "MK3S" ; printer model check
M862.1 P0.4 ; nozzle diameter check
M115 U3.9.3 ; tell printer latest fw version
G90 ; use absolute coordinates
M83 ; extruder relative mode
M104 S240 ; set extruder temp
M140 S90 ; set bed temp
M190 S90 ; wait for bed temp
M109 S240 ; wait for extruder temp
G28 W ; home all without mesh bed level
G80 ; mesh bed leveling
G1 Y-3.0 F1000.0 ; go outside print area
G92 E0.0
G1 X60.0 E9.0 F1000.0 ; intro line
G1 X100.0 E12.5 F1000.0 ; intro line
G92 E0.0
M221 S95

; Don't change E values below. Excessive value can damage the printer.
M907 E430 ; set extruder motor current
G21 ; set units to millimeters
G90 ; use absolute coordinates
M83 ; use relative distances for extrusion
M900 K0.12 ; Filament gcode LA 1.5
M900 K45 ; Filament gcode LA 1.0
;LAYER_CHANGE
;Z:0.2
;HEIGHT:0.2
;BEFORE_LAYER_CHANGE
G92 E0.0
;0.2


G1 E-1.40000 F3000.000
G1 Z0.200 F10800.000
;AFTER_LAYER_CHANGE
;0.2
G1 Z0.400
G1 X116.985 Y98.293
G1 Z0.200
G1 E1.40000 F3000.000
M204 S1000
;TYPE:Skirt
;WIDTH:0.42
G1 F1200.000
G1 X117.608 Y97.609 E0.02757
G1 X118.957 Y96.473 E0.05252
G1 X120.161 Y95.736 E0.04207
G1 X120.999 Y95.343 E0.02757
G1 X121.870 Y95.028 E0.02757
G1 X123.244 Y94.698 E0.04210
G1 X125.004 Y94.547 E0.05262
G1 X125.928 Y94.590 E0.02757
G1 X127.320 Y94.810 E0.04197
G1 X129.000 Y95.343 E0.05249
G1 X130.565 Y96.154 E0.05252
G1 X131.707 Y96.985 E0.04207
G1 X132.391 Y97.608 E0.02757
G1 X133.527 Y98.957 E0.05252
G1 X134.264 Y100.161 E0.04206
G1 X134.657 Y100.999 E0.02757
G1 X135.190 Y102.680 E0.05252
G1 X135.411 Y104.075 E0.04207
G1 X135.453 Y104.999 E0.02757
G1 X135.302 Y106.756 E0.05252
G1 X134.972 Y108.129 E0.04207
G1 X134.657 Y109.000 E0.02757
G1 X133.846 Y110.565 E0.05252
G1 X133.016 Y111.707 E0.04207
G1 X132.392 Y112.391 E0.02757
G1 X131.043 Y113.527 E0.05252
G1 X129.839 Y114.264 E0.04207
G1 X129.001 Y114.657 E0.02757
G1 X127.320 Y115.190 E0.05252
G1 X125.925 Y115.411 E0.04207
G1 X125.001 Y115.453 E0.02757
G1 X123.244 Y115.302 E0.05252
G1 X121.871 Y114.972 E0.04207
G1 X121.000 Y114.657 E0.02757
G1 X119.435 Y113.846 E0.05252
G1 X118.293 Y113.016 E0.04207
G1 X117.609 Y112.392 E0.02757
G1 X116.473 Y111.043 E0.05252
G1 X115.736 Y109.839 E0.04207
G1 X115.343 Y109.001 E0.02757
G1 X114.810 Y107.320 E0.05252
G1 X114.589 Y105.925 E0.04207
G1 X114.547 Y105.001 E0.02757
G1 X114.698 Y103.244 E0.05252
G1 X115.028 Y101.871 E0.04207
G1 X115.343 Y101.000 E0.02757
G1 X116.154 Y99.435 E0.05252
G1 X116.949 Y98.341 E0.04028
G1 X116.787 Y99.166 F10800.000
G1 F1200.000
G1 X117.877 Y97.874 E0.05038
G1 X118.531 Y97.277 E0.02637
G1 X119.644 Y96.467 E0.04100
G1 X121.143 Y95.692 E0.05026
G1 X121.979 Y95.389 E0.02649
G1 X123.317 Y95.067 E0.04100
G1 X125.003 Y94.924 E0.05038
G1 X125.887 Y94.965 E0.02637
G1 X127.246 Y95.180 E0.04100
G1 X128.858 Y95.692 E0.05038
G1 X129.660 Y96.068 E0.02637
G1 X130.834 Y96.787 E0.04100
G1 X132.126 Y97.877 E0.05038
G1 X132.723 Y98.531 E0.02637
G1 X133.533 Y99.644 E0.04100
G1 X134.308 Y101.143 E0.05025
G1 X134.611 Y101.979 E0.02649
G1 X134.933 Y103.317 E0.04100
G1 X135.076 Y105.003 E0.05038
G1 X135.035 Y105.887 E0.02637
G1 X134.820 Y107.246 E0.04100
G1 X134.308 Y108.858 E0.05038
G1 X133.932 Y109.660 E0.02637
G1 X133.213 Y110.834 E0.04100
G1 X132.123 Y112.126 E0.05038
G1 X131.469 Y112.723 E0.02637
G1 X130.356 Y113.533 E0.04100
G1 X128.853 Y114.310 E0.05038
G1 X128.021 Y114.611 E0.02637
G1 X126.683 Y114.933 E0.04100
G1 X124.997 Y115.076 E0.05038
G1 X124.113 Y115.035 E0.02637
G1 X122.754 Y114.820 E0.04100
G1 X121.142 Y114.308 E0.05038
G1 X120.340 Y113.932 E0.02637
G1 X119.166 Y113.213 E0.04100
G1 X117.874 Y112.123 E0.05038
G1 X117.277 Y111.469 E0.02637
G1 X116.467 Y110.356 E0.04100
G1 X115.692 Y108.857 E0.05026
G1 X115.389 Y108.021 E0.02649
G1 X115.067 Y106.683 E0.04100
G1 X114.924 Y104.997 E0.05038
G1 X114.965 Y104.113 E0.02637
G1 X115.180 Y102.754 E0.04100
G1 X115.692 Y101.142 E0.05038
G1 X116.068 Y100.340 E0.02637
G1 X116.755 Y99.218 E0.03921
G1 X117.077 Y99.414 F10800.000
G1 F1200.000
G1 X118.143 Y98.141 E0.04948
G1 X118.767 Y97.571 E0.02518
G1 X119.854 Y96.781 E0.04001
G1 X121.290 Y96.039 E0.04816
G1 X122.085 Y95.751 E0.02518
G1 X123.391 Y95.437 E0.04001
G1 X125.006 Y95.301 E0.04827
G1 X125.846 Y95.340 E0.02506
G1 X127.173 Y95.549 E0.04001
G1 X128.713 Y96.040 E0.04816
G1 X129.479 Y96.399 E0.02518
G1 X130.624 Y97.100 E0.04001
G1 X131.859 Y98.143 E0.04816
G1 X132.427 Y98.764 E0.02506
G1 X133.219 Y99.854 E0.04012
G1 X133.961 Y101.290 E0.04816
G1 X134.249 Y102.085 E0.02518
G1 X134.563 Y103.391 E0.04001
G1 X134.699 Y105.002 E0.04816
G1 X134.661 Y105.842 E0.02506
G1 X134.451 Y107.173 E0.04012
G1 X133.960 Y108.713 E0.04816
G1 X133.603 Y109.475 E0.02506
G1 X132.900 Y110.624 E0.04012
G1 X131.857 Y111.859 E0.04816
G1 X131.236 Y112.427 E0.02506
G1 X130.146 Y113.219 E0.04012
G1 X128.710 Y113.961 E0.04816
G1 X127.915 Y114.249 E0.02518
G1 X126.609 Y114.563 E0.04001
G1 X124.998 Y114.699 E0.04816
G1 X124.154 Y114.660 E0.02518
G1 X122.827 Y114.451 E0.04001
G1 X121.287 Y113.960 E0.04816
G1 X120.521 Y113.601 E0.02518
G1 X119.376 Y112.900 E0.04001
G1 X118.141 Y111.857 E0.04816
G1 X117.573 Y111.236 E0.02506
G1 X116.781 Y110.146 E0.04012
G1 X116.039 Y108.710 E0.04816
G1 X115.751 Y107.915 E0.02518
G1 X115.437 Y106.609 E0.04001
G1 X115.301 Y104.998 E0.04816
G1 X115.339 Y104.158 E0.02506
G1 X115.549 Y102.827 E0.04012
G1 X116.040 Y101.287 E0.04816
G1 X116.399 Y100.521 E0.02518
G1 X117.045 Y99.465 E0.03688
;WIPE_START
G1 F8640.000
G1 X118.143 Y98.141 E-0.56758
G1 X118.767 Y97.571 E-0.27880
G1 X119.854 Y96.781 E-0.44307
G1 X119.963 Y96.724 E-0.04056
;WIPE_END
G1 E-0.07000 F3000.000
G1 Z0.400 F10800.000
G1 X115.094 Y98.174
G1 Z0.200
G1 E1.40000 F3000.000
G1 F1200.000
G1 X115.202 Y98.011 E0.00582
G1 X115.855 Y97.177 E0.03154
G1 X116.576 Y96.404 E0.03148
G1 X117.283 Y95.765 E0.02838
G1 X117.935 Y95.257 E0.02461
G1 X118.623 Y94.793 E0.02472
G1 X119.545 Y94.273 E0.03155
G1 X120.507 Y93.835 E0.03149
G1 X121.405 Y93.515 E0.02839
G1 X122.201 Y93.295 E0.02462
G1 X123.014 Y93.130 E0.02472
G1 X124.069 Y93.001 E0.03164
G1 X125.127 Y92.966 E0.03153
G1 X125.954 Y93.003 E0.02468
G1 X126.776 Y93.097 E0.02464
G1 X127.697 Y93.271 E0.02792
G1 X128.727 Y93.557 E0.03184
G1 X129.718 Y93.928 E0.03150
G1 X130.579 Y94.337 E0.02838
G1 X131.297 Y94.744 E0.02461
G1 X131.989 Y95.202 E0.02472
G1 X132.823 Y95.854 E0.03152
G1 X133.586 Y96.566 E0.03108
G1 X134.147 Y97.179 E0.02476
G1 X134.672 Y97.838 E0.02508
G1 X135.201 Y98.614 E0.02798
G1 X135.727 Y99.544 E0.03185
G1 X136.165 Y100.507 E0.03150
G1 X136.485 Y101.404 E0.02838
G1 X136.705 Y102.201 E0.02461
G1 X136.870 Y103.014 E0.02472
G1 X136.998 Y104.065 E0.03153
G1 X137.035 Y105.107 E0.03107
G1 X136.998 Y105.938 E0.02476
G1 X136.904 Y106.774 E0.02508
G1 X136.729 Y107.697 E0.02798
G1 X136.443 Y108.727 E0.03185
G1 X136.072 Y109.718 E0.03150
G1 X135.664 Y110.578 E0.02838
G1 X135.256 Y111.297 E0.02461
G1 X134.798 Y111.989 E0.02472
G1 X134.146 Y112.823 E0.03153
G1 X133.434 Y113.585 E0.03106
G1 X132.822 Y114.147 E0.02475
G1 X132.163 Y114.671 E0.02509
G1 X131.387 Y115.201 E0.02798
G1 X130.472 Y115.719 E0.03132
G1 X129.507 Y116.159 E0.03160
G1 X128.725 Y116.444 E0.02477
G1 X127.916 Y116.676 E0.02508
G1 X126.997 Y116.868 E0.02797
G1 X125.936 Y116.998 E0.03183
G1 X124.885 Y117.034 E0.03135
G1 X123.946 Y116.989 E0.02799
G1 X123.110 Y116.886 E0.02509
G1 X122.294 Y116.727 E0.02476
G1 X121.273 Y116.443 E0.03158
G1 X120.288 Y116.074 E0.03132
G1 X119.439 Y115.673 E0.02797
G1 X118.706 Y115.258 E0.02508
G1 X118.013 Y114.799 E0.02476
G1 X117.190 Y114.157 E0.03108
G1 X116.415 Y113.435 E0.03156
G1 X115.853 Y112.822 E0.02476
G1 X115.329 Y112.163 E0.02509
G1 X114.799 Y111.386 E0.02799
G1 X114.273 Y110.456 E0.03185
G1 X113.835 Y109.493 E0.03150
G1 X113.515 Y108.596 E0.02838
G1 X113.295 Y107.799 E0.02461
G1 X113.130 Y106.986 E0.02472
G1 X113.001 Y105.935 E0.03155
G1 X112.966 Y104.878 E0.03148
G1 X113.013 Y103.927 E0.02838
G1 X113.115 Y103.107 E0.02462
G1 X113.273 Y102.292 E0.02471
G1 X113.557 Y101.272 E0.03154
G1 X113.928 Y100.282 E0.03149
G1 X114.337 Y99.421 E0.02839
G1 X114.744 Y98.702 E0.02462
G1 X115.061 Y98.224 E0.01711
G1 X115.375 Y98.432 F10800.000
G1 F1200.000
G1 X115.513 Y98.225 E0.00739
G1 X116.136 Y97.428 E0.03015
G1 X116.835 Y96.679 E0.03053
G1 X117.520 Y96.059 E0.02752
G1 X118.161 Y95.559 E0.02421
G1 X118.827 Y95.110 E0.02391
G1 X119.708 Y94.612 E0.03016
G1 X120.641 Y94.188 E0.03053
G1 X121.512 Y93.877 E0.02753
G1 X122.295 Y93.660 E0.02421
G1 X123.082 Y93.501 E0.02391
G1 X124.090 Y93.378 E0.03024
M73 Q1 S36
G1 X125.118 Y93.343 E0.03063
G1 X125.918 Y93.378 E0.02387
G1 X126.727 Y93.471 E0.02423
G1 X127.619 Y93.640 E0.02707
G1 X128.603 Y93.913 E0.03041
G1 X129.563 Y94.272 E0.03055
M73 P1 R36
G1 X130.399 Y94.668 E0.02752
G1 X131.106 Y95.069 E0.02421
G1 X131.775 Y95.512 E0.02391
G1 X132.572 Y96.136 E0.03014
G1 X133.313 Y96.826 E0.03017
G1 X133.865 Y97.429 E0.02434
G1 X134.372 Y98.067 E0.02428
G1 X134.885 Y98.819 E0.02712
G1 X135.387 Y99.708 E0.03041
G1 X135.812 Y100.641 E0.03054
G1 X136.123 Y101.511 E0.02752
G1 X136.340 Y102.295 E0.02420
G1 X136.499 Y103.082 E0.02391
G1 X136.622 Y104.086 E0.03015
G1 X136.658 Y105.098 E0.03017
G1 X136.622 Y105.914 E0.02434
G1 X136.530 Y106.725 E0.02429
G1 X136.360 Y107.619 E0.02712
G1 X136.087 Y108.603 E0.03041
G1 X135.728 Y109.563 E0.03054
G1 X135.332 Y110.398 E0.02752
G1 X134.931 Y111.105 E0.02420
G1 X134.488 Y111.774 E0.02391
G1 X133.864 Y112.571 E0.03014
G1 X133.174 Y113.312 E0.03016
G1 X132.572 Y113.864 E0.02433
G1 X131.934 Y114.372 E0.02430
G1 X131.181 Y114.884 E0.02712
G1 X130.293 Y115.387 E0.03038
G1 X129.371 Y115.808 E0.03020
G1 X128.603 Y116.087 E0.02435
G1 X127.819 Y116.312 E0.02428
G1 X126.928 Y116.497 E0.02712
G1 X125.915 Y116.622 E0.03040
G1 X124.895 Y116.657 E0.03040
G1 X123.985 Y116.614 E0.02713
G1 X123.176 Y116.514 E0.02429
G1 X122.373 Y116.358 E0.02435
G1 X121.397 Y116.087 E0.03019
G1 X120.441 Y115.730 E0.03038
G1 X119.618 Y115.341 E0.02711
G1 X118.909 Y114.940 E0.02429
G1 X118.227 Y114.489 E0.02434
G1 X117.429 Y113.865 E0.03017
G1 X116.688 Y113.174 E0.03017
G1 X116.136 Y112.572 E0.02434
G1 X115.628 Y111.934 E0.02430
G1 X115.115 Y111.181 E0.02714
G1 X114.613 Y110.292 E0.03041
G1 X114.188 Y109.359 E0.03054
G1 X113.877 Y108.489 E0.02752
G1 X113.660 Y107.705 E0.02420
G1 X113.501 Y106.918 E0.02391
G1 X113.378 Y105.913 E0.03016
G1 X113.343 Y104.889 E0.03053
G1 X113.389 Y103.966 E0.02753
G1 X113.488 Y103.159 E0.02421
G1 X113.642 Y102.372 E0.02390
G1 X113.913 Y101.397 E0.03015
G1 X114.272 Y100.437 E0.03053
G1 X114.668 Y99.601 E0.02753
G1 X115.069 Y98.894 E0.02421
G1 X115.342 Y98.482 E0.01473
G1 X115.657 Y98.690 F10800.000
G1 F1200.000
G1 X115.823 Y98.440 E0.00895
G1 X116.428 Y97.667 E0.02924
G1 X117.095 Y96.953 E0.02910
G1 X117.758 Y96.351 E0.02667
G1 X118.377 Y95.868 E0.02341
G1 X119.031 Y95.427 E0.02349
G1 X119.887 Y94.945 E0.02925
G1 X120.776 Y94.540 E0.02910
G1 X121.619 Y94.238 E0.02668
G1 X122.377 Y94.028 E0.02341
G1 X123.150 Y93.872 E0.02349
G1 X124.127 Y93.753 E0.02933
G1 X125.108 Y93.720 E0.02925
G1 X125.895 Y93.755 E0.02345
G1 X126.677 Y93.844 E0.02343
G1 X127.541 Y94.009 E0.02621
G1 X128.494 Y94.274 E0.02947
G1 X129.409 Y94.617 E0.02911
G1 X130.219 Y95.000 E0.02667
G1 X130.903 Y95.387 E0.02341
G1 X131.560 Y95.823 E0.02349
G1 X132.333 Y96.428 E0.02923
G1 X133.040 Y97.086 E0.02879
G1 X133.582 Y97.679 E0.02392
G1 X134.073 Y98.296 E0.02348
G1 X134.568 Y99.025 E0.02626
G1 X135.055 Y99.886 E0.02947
G1 X135.460 Y100.776 E0.02911
G1 X135.762 Y101.619 E0.02667
G1 X135.971 Y102.376 E0.02341
G1 X136.128 Y103.149 E0.02349
G1 X136.247 Y104.124 E0.02924
G1 X136.281 Y105.089 E0.02879
G1 X136.247 Y105.878 E0.02353
G1 X136.156 Y106.675 E0.02388
G1 X135.991 Y107.541 E0.02626
G1 X135.726 Y108.494 E0.02947
G1 X135.383 Y109.409 E0.02911
G1 X135.001 Y110.219 E0.02667
G1 X134.613 Y110.902 E0.02340
G1 X134.178 Y111.560 E0.02349
G1 X133.572 Y112.333 E0.02924
G1 X132.914 Y113.039 E0.02878
G1 X132.332 Y113.573 E0.02352
G1 X131.704 Y114.072 E0.02389
G1 X130.975 Y114.568 E0.02626
G1 X130.129 Y115.047 E0.02896
G1 X129.235 Y115.456 E0.02929
G1 X128.480 Y115.731 E0.02393
G1 X127.722 Y115.948 E0.02348
G1 X126.859 Y116.127 E0.02626
G1 X125.877 Y116.247 E0.02945
G1 X124.905 Y116.280 E0.02898
G1 X124.024 Y116.239 E0.02627
G1 X123.241 Y116.143 E0.02349
G1 X122.453 Y115.990 E0.02392
G1 X121.506 Y115.726 E0.02928
G1 X120.595 Y115.385 E0.02897
G1 X119.798 Y115.010 E0.02625
G1 X119.100 Y114.615 E0.02388
G1 X118.442 Y114.179 E0.02353
G1 X117.680 Y113.583 E0.02879
G1 X116.961 Y112.914 E0.02927
G1 X116.427 Y112.332 E0.02352
G1 X115.928 Y111.704 E0.02388
G1 X115.432 Y110.975 E0.02627
G1 X114.945 Y110.114 E0.02947
G1 X114.540 Y109.224 E0.02911
G1 X114.238 Y108.381 E0.02667
G1 X114.029 Y107.624 E0.02341
G1 X113.872 Y106.851 E0.02349
G1 X113.753 Y105.876 E0.02925
G1 X113.720 Y104.900 E0.02910
G1 X113.764 Y104.005 E0.02667
G1 X113.860 Y103.225 E0.02341
G1 X114.011 Y102.451 E0.02348
G1 X114.274 Y101.506 E0.02924
G1 X114.617 Y100.591 E0.02910
G1 X115.000 Y99.781 E0.02668
G1 X115.387 Y99.097 E0.02341
G1 X115.623 Y98.740 E0.01275
G1 X115.937 Y98.949 F10800.000
G1 F1200.000
G1 X116.133 Y98.655 E0.01052
G1 X116.709 Y97.918 E0.02787
G1 X117.354 Y97.227 E0.02815
G1 X117.996 Y96.644 E0.02581
G1 X118.604 Y96.169 E0.02300
G1 X119.236 Y95.744 E0.02267
G1 X120.050 Y95.284 E0.02787
G1 X120.911 Y94.892 E0.02816
G1 X121.727 Y94.600 E0.02582
G1 X122.471 Y94.394 E0.02300
G1 X123.217 Y94.243 E0.02267
G1 X124.148 Y94.130 E0.02794
G1 X125.099 Y94.097 E0.02835
G1 X125.859 Y94.130 E0.02264
G1 X126.627 Y94.218 E0.02302
G1 X127.463 Y94.378 E0.02535
G1 X128.370 Y94.630 E0.02805
G1 X129.256 Y94.961 E0.02817
G1 X130.039 Y95.331 E0.02582
G1 X130.700 Y95.705 E0.02260
G1 X131.345 Y96.133 E0.02307
G1 X132.082 Y96.709 E0.02785
G1 X132.767 Y97.347 E0.02788
G1 X133.291 Y97.918 E0.02310
G1 X133.773 Y98.525 E0.02307
G1 X134.252 Y99.230 E0.02540
G1 X134.715 Y100.050 E0.02805
G1 X135.108 Y100.911 E0.02816
G1 X135.400 Y101.726 E0.02581
G1 X135.606 Y102.470 E0.02300
G1 X135.757 Y103.217 E0.02268
G1 X135.870 Y104.145 E0.02786
G1 X135.904 Y105.081 E0.02788
G1 X135.870 Y105.855 E0.02310
G1 X135.782 Y106.625 E0.02307
G1 X135.622 Y107.462 E0.02540
G1 X135.370 Y108.370 E0.02805
G1 X135.039 Y109.256 E0.02816
G1 X134.669 Y110.039 E0.02581
G1 X134.289 Y110.711 E0.02299
G1 X133.868 Y111.345 E0.02268
G1 X133.291 Y112.082 E0.02786
G1 X132.653 Y112.767 E0.02787
G1 X132.082 Y113.291 E0.02309
G1 X131.475 Y113.773 E0.02308
G1 X130.770 Y114.252 E0.02540
G1 X129.951 Y114.715 E0.02803
G1 X129.099 Y115.104 E0.02790
G1 X128.370 Y115.370 E0.02311
G1 X127.625 Y115.583 E0.02307
G1 X126.790 Y115.756 E0.02540
G1 X125.856 Y115.870 E0.02804
G1 X124.915 Y115.903 E0.02805
G1 X124.063 Y115.863 E0.02541
G1 X123.294 Y115.769 E0.02307
G1 X122.532 Y115.621 E0.02310
G1 X121.630 Y115.370 E0.02789
G1 X120.748 Y115.041 E0.02803
G1 X119.977 Y114.678 E0.02539
G1 X119.303 Y114.297 E0.02307
G1 X118.656 Y113.868 E0.02311
G1 X117.919 Y113.291 E0.02789
G1 X117.234 Y112.653 E0.02788
G1 X116.709 Y112.082 E0.02310
G1 X116.227 Y111.475 E0.02308
G1 X115.748 Y110.770 E0.02541
G1 X115.285 Y109.950 E0.02805
G1 X114.892 Y109.089 E0.02816
G1 X114.600 Y108.274 E0.02581
G1 X114.394 Y107.530 E0.02300
G1 X114.243 Y106.783 E0.02268
G1 X114.130 Y105.855 E0.02787
G1 X114.097 Y104.910 E0.02816
G1 X114.139 Y104.044 E0.02581
G1 X114.233 Y103.278 E0.02300
G1 X114.379 Y102.531 E0.02267
G1 X114.630 Y101.630 E0.02786
