; generated by PrusaSlicer 2.3.1+x64 on 2021-07-27 at 23:46:50 UTC

; 

; external perimeters extrusion width = 0.45mm
; perimeters extrusion width = 0.45mm
; infill extrusion width = 0.45mm
; solid infill extrusion width = 0.45mm
; top infill extrusion width = 0.40mm
; first layer extrusion width = 0.42mm

M73 P0 R67
M73 Q0 S67
M201 X1000 Y1000 Z200 E5000 ; sets maximum accelerations, mm/sec^2
M203 X200 Y200 Z12 E120 ; sets maximum feedrates, mm/sec
M204 P1250 R1250 T1250 ; sets acceleration (P, T) and retract acceleration (R), mm/sec^2
M205 X8.00 Y8.00 Z0.40 E4.50 ; sets the jerk limits, mm/sec
M205 S0 T0 ; sets the minimum extruding and travel feed rate, mm/sec
M107
;TYPE:Custom
M862.3 P "MK3S" ; printer model check
M862.1 P0.4 ; nozzle diameter check
M115 U3.10.0 ; tell printer latest fw version
G90 ; use absolute coordinates
M83 ; extruder relative mode
M104 S260 ; set extruder temp
M140 S50 ; set bed temp
M190 S50 ; wait for bed temp
M109 S260 ; wait for extruder temp
G28 W ; home all without mesh bed level
G80 ; mesh bed leveling
G1 Y-3.0 F1000.0 ; go outside print area
G92 E0.0
G1 X60.0 E9.0 F1000.0 ; intro line
G1 X100.0 E12.5 F1000.0 ; intro line
G92 E0.0
M221 S95

; Don't change E values below. Excessive value can damage the printer.
M907 E430 ; set extruder motor current
G21 ; set units to millimeters
G90 ; use absolute coordinates
M83 ; use relative distances for extrusion
M900 K0
;LAYER_CHANGE
;Z:0.2
;HEIGHT:0.2
;BEFORE_LAYER_CHANGE
G92 E0.0
;0.2


G1 Z0.200 F10800.000
;AFTER_LAYER_CHANGE
;0.2
G1 X54.476 Y40.806
M204 S1000
;TYPE:Skirt
;WIDTH:0.42
G1 F900.000
G1 X54.845 Y40.314 E0.02217
G1 X56.285 Y38.654 E0.07923
G1 X57.839 Y37.054 E0.08044
G1 X59.483 Y35.545 E0.08044
G1 X61.183 Y34.154 E0.07920
G1 X63.973 Y32.187 E0.12308
G1 X65.855 Y31.053 E0.07923
G1 X67.828 Y30.012 E0.08044
G1 X69.857 Y29.086 E0.08044
G1 X71.904 Y28.288 E0.07920
G1 X75.165 Y27.280 E0.12308
G1 X77.306 Y26.783 E0.07923
G1 X79.485 Y26.405 E0.07975
G1 X81.754 Y26.145 E0.08234
G1 X85.051 Y26.005 E0.11902
G1 X164.938 Y26.005 E2.88049
M73 P0 R66
G1 X168.277 Y26.148 E0.12051
G1 X171.595 Y26.577 E0.12064
G1 X174.864 Y27.288 E0.12064
G1 X178.061 Y28.276 E0.12064
G1 X181.161 Y29.535 E0.12064
G1 X184.142 Y31.054 E0.12064
G1 X186.982 Y32.822 E0.12064
G1 X189.634 Y34.806 E0.11940
G1 X192.155 Y37.052 E0.12174
G1 X194.432 Y39.461 E0.11954
G1 X195.887 Y41.240 E0.08289
G1 X197.813 Y43.977 E0.12064
G1 X199.481 Y46.838 E0.11943
G1 X200.914 Y49.861 E0.12064
G1 X202.084 Y52.996 E0.12064
G1 X202.982 Y56.227 E0.12091
G1 X203.423 Y58.406 E0.08016
G1 X203.741 Y60.614 E0.08044
G1 X203.932 Y62.837 E0.08044
G1 X203.995 Y65.040 E0.07948
G1 X203.995 Y144.934 E2.88077
M73 Q0 S66
G1 X203.932 Y147.153 E0.08004
G1 X203.737 Y149.420 E0.08206
G1 X203.224 Y152.658 E0.11819
G1 X202.712 Y154.864 E0.08167
G1 X202.073 Y157.037 E0.08165
G1 X200.927 Y160.108 E0.11819
G1 X199.987 Y162.169 E0.08168
G1 X198.930 Y164.171 E0.08165
G1 X197.186 Y166.969 E0.11888
G1 X195.866 Y168.787 E0.08099
G1 X194.454 Y170.514 E0.08044
G1 X192.946 Y172.157 E0.08044
G1 X191.346 Y173.712 E0.08044
G1 X189.660 Y175.173 E0.08044
G1 X187.893 Y176.535 E0.08044
G1 X186.052 Y177.795 E0.08044
G1 X184.171 Y178.930 E0.07920
G1 X180.846 Y180.604 E0.13425
G1 X179.098 Y181.337 E0.06833
G1 X176.972 Y182.094 E0.08138
G1 X174.864 Y182.712 E0.07923
G1 X172.691 Y183.217 E0.08044
G1 X170.493 Y183.598 E0.08044
G1 X168.253 Y183.854 E0.08126
G1 X164.937 Y183.995 E0.11968
G1 X85.062 Y183.995 E2.88008
G1 X82.817 Y183.931 E0.08100
G1 X79.537 Y183.602 E0.11886
G1 X77.305 Y183.217 E0.08168
G1 X75.100 Y182.703 E0.08165
G1 X71.968 Y181.735 E0.11819
G1 X69.857 Y180.914 E0.08167
G1 X67.797 Y179.972 E0.08165
G1 X64.920 Y178.401 E0.11819
G1 X63.027 Y177.186 E0.08113
G1 X61.209 Y175.866 E0.08099
G1 X59.482 Y174.454 E0.08044
G1 X57.839 Y172.946 E0.08044
G1 X56.284 Y171.346 E0.08044
G1 X54.823 Y169.660 E0.08044
G1 X53.461 Y167.893 E0.08044
G1 X52.202 Y166.052 E0.08044
G1 X51.067 Y164.171 E0.07920
G1 X50.010 Y162.172 E0.08154
G1 X49.096 Y160.170 E0.07934
G1 X47.903 Y156.972 E0.12308
G1 X47.284 Y154.864 E0.07923
G1 X46.779 Y152.691 E0.08044
G1 X46.399 Y150.493 E0.08044
G1 X46.142 Y148.253 E0.08126
G1 X46.001 Y144.937 E0.11968
G1 X46.001 Y65.066 E2.87995
M73 P1 R66
M73 Q1 S66
G1 X46.066 Y62.821 E0.08100
G1 X46.394 Y59.541 E0.11885
G1 X46.779 Y57.309 E0.08168
G1 X47.293 Y55.103 E0.08165
G1 X48.262 Y51.972 E0.11819
G1 X49.082 Y49.860 E0.08168
G1 X50.023 Y47.804 E0.08154
G1 X51.595 Y44.924 E0.11831
G1 X52.810 Y43.031 E0.08113
G1 X54.440 Y40.854 E0.09806
; printing object Flood Dog v20 v14 _Flood Dog v20 v14_Project Case_1_Gasket_Project Case.stl id:2 copy 0
G1 X57.213 Y43.055 F10800.000
;TYPE:External perimeter
G1 F900.000
G1 X57.580 Y42.593 E0.02131
G1 X58.672 Y41.325 E0.06031
G1 X59.603 Y40.325 E0.04928
G1 X60.320 Y39.607 E0.03659
G1 X61.058 Y38.911 E0.03656
G1 X61.814 Y38.236 E0.03656
G1 X62.590 Y37.583 E0.03656
G1 X63.384 Y36.953 E0.03656
G1 X64.195 Y36.345 E0.03656
G1 X65.024 Y35.761 E0.03656
G1 X65.869 Y35.201 E0.03656
G1 X66.730 Y34.665 E0.03656
G1 X67.605 Y34.154 E0.03656
G1 X68.495 Y33.668 E0.03656
G1 X69.399 Y33.208 E0.03656
G1 X70.315 Y32.773 E0.03656
G1 X71.243 Y32.365 E0.03656
G1 X72.182 Y31.984 E0.03656
G1 X73.133 Y31.629 E0.03660
G1 X74.723 Y31.108 E0.06031
G1 X76.037 Y30.732 E0.04929
G1 X77.022 Y30.488 E0.03659
G1 X78.012 Y30.272 E0.03656
G1 X79.009 Y30.085 E0.03656
G1 X80.010 Y29.926 E0.03656
G1 X81.016 Y29.796 E0.03656
G1 X82.024 Y29.695 E0.03656
G1 X83.037 Y29.623 E0.03660
G1 X84.709 Y29.570 E0.06031
G1 X86.075 Y29.580 E0.04929
G1 X87.089 Y29.623 E0.03659
G1 X88.101 Y29.695 E0.03656
G1 X89.109 Y29.796 E0.03656
G1 X90.115 Y29.926 E0.03656
G1 X91.116 Y30.085 E0.03656
G1 X92.113 Y30.272 E0.03656
G1 X93.105 Y30.488 E0.03660
G1 X94.723 Y30.908 E0.06031
G1 X96.032 Y31.302 E0.04929
G1 X96.993 Y31.630 E0.03659
G1 X97.943 Y31.984 E0.03656
G1 X98.882 Y32.365 E0.03656
G1 X99.810 Y32.773 E0.03656
G1 X100.726 Y33.208 E0.03656
G1 X101.630 Y33.668 E0.03656
G1 X102.520 Y34.154 E0.03656
G1 X103.395 Y34.665 E0.03656
G1 X104.256 Y35.201 E0.03656
G1 X105.101 Y35.761 E0.03656
G1 X105.930 Y36.345 E0.03656
G1 X106.741 Y36.953 E0.03656
G1 X107.535 Y37.583 E0.03656
G1 X108.311 Y38.236 E0.03656
G1 X109.067 Y38.911 E0.03656
G1 X109.805 Y39.607 E0.03656
G1 X110.521 Y40.324 E0.03656
G1 X111.218 Y41.061 E0.03656
G1 X111.892 Y41.818 E0.03656
G1 X112.545 Y42.594 E0.03656
G1 X113.176 Y43.388 E0.03656
G1 X113.783 Y44.199 E0.03656
G1 X114.368 Y45.028 E0.03656
G1 X114.928 Y45.873 E0.03656
G1 X115.464 Y46.733 E0.03656
G1 X115.975 Y47.609 E0.03656
G1 X116.461 Y48.499 E0.03656
G1 X116.921 Y49.402 E0.03656
G1 X117.355 Y50.318 E0.03656
G1 X117.763 Y51.247 E0.03656
G1 X118.145 Y52.186 E0.03656
G1 X118.499 Y53.136 E0.03656
G1 X118.826 Y54.096 E0.03656
G1 X119.126 Y55.065 E0.03658
G1 X119.479 Y56.370 E0.04875
G1 X119.856 Y58.015 E0.06085
G1 X120.044 Y59.012 E0.03660
G1 X120.202 Y60.014 E0.03656
G1 X120.332 Y61.019 E0.03656
G1 X120.433 Y62.028 E0.03656
G1 X120.506 Y63.039 E0.03656
G1 X120.549 Y64.052 E0.03656
G1 X120.564 Y65.066 E0.03656
G1 X120.549 Y66.080 E0.03656
G1 X120.506 Y67.093 E0.03656
G1 X120.433 Y68.104 E0.03656
G1 X120.332 Y69.114 E0.03660
G1 X120.099 Y70.770 E0.06031
G1 X119.856 Y72.117 E0.04933
G1 X119.479 Y73.762 E0.06087
G1 X119.126 Y75.067 E0.04875
G1 X118.826 Y76.037 E0.03658
G1 X118.499 Y76.996 E0.03656
G1 X118.145 Y77.946 E0.03656
G1 X117.763 Y78.886 E0.03656
G1 X117.355 Y79.814 E0.03656
G1 X116.921 Y80.730 E0.03656
G1 X116.461 Y81.633 E0.03656
G1 X115.975 Y82.523 E0.03656
G1 X115.464 Y83.399 E0.03656
G1 X114.928 Y84.260 E0.03656
G1 X114.367 Y85.106 E0.03660
G1 X113.379 Y86.474 E0.06085
G1 X112.546 Y87.538 E0.04875
G1 X111.892 Y88.314 E0.03658
G1 X111.218 Y89.071 E0.03656
G1 X110.521 Y89.808 E0.03656
G1 X109.805 Y90.525 E0.03656
G1 X109.067 Y91.221 E0.03656
G1 X108.311 Y91.896 E0.03656
G1 X107.535 Y92.549 E0.03656
G1 X106.741 Y93.180 E0.03656
G1 X105.930 Y93.787 E0.03656
G1 X105.101 Y94.371 E0.03656
G1 X104.256 Y94.932 E0.03656
G1 X103.395 Y95.467 E0.03656
G1 X102.520 Y95.979 E0.03656
G1 X101.630 Y96.464 E0.03656
G1 X100.726 Y96.925 E0.03656
G1 X99.810 Y97.359 E0.03656
G1 X98.882 Y97.767 E0.03656
G1 X97.943 Y98.148 E0.03656
G1 X96.993 Y98.503 E0.03656
G1 X96.033 Y98.830 E0.03656
G1 X95.063 Y99.130 E0.03660
G1 X93.447 Y99.560 E0.06031
G1 X92.113 Y99.860 E0.04929
G1 X91.116 Y100.047 E0.03659
G1 X90.115 Y100.206 E0.03656
G1 X89.109 Y100.336 E0.03656
G1 X88.101 Y100.437 E0.03656
G1 X87.089 Y100.509 E0.03656
G1 X86.076 Y100.553 E0.03656
G1 X85.061 Y100.567 E0.03660
G1 X83.389 Y100.525 E0.06031
G1 X82.025 Y100.437 E0.04928
G1 X81.016 Y100.336 E0.03659
G1 X80.010 Y100.206 E0.03656
G1 X79.009 Y100.047 E0.03656
G1 X78.012 Y99.860 E0.03656
G1 X77.022 Y99.645 E0.03656
G1 X76.037 Y99.401 E0.03656
G1 X75.061 Y99.129 E0.03656
G1 X74.092 Y98.830 E0.03656
G1 X73.132 Y98.503 E0.03656
G1 X72.182 Y98.148 E0.03656
G1 X71.242 Y97.767 E0.03658
G1 X70.009 Y97.214 E0.04875
G1 X68.496 Y96.465 E0.06085
G1 X67.605 Y95.979 E0.03660
G1 X66.730 Y95.467 E0.03656
G1 X65.869 Y94.932 E0.03656
G1 X65.024 Y94.371 E0.03658
G1 X63.924 Y93.584 E0.04875
G1 X62.591 Y92.550 E0.06085
G1 X61.814 Y91.896 E0.03660
G1 X61.057 Y91.220 E0.03660
G1 X59.854 Y90.058 E0.06031
G1 X58.908 Y89.072 E0.04929
G1 X58.233 Y88.314 E0.03659
G1 X57.580 Y87.539 E0.03656
G1 X56.949 Y86.745 E0.03656
G1 X56.342 Y85.933 E0.03656
G1 X55.757 Y85.105 E0.03656
G1 X55.197 Y84.260 E0.03656
G1 X54.661 Y83.399 E0.03656
G1 X54.150 Y82.523 E0.03656
G1 X53.664 Y81.633 E0.03656
G1 X53.204 Y80.730 E0.03656
G1 X52.770 Y79.814 E0.03656
G1 X52.362 Y78.886 E0.03656
G1 X51.980 Y77.946 E0.03656
G1 X51.626 Y76.996 E0.03656
G1 X51.299 Y76.037 E0.03656
G1 X50.999 Y75.068 E0.03656
G1 X50.728 Y74.091 E0.03656
G1 X50.484 Y73.107 E0.03656
G1 X50.269 Y72.116 E0.03656
G1 X50.081 Y71.120 E0.03656
G1 X49.923 Y70.118 E0.03656
G1 X49.793 Y69.113 E0.03656
G1 X49.692 Y68.104 E0.03656
G1 X49.619 Y67.093 E0.03656
G1 X49.576 Y66.080 E0.03656
G1 X49.561 Y65.066 E0.03656
G1 X49.576 Y64.052 E0.03656
G1 X49.619 Y63.039 E0.03656
G1 X49.692 Y62.028 E0.03656
G1 X49.793 Y61.019 E0.03656
G1 X49.923 Y60.013 E0.03658
G1 X50.144 Y58.679 E0.04875
G1 X50.484 Y57.026 E0.06085
G1 X50.728 Y56.041 E0.03660
G1 X51.000 Y55.064 E0.03658
G1 X51.408 Y53.775 E0.04875
G1 X51.980 Y52.187 E0.06085
G1 X52.362 Y51.247 E0.03660
G1 X52.770 Y50.318 E0.03656
G1 X53.204 Y49.402 E0.03656
G1 X53.664 Y48.499 E0.03656
G1 X54.150 Y47.609 E0.03656
G1 X54.661 Y46.733 E0.03656
G1 X55.197 Y45.873 E0.03656
G1 X55.757 Y45.028 E0.03656
G1 X56.342 Y44.199 E0.03656
G1 X57.175 Y43.102 E0.04968
G1 X57.062 Y42.685 F10800.000
G1 X56.886 Y42.867
G1 F900.000
G1 X57.728 Y41.832 E0.04813
G1 X58.630 Y40.806 E0.04925
G1 X59.333 Y40.061 E0.03692
G1 X60.058 Y39.337 E0.03695
G1 X60.803 Y38.633 E0.03695
G1 X61.566 Y37.952 E0.03690
G1 X62.887 Y36.866 E0.06165
G1 X63.974 Y36.040 E0.04925
G1 X64.811 Y35.450 E0.03692
G1 X65.665 Y34.884 E0.03695
G1 X66.535 Y34.342 E0.03695
G1 X67.419 Y33.826 E0.03690
G1 X68.929 Y33.024 E0.06165
G1 X70.159 Y32.430 E0.04925
G1 X71.096 Y32.018 E0.03692
G1 X72.046 Y31.633 E0.03695
G1 X73.006 Y31.275 E0.03695
G1 X73.974 Y30.944 E0.03690
G1 X75.613 Y30.458 E0.06165
G1 X76.937 Y30.120 E0.04925
G1 X77.937 Y29.903 E0.03692
G1 X78.944 Y29.714 E0.03692
G1 X80.294 Y29.510 E0.04925
G1 X81.993 Y29.320 E0.06165
G1 X83.014 Y29.246 E0.03690
G1 X84.037 Y29.203 E0.03691
G1 X85.508 Y29.194 E0.05303
G1 X87.112 Y29.247 E0.05787
G1 X88.133 Y29.320 E0.03691
G1 X89.151 Y29.422 E0.03691
G1 X90.608 Y29.623 E0.05303
G1 X92.189 Y29.903 E0.05787
G1 X93.189 Y30.120 E0.03691
G1 X94.183 Y30.367 E0.03695
G1 X95.171 Y30.641 E0.03695
G1 X96.023 Y30.905 E0.03216
G1 X97.120 Y31.275 E0.04175
G1 X98.079 Y31.633 E0.03693
G1 X99.029 Y32.018 E0.03695
G1 X99.967 Y32.430 E0.03695
G1 X100.892 Y32.869 E0.03691
G1 X102.196 Y33.548 E0.05303
G1 X103.591 Y34.342 E0.05787
G1 X104.460 Y34.884 E0.03691
G1 X105.314 Y35.450 E0.03695
G1 X106.151 Y36.040 E0.03695
G1 X106.970 Y36.653 E0.03690
G1 X108.297 Y37.732 E0.06165
G1 X109.323 Y38.634 E0.04925
G1 X110.067 Y39.337 E0.03692
G1 X110.792 Y40.061 E0.03695
G1 X111.495 Y40.806 E0.03695
G1 X112.177 Y41.570 E0.03690
G1 X113.263 Y42.891 E0.06165
G1 X114.089 Y43.978 E0.04925
G1 X114.679 Y44.815 E0.03692
G1 X115.244 Y45.668 E0.03690
G1 X116.132 Y47.130 E0.06165
G1 X116.795 Y48.324 E0.04925
G1 X117.260 Y49.236 E0.03692
G1 X117.698 Y50.161 E0.03692
G1 X118.239 Y51.415 E0.04925
G1 X118.855 Y53.010 E0.06165
G1 X119.185 Y53.979 E0.03690
G1 X119.487 Y54.957 E0.03690
G1 X119.926 Y56.609 E0.06165
G1 X120.226 Y57.942 E0.04925
G1 X120.415 Y58.948 E0.03692
G1 X120.575 Y59.959 E0.03690
G1 X120.775 Y61.657 E0.06165
G1 X120.882 Y63.019 E0.04925
G1 X120.926 Y64.042 E0.03692
G1 X120.941 Y65.066 E0.03695
G1 X120.926 Y66.091 E0.03695
G1 X120.882 Y67.114 E0.03692
G1 X120.775 Y68.475 E0.04925
G1 X120.575 Y70.173 E0.06165
G1 X120.415 Y71.184 E0.03690
G1 X120.226 Y72.191 E0.03695
G1 X120.008 Y73.192 E0.03695
G1 X119.762 Y74.186 E0.03692
G1 X119.387 Y75.500 E0.04925
G1 X118.854 Y77.124 E0.06165
G1 X118.496 Y78.083 E0.03690
G1 X118.111 Y79.032 E0.03695
G1 X117.698 Y79.971 E0.03695
G1 X117.260 Y80.895 E0.03690
G1 X116.466 Y82.410 E0.06165
G1 X115.786 Y83.594 E0.04925
G1 X115.245 Y84.463 E0.03692
G1 X114.679 Y85.317 E0.03692
G1 X113.884 Y86.427 E0.04925
G1 X112.837 Y87.778 E0.06165
G1 X112.177 Y88.561 E0.03690
G1 X111.496 Y89.326 E0.03692
G1 X110.551 Y90.312 E0.04925
G1 X109.322 Y91.500 E0.06165
G1 X108.558 Y92.181 E0.03690
G1 X107.775 Y92.840 E0.03690
G1 X106.424 Y93.888 E0.06165
G1 X105.313 Y94.683 E0.04925
G1 X104.460 Y95.249 E0.03692
G1 X103.591 Y95.790 E0.03690
G1 X102.105 Y96.635 E0.06165
G1 X100.892 Y97.264 E0.04925
G1 X99.967 Y97.702 E0.03692
G1 X99.029 Y98.114 E0.03695
G1 X98.079 Y98.500 E0.03695
G1 X97.120 Y98.857 E0.03690
G1 X95.496 Y99.390 E0.06165
G1 X94.183 Y99.766 E0.04925
G1 X93.189 Y100.012 E0.03692
G1 X92.188 Y100.230 E0.03695
G1 X91.181 Y100.419 E0.03695
G1 X90.170 Y100.579 E0.03690
G1 X88.472 Y100.779 E0.06165
G1 X87.110 Y100.886 E0.04925
G1 X86.087 Y100.930 E0.03692
G1 X85.062 Y100.944 E0.03695
G1 X84.038 Y100.930 E0.03695
G1 X83.015 Y100.886 E0.03692
G1 X81.653 Y100.779 E0.04925
G1 X79.955 Y100.579 E0.06165
G1 X78.944 Y100.419 E0.03690
G1 X77.937 Y100.230 E0.03695
G1 X76.936 Y100.012 E0.03695
G1 X75.942 Y99.766 E0.03692
G1 X74.629 Y99.390 E0.04925
G1 X73.005 Y98.857 E0.06165
G1 X72.046 Y98.500 E0.03690
G1 X71.096 Y98.114 E0.03695
G1 X70.158 Y97.702 E0.03695
G1 X69.233 Y97.264 E0.03690
G1 X67.719 Y96.470 E0.06165
G1 X66.534 Y95.790 E0.04925
G1 X65.665 Y95.249 E0.03692
G1 X64.812 Y94.683 E0.03692
G1 X63.701 Y93.888 E0.04925
G1 X62.350 Y92.840 E0.06165
G1 X61.567 Y92.181 E0.03690
G1 X60.803 Y91.500 E0.03692
G1 X59.817 Y90.555 E0.04925
G1 X58.629 Y89.325 E0.06165
G1 X57.948 Y88.561 E0.03690
G1 X57.288 Y87.778 E0.03690
G1 X56.241 Y86.427 E0.06165
G1 X55.446 Y85.317 E0.04925
G1 X54.880 Y84.463 E0.03692
G1 X54.338 Y83.594 E0.03695
G1 X53.822 Y82.709 E0.03695
G1 X53.394 Y81.926 E0.03216
G1 X52.865 Y80.896 E0.04175
G1 X52.427 Y79.971 E0.03693
G1 X52.014 Y79.032 E0.03695
G1 X51.629 Y78.083 E0.03695
G1 X51.271 Y77.124 E0.03692
G1 X50.840 Y75.828 E0.04925
G1 X50.363 Y74.186 E0.06165
G1 X50.117 Y73.192 E0.03690
G1 X49.899 Y72.191 E0.03695
G1 X49.710 Y71.184 E0.03695
G1 X49.550 Y70.173 E0.03690
G1 X49.350 Y68.475 E0.06165
G1 X49.243 Y67.114 E0.04925
G1 X49.199 Y66.091 E0.03692
G1 X49.184 Y65.066 E0.03695
G1 X49.199 Y64.042 E0.03695
G1 X49.243 Y63.019 E0.03692
G1 X49.350 Y61.657 E0.04925
G1 X49.550 Y59.959 E0.06165
G1 X49.710 Y58.948 E0.03690
G1 X49.899 Y57.941 E0.03695
G1 X50.117 Y56.940 E0.03695
G1 X50.363 Y55.946 E0.03690
G1 X50.840 Y54.305 E0.06165
G1 X51.271 Y53.009 E0.04925
G1 X51.629 Y52.049 E0.03692
G1 X52.014 Y51.100 E0.03695
G1 X52.427 Y50.162 E0.03695
G1 X52.865 Y49.237 E0.03692
G1 X53.494 Y48.024 E0.04925
G1 X54.339 Y46.538 E0.06165
G1 X54.880 Y45.669 E0.03690
G1 X55.446 Y44.815 E0.03695
M73 P1 R65
G1 X56.036 Y43.977 E0.03695
G1 X56.848 Y42.914 E0.04825
G1 X57.282 Y42.925 F10800.000
