; generated by PrusaSlicer 2.3.1+x64 on 2021-09-10 at 13:09:53 UTC

; 

; external perimeters extrusion width = 0.45mm
; perimeters extrusion width = 0.45mm
; infill extrusion width = 0.45mm
; solid infill extrusion width = 0.45mm
; top infill extrusion width = 0.40mm
; first layer extrusion width = 0.42mm

M73 P0 R36
M73 Q0 S36
M201 X1000 Y1000 Z200 E5000 ; sets maximum accelerations, mm/sec^2
M203 X200 Y200 Z12 E120 ; sets maximum feedrates, mm/sec
M204 P1250 R1250 T1250 ; sets acceleration (P, T) and retract acceleration (R), mm/sec^2
M205 X8.00 Y8.00 Z0.40 E4.50 ; sets the jerk limits, mm/sec
M205 S0 T0 ; sets the minimum extruding and travel feed rate, mm/sec
M107
;TYPE:Custom
M862.3 P "MK3S" ; printer model check
M862.1 P0.4 ; nozzle diameter check
M115 U3.10.0 ; tell printer latest fw version
G90 ; use absolute coordinates
M83 ; extruder relative mode
M104 S260 ; set extruder temp
M140 S50 ; set bed temp
M190 S50 ; wait for bed temp
M109 S260 ; wait for extruder temp
G28 W ; home all without mesh bed level
G80 ; mesh bed leveling
G1 Y-3.0 F1000.0 ; go outside print area
G92 E0.0
G1 X60.0 E9.0 F1000.0 ; intro line
G1 X100.0 E12.5 F1000.0 ; intro line
G92 E0.0
M221 S95

; Don't change E values below. Excessive value can damage the printer.
M907 E430 ; set extruder motor current
G21 ; set units to millimeters
G90 ; use absolute coordinates
M83 ; use relative distances for extrusion
M900 K0
;LAYER_CHANGE
;Z:0.2
;HEIGHT:0.2
;BEFORE_LAYER_CHANGE
G92 E0.0
;0.2


G1 Z0.200 F10800.000
;AFTER_LAYER_CHANGE
;0.2
G1 X86.840 Y80.676
M204 S1000
;TYPE:Skirt
;WIDTH:0.42
G1 F900.000
G1 X88.953 Y78.712 E0.10401
G1 X91.186 Y76.924 E0.10314
G1 X116.555 Y58.620 E1.12799
G1 X117.277 Y58.210 E0.02994
G1 X117.870 Y57.978 E0.02296
G1 X118.675 Y57.785 E0.02985
G1 X119.531 Y57.725 E0.03094
G1 X120.568 Y57.844 E0.03764
G1 X145.005 Y63.781 E0.90676
G1 X146.049 Y64.159 E0.04005
G1 X147.234 Y64.846 E0.04938
G1 X148.294 Y65.789 E0.05115
G1 X159.357 Y77.699 E0.58613
G1 X172.266 Y92.176 E0.69938
G1 X173.193 Y93.434 E0.05635
G1 X173.751 Y94.442 E0.04155
G1 X174.194 Y95.510 E0.04169
G1 X174.594 Y96.989 E0.05523
G1 X174.777 Y98.674 E0.06112
G1 X174.687 Y100.340 E0.06016
G1 X169.173 Y134.619 E1.25193
G1 X168.716 Y136.308 E0.06308
G1 X168.310 Y137.272 E0.03771
G1 X167.770 Y138.251 E0.04032
G1 X166.848 Y139.508 E0.05619
G1 X166.012 Y140.376 E0.04347
G1 X164.771 Y141.361 E0.05715
G1 X163.389 Y142.147 E0.05729
G1 X140.318 Y151.895 E0.90311
G1 X139.417 Y152.169 E0.03395
G1 X138.481 Y152.274 E0.03395
G1 X137.531 Y152.206 E0.03436
G1 X105.885 Y146.316 E1.16068
G1 X103.108 Y145.584 E0.10355
M73 P1 R36
M73 Q1 S36
G1 X100.392 Y144.650 E0.10355
G1 X97.753 Y143.518 E0.10355
G1 X95.194 Y142.190 E0.10396
G1 X91.946 Y140.131 E0.13863
G1 X90.409 Y138.989 E0.06904
G1 X88.257 Y137.178 E0.10145
G1 X85.527 Y134.450 E0.13914
G1 X83.082 Y131.468 E0.13905
G1 X81.490 Y129.148 E0.10145
G1 X80.504 Y127.507 E0.06904
G1 X78.768 Y124.061 E0.13914
G1 X77.382 Y120.462 E0.13905
G1 X76.598 Y117.760 E0.10145
G1 X76.176 Y115.888 E0.06918
G1 X75.610 Y112.075 E0.13900
G1 X75.422 Y108.224 E0.13905
G1 X75.481 Y106.133 E0.07540
G1 X75.712 Y103.506 E0.09509
G1 X76.369 Y99.708 E0.13900
G1 X77.400 Y95.988 E0.13918
G1 X78.112 Y94.022 E0.07540
G1 X79.155 Y91.600 E0.09509
G1 X80.973 Y88.196 E0.13914
G1 X83.102 Y85.009 E0.13818
G1 X84.894 Y82.770 E0.10341
M73 P1 R35
G1 X86.799 Y80.720 E0.10092
; printing object Project Case_Flood Dog v44 v1_Gasket_.stl id:6 copy 0
G1 X89.332 Y83.151 F10800.000
;TYPE:External perimeter
G1 F900.000
G1 X90.594 Y81.950 E0.06283
G1 X91.913 Y80.812 E0.06283
G1 X93.287 Y79.740 E0.06283
G1 X94.711 Y78.736 E0.06283
G1 X96.183 Y77.804 E0.06283
G1 X97.699 Y76.945 E0.06283
G1 X99.256 Y76.162 E0.06283
G1 X100.848 Y75.456 E0.06283
G1 X102.474 Y74.829 E0.06283
G1 X104.129 Y74.282 E0.06283
G1 X105.808 Y73.817 E0.06283
G1 X107.508 Y73.436 E0.06283
G1 X109.225 Y73.138 E0.06283
G1 X110.954 Y72.925 E0.06283
G1 X112.691 Y72.796 E0.06282
G1 X114.111 Y72.758 E0.05122
G1 X115.304 Y72.764 E0.04300
G1 X116.177 Y72.796 E0.03149
G1 X117.913 Y72.925 E0.06278
G1 X119.642 Y73.138 E0.06283
G1 X121.359 Y73.436 E0.06283
G1 X123.059 Y73.817 E0.06283
G1 X124.738 Y74.282 E0.06283
G1 X126.393 Y74.829 E0.06283
G1 X128.018 Y75.456 E0.06283
G1 X129.611 Y76.162 E0.06283
G1 X131.168 Y76.945 E0.06283
G1 X132.684 Y77.804 E0.06283
G1 X134.156 Y78.736 E0.06283
G1 X135.580 Y79.740 E0.06283
G1 X136.954 Y80.812 E0.06283
G1 X138.273 Y81.950 E0.06283
G1 X139.535 Y83.151 E0.06283
G1 X140.737 Y84.413 E0.06283
G1 X141.875 Y85.732 E0.06283
G1 X142.947 Y87.106 E0.06283
G1 X143.950 Y88.531 E0.06283
G1 X144.882 Y90.003 E0.06283
G1 X145.741 Y91.519 E0.06283
G1 X146.524 Y93.075 E0.06283
G1 X147.230 Y94.668 E0.06283
G1 X147.857 Y96.293 E0.06283
G1 X148.404 Y97.948 E0.06283
G1 X148.869 Y99.627 E0.06283
G1 X149.250 Y101.327 E0.06283
G1 X149.548 Y103.044 E0.06283
G1 X149.762 Y104.773 E0.06283
G1 X149.890 Y106.511 E0.06283
G1 X149.933 Y108.253 E0.06283
G1 X149.890 Y109.995 E0.06283
G1 X149.762 Y111.732 E0.06283
G1 X149.548 Y113.462 E0.06283
G1 X149.250 Y115.178 E0.06283
G1 X148.869 Y116.878 E0.06283
G1 X148.404 Y118.558 E0.06283
G1 X147.857 Y120.212 E0.06283
G1 X147.230 Y121.838 E0.06283
G1 X146.524 Y123.431 E0.06283
G1 X145.741 Y124.987 E0.06283
G1 X144.882 Y126.503 E0.06283
G1 X143.950 Y127.975 E0.06283
G1 X142.947 Y129.400 E0.06283
G1 X141.875 Y130.773 E0.06283
G1 X140.737 Y132.093 E0.06283
G1 X139.535 Y133.354 E0.06283
G1 X138.273 Y134.556 E0.06283
G1 X136.954 Y135.694 E0.06283
G1 X135.580 Y136.766 E0.06283
G1 X134.156 Y137.769 E0.06283
G1 X132.684 Y138.701 E0.06283
G1 X131.168 Y139.560 E0.06283
G1 X129.611 Y140.344 E0.06283
G1 X128.018 Y141.050 E0.06283
G1 X126.393 Y141.677 E0.06283
G1 X124.738 Y142.223 E0.06283
G1 X123.059 Y142.688 E0.06283
G1 X121.359 Y143.070 E0.06283
G1 X119.642 Y143.368 E0.06283
G1 X117.913 Y143.581 E0.06283
G1 X116.175 Y143.709 E0.06283
G1 X114.433 Y143.752 E0.06283
G1 X112.692 Y143.709 E0.06283
G1 X110.954 Y143.581 E0.06283
G1 X109.225 Y143.368 E0.06283
G1 X107.508 Y143.070 E0.06283
G1 X105.808 Y142.688 E0.06283
G1 X104.129 Y142.223 E0.06283
G1 X102.474 Y141.677 E0.06283
G1 X100.848 Y141.050 E0.06283
G1 X99.256 Y140.344 E0.06283
G1 X97.699 Y139.560 E0.06283
G1 X96.183 Y138.701 E0.06283
G1 X94.711 Y137.769 E0.06283
G1 X93.287 Y136.766 E0.06283
G1 X91.913 Y135.694 E0.06283
G1 X90.594 Y134.556 E0.06283
G1 X89.332 Y133.354 E0.06283
G1 X88.130 Y132.093 E0.06283
G1 X86.992 Y130.773 E0.06283
G1 X85.920 Y129.400 E0.06283
G1 X84.917 Y127.975 E0.06283
G1 X83.985 Y126.503 E0.06283
G1 X83.126 Y124.987 E0.06283
G1 X82.343 Y123.431 E0.06283
G1 X81.636 Y121.838 E0.06283
G1 X81.009 Y120.212 E0.06283
G1 X80.463 Y118.558 E0.06283
G1 X79.998 Y116.878 E0.06283
G1 X79.616 Y115.178 E0.06283
G1 X79.319 Y113.462 E0.06283
G1 X79.105 Y111.732 E0.06283
G1 X78.977 Y109.995 E0.06283
G1 X78.934 Y108.253 E0.06283
G1 X78.977 Y106.511 E0.06283
G1 X79.105 Y104.773 E0.06283
G1 X79.319 Y103.044 E0.06283
G1 X79.616 Y101.327 E0.06283
G1 X79.998 Y99.627 E0.06283
G1 X80.463 Y97.948 E0.06283
G1 X81.009 Y96.293 E0.06283
G1 X81.636 Y94.668 E0.06283
G1 X82.343 Y93.075 E0.06283
G1 X83.126 Y91.519 E0.06283
G1 X83.985 Y90.003 E0.06283
G1 X84.917 Y88.531 E0.06283
G1 X85.920 Y87.106 E0.06283
G1 X86.992 Y85.732 E0.06283
G1 X88.130 Y84.413 E0.06283
G1 X89.290 Y83.195 E0.06066
G1 X89.228 Y82.765 F10800.000
G1 X89.017 Y82.935
G1 F900.000
G1 X90.340 Y81.670 E0.06599
G1 X91.674 Y80.520 E0.06349
G1 X93.062 Y79.437 E0.06349
G1 X94.502 Y78.423 E0.06349
G1 X95.989 Y77.481 E0.06349
G1 X97.522 Y76.613 E0.06349
G1 X99.094 Y75.821 E0.06349
G1 X100.704 Y75.108 E0.06349
G1 X102.347 Y74.474 E0.06349
G1 X104.019 Y73.921 E0.06349
M73 P2 R35
G1 X105.716 Y73.452 E0.06349
M73 Q2 S36
G1 X107.434 Y73.066 E0.06349
G1 X109.169 Y72.765 E0.06349
G1 X110.917 Y72.549 E0.06349
G1 X112.674 Y72.420 E0.06354
G1 X113.552 Y72.387 E0.03168
G1 X114.645 Y72.379 E0.03940
G1 X116.194 Y72.420 E0.05585
G1 X117.950 Y72.549 E0.06350
G1 X119.698 Y72.765 E0.06349
G1 X121.433 Y73.066 E0.06349
G1 X123.151 Y73.452 E0.06349
G1 X124.848 Y73.921 E0.06349
G1 X126.520 Y74.474 E0.06349
G1 X128.163 Y75.108 E0.06349
G1 X129.772 Y75.821 E0.06349
G1 X131.345 Y76.613 E0.06349
G1 X132.877 Y77.481 E0.06349
G1 X134.365 Y78.423 E0.06349
G1 X135.805 Y79.437 E0.06349
G1 X137.193 Y80.520 E0.06349
G1 X138.526 Y81.670 E0.06349
G1 X139.802 Y82.885 E0.06349
G1 X141.016 Y84.160 E0.06349
G1 X142.166 Y85.493 E0.06349
G1 X143.249 Y86.881 E0.06349
G1 X144.263 Y88.321 E0.06349
G1 X145.205 Y89.809 E0.06349
G1 X146.073 Y91.341 E0.06349
G1 X146.865 Y92.914 E0.06349
G1 X147.579 Y94.524 E0.06349
G1 X148.212 Y96.166 E0.06349
G1 X148.765 Y97.838 E0.06349
G1 X149.234 Y99.536 E0.06349
G1 X149.620 Y101.254 E0.06349
G1 X149.921 Y102.989 E0.06349
G1 X150.137 Y104.736 E0.06349
G1 X150.266 Y106.492 E0.06349
G1 X150.310 Y108.253 E0.06349
G1 X150.266 Y110.013 E0.06349
G1 X150.137 Y111.769 E0.06349
G1 X149.921 Y113.517 E0.06349
G1 X149.620 Y115.252 E0.06349
G1 X149.234 Y116.970 E0.06349
G1 X148.765 Y118.667 E0.06349
G1 X148.212 Y120.339 E0.06349
G1 X147.579 Y121.982 E0.06349
G1 X146.865 Y123.592 E0.06349
G1 X146.073 Y125.165 E0.06349
G1 X145.205 Y126.697 E0.06349
G1 X144.263 Y128.184 E0.06349
G1 X143.249 Y129.624 E0.06349
G1 X142.166 Y131.012 E0.06349
G1 X141.016 Y132.346 E0.06349
G1 X139.802 Y133.621 E0.06349
G1 X138.526 Y134.835 E0.06349
G1 X137.193 Y135.985 E0.06349
G1 X135.805 Y137.069 E0.06349
G1 X134.365 Y138.083 E0.06349
G1 X132.877 Y139.025 E0.06349
G1 X131.345 Y139.893 E0.06349
G1 X129.772 Y140.684 E0.06349
G1 X128.163 Y141.398 E0.06349
G1 X126.520 Y142.032 E0.06349
G1 X124.848 Y142.584 E0.06349
G1 X123.151 Y143.054 E0.06349
G1 X121.433 Y143.440 E0.06349
G1 X119.698 Y143.741 E0.06349
G1 X117.950 Y143.956 E0.06349
G1 X116.194 Y144.086 E0.06349
M73 Q2 S35
G1 X114.433 Y144.129 E0.06349
G1 X112.673 Y144.086 E0.06349
G1 X110.917 Y143.956 E0.06349
G1 X109.169 Y143.741 E0.06349
G1 X107.434 Y143.440 E0.06349
G1 X105.716 Y143.054 E0.06349
G1 X104.019 Y142.584 E0.06349
G1 X102.347 Y142.032 E0.06349
G1 X100.704 Y141.398 E0.06349
G1 X99.094 Y140.684 E0.06349
G1 X97.522 Y139.893 E0.06349
G1 X95.989 Y139.025 E0.06349
G1 X94.502 Y138.083 E0.06349
G1 X93.062 Y137.069 E0.06349
G1 X91.674 Y135.985 E0.06349
G1 X90.340 Y134.835 E0.06349
G1 X89.065 Y133.621 E0.06349
G1 X87.851 Y132.346 E0.06349
G1 X86.701 Y131.012 E0.06349
G1 X85.617 Y129.624 E0.06349
G1 X84.604 Y128.184 E0.06349
G1 X83.661 Y126.697 E0.06349
G1 X82.793 Y125.165 E0.06349
G1 X82.002 Y123.592 E0.06349
G1 X81.288 Y121.982 E0.06349
G1 X80.654 Y120.339 E0.06349
G1 X80.102 Y118.667 E0.06349
G1 X79.632 Y116.970 E0.06349
G1 X79.247 Y115.252 E0.06349
G1 X78.946 Y113.517 E0.06349
G1 X78.730 Y111.769 E0.06349
G1 X78.600 Y110.013 E0.06349
G1 X78.557 Y108.253 E0.06349
G1 X78.600 Y106.492 E0.06349
G1 X78.730 Y104.736 E0.06349
G1 X78.946 Y102.989 E0.06349
G1 X79.247 Y101.254 E0.06349
G1 X79.632 Y99.536 E0.06349
G1 X80.102 Y97.838 E0.06349
G1 X80.654 Y96.166 E0.06349
G1 X81.288 Y94.524 E0.06349
G1 X82.002 Y92.914 E0.06349
G1 X82.793 Y91.341 E0.06349
G1 X83.661 Y89.809 E0.06349
G1 X84.604 Y88.321 E0.06349
G1 X85.617 Y86.881 E0.06349
G1 X86.701 Y85.493 E0.06349
G1 X87.851 Y84.160 E0.06349
G1 X88.976 Y82.978 E0.05883
G1 X89.404 Y83.038 F10800.000
; stop printing object Project Case_Flood Dog v44 v1_Gasket_.stl id:6 copy 0
; printing object Project Case_Flood Dog v44 v1_Left Wire Wrap_.stl id:0 copy 0
G1 X137.030 Y145.468
G1 F900.000
G1 X137.419 Y145.214 E0.01675
G1 X137.854 Y145.051 E0.01674
G1 X138.297 Y144.989 E0.01613
G1 X138.552 Y144.995 E0.00920
G1 X139.003 Y145.083 E0.01656
G1 X139.428 Y145.270 E0.01675
G1 X139.802 Y145.545 E0.01675
G1 X140.104 Y145.891 E0.01654
G1 X140.232 Y146.099 E0.00880
G1 X140.404 Y146.524 E0.01654
G1 X140.481 Y146.982 E0.01675
G1 X140.455 Y147.446 E0.01675
G1 X140.330 Y147.887 E0.01654
G1 X140.226 Y148.108 E0.00881
G1 X139.965 Y148.485 E0.01654
G1 X139.627 Y148.796 E0.01654
G1 X139.423 Y148.929 E0.00881
G1 X139.003 Y149.114 E0.01654
G1 X138.547 Y149.203 E0.01675
G1 X138.088 Y149.190 E0.01654
G1 X137.848 Y149.143 E0.00881
G1 X137.419 Y148.982 E0.01654
G1 X137.030 Y148.728 E0.01675
G1 X136.706 Y148.395 E0.01675
G1 X136.465 Y148.005 E0.01654
G1 X136.374 Y147.778 E0.00881
G1 X136.273 Y147.331 E0.01654
G1 X136.273 Y146.866 E0.01675
G1 X136.374 Y146.418 E0.01654
G1 X136.465 Y146.192 E0.00881
G1 X136.706 Y145.801 E0.01654
G1 X136.988 Y145.511 E0.01459
G1 X136.964 Y145.074 F10800.000
G1 X136.797 Y145.173
G1 F900.000
G1 X137.164 Y144.924 E0.01601
G1 X137.353 Y144.829 E0.00761
G1 X137.773 Y144.684 E0.01602
G1 X138.207 Y144.617 E0.01584
G1 X138.647 Y144.627 E0.01587
G1 X139.078 Y144.713 E0.01584
G1 X139.491 Y144.877 E0.01602
G1 X139.675 Y144.979 E0.00761
G1 X140.031 Y145.245 E0.01601
G1 X140.331 Y145.566 E0.01586
G1 X140.571 Y145.935 E0.01585
G1 X140.742 Y146.344 E0.01601
G1 X140.798 Y146.548 E0.00761
G1 X140.857 Y146.988 E0.01602
G1 X140.837 Y147.427 E0.01584
G1 X140.741 Y147.857 E0.01587
G1 X140.571 Y148.262 E0.01584
G1 X140.329 Y148.634 E0.01602
G1 X140.191 Y148.795 E0.00761
G1 X139.861 Y149.091 E0.01601
G1 X139.483 Y149.324 E0.01602
G1 X139.290 Y149.410 E0.00761
G1 X138.864 Y149.537 E0.01601
G1 X138.427 Y149.585 E0.01585
G1 X137.988 Y149.556 E0.01586
G1 X137.561 Y149.449 E0.01587
G1 X137.156 Y149.268 E0.01600
G1 X136.977 Y149.158 E0.00760
G1 X136.633 Y148.876 E0.01600
G1 X136.347 Y148.542 E0.01587
G1 X136.124 Y148.163 E0.01584
G1 X135.973 Y147.751 E0.01585
G1 X135.895 Y147.318 E0.01586
G1 X135.895 Y146.879 E0.01584
G1 X135.973 Y146.446 E0.01586
G1 X136.124 Y146.033 E0.01585
G1 X136.350 Y145.651 E0.01601
G1 X136.480 Y145.484 E0.00761
G1 X136.754 Y145.215 E0.01385
G1 X137.169 Y145.320 F10800.000
; stop printing object Project Case_Flood Dog v44 v1_Left Wire Wrap_.stl id:0 copy 0
; printing object Project Case_Flood Dog v44 v1_Left Cable Gland Washer_.stl id:5 copy 0
G1 X152.978 Y135.958
;TYPE:Perimeter
G1 F900.000
G1 X152.629 Y135.198 E0.03014
G1 X152.487 Y134.790 E0.01557
G1 X152.289 Y133.996 E0.02952
G1 X152.190 Y133.183 E0.02952
G1 X152.177 Y132.761 E0.01525
G1 X152.190 Y132.338 E0.01525
G1 X152.289 Y131.525 E0.02952
G1 X152.487 Y130.731 E0.02952
G1 X152.629 Y130.323 E0.01557
G1 X152.968 Y129.578 E0.02951
G1 X153.382 Y128.901 E0.02860
G1 X153.653 Y128.534 E0.01646
G1 X154.201 Y127.924 E0.02956
G1 X154.818 Y127.386 E0.02952
G1 X155.161 Y127.139 E0.01525
G1 X155.519 Y126.913 E0.01525
G1 X156.240 Y126.544 E0.02920
G1 X156.640 Y126.383 E0.01557
G1 X157.425 Y126.149 E0.02952
G1 X158.241 Y126.011 E0.02983
G1 X159.033 Y125.974 E0.02860
G1 X159.489 Y125.993 E0.01646
G1 X160.292 Y126.104 E0.02924
G1 X160.713 Y126.202 E0.01557
G1 X161.490 Y126.460 E0.02952
G1 X162.230 Y126.810 E0.02952
G1 X162.602 Y127.030 E0.01556
G1 X163.238 Y127.488 E0.02828
G1 X163.583 Y127.787 E0.01646
G1 X164.150 Y128.380 E0.02956
G1 X164.639 Y129.036 E0.02952
G1 X164.864 Y129.404 E0.01557
G1 X165.226 Y130.139 E0.02952
G1 X165.495 Y130.912 E0.02952
G1 X165.598 Y131.322 E0.01525
G1 X165.675 Y131.738 E0.01525
G1 X165.749 Y132.545 E0.02920
G1 X165.749 Y132.977 E0.01557
G1 X165.674 Y133.792 E0.02952
G1 X165.499 Y134.600 E0.02983
G1 X165.238 Y135.350 E0.02860
G1 X165.051 Y135.766 E0.01646
G1 X164.644 Y136.478 E0.02956
G1 X164.155 Y137.134 E0.02952
G1 X163.866 Y137.456 E0.01557
G1 X163.266 Y138.012 E0.02952
G1 X162.595 Y138.497 E0.02984
G1 X161.877 Y138.891 E0.02952
G1 X161.490 Y139.061 E0.01525
G1 X161.093 Y139.206 E0.01525
G1 X160.301 Y139.416 E0.02952
G1 X159.490 Y139.528 E0.02952
G1 X159.068 Y139.547 E0.01525
G1 X158.645 Y139.541 E0.01525
G1 X157.831 Y139.454 E0.02952
G1 X157.025 Y139.266 E0.02984
G1 X156.248 Y138.982 E0.02984
G1 X155.519 Y138.609 E0.02952
G1 X155.161 Y138.383 E0.01525
G1 X154.818 Y138.135 E0.01525
G1 X154.201 Y137.597 E0.02952
G1 X153.648 Y136.981 E0.02984
G1 X153.179 Y136.310 E0.02952
G1 X153.008 Y136.010 E0.01247
G1 X153.335 Y135.823 F10800.000
;TYPE:External perimeter
G1 F900.000
G1 X152.980 Y135.058 E0.03043
G1 X152.849 Y134.683 E0.01433
G1 X152.661 Y133.927 E0.02807
G1 X152.566 Y133.155 E0.02807
G1 X152.566 Y132.367 E0.02841
G1 X152.661 Y131.594 E0.02807
